(G-CODE GENERATED BY FLATCAM v8.994 - www.flatcam.org - Version Date: 2020/11/7)

(Name: copper_bottom.gbr_iso_combined_cnc)
(Type: G-code from Geometry)
(Units: MM)

(Created on Wednesday, 13 October 2021 at 17:57)

(This preprocessor is the default preprocessor used by FlatCAM.)
(It is made to work with MACH3 compatible motion controllers.)

(TOOL DIAMETER: 0.1 mm)
(Feedrate_XY: 120.0 mm/min)
(Feedrate_Z: 80.0 mm/min)
(Feedrate rapids 1500.0 mm/min)

(Z_Cut: 0.0 mm)
(Z_Move: 2.0 mm)
(Z Start: None mm)
(Z End: 15.0 mm)
(X,Y End: None mm)
(Steps per circle: 64)
(Preprocessor Geometry: default)

(X range:  -98.9577 ...   -1.0423  mm)
(Y range:    1.0423 ...   78.9577  mm)

(Spindle Speed: 10000.0 RPM)
G21
G90
G94

G01 F120.00

M5
G00 Z15.0000
G00 X0.0000 Y0.0000
T1
M6    
(MSG, Change to Tool Dia = 0.1000)
M0
G00 Z15.0000

M03 S10000.0
G01 F120.00
G00 X-7.5655 Y14.7123
G01 F80.00
G01 Z0.0000
G01 F120.00
G01 X-7.5655 Y14.8681
G01 X-8.0719 Y15.3745
G01 X-8.2277 Y15.3745
G01 X-8.2277 Y15.2204
G01 X-8.1565 Y15.2204
G01 X-8.1491 Y15.2199
G01 X-8.1419 Y15.2182
G01 X-8.1340 Y15.2151
G01 X-8.1267 Y15.2106
G01 X-8.1211 Y15.2058
G01 X-7.7310 Y14.8153
G01 X-7.7267 Y14.8093
G01 X-7.7234 Y14.8027
G01 X-7.7211 Y14.7957
G01 X-7.7198 Y14.7884
G01 X-7.7196 Y14.7123
G01 X-7.5655 Y14.7123
G00 Z2.0000
G00 X-8.6323 Y15.2204
G01 F80.00
G01 Z0.0000
G01 F120.00
G01 X-8.6323 Y15.3745
G01 X-8.7881 Y15.3745
G01 X-9.2945 Y14.8681
G01 X-9.2945 Y14.7123
G01 X-9.1404 Y14.7123
G01 X-9.1402 Y14.7884
G01 X-9.1389 Y14.7957
G01 X-9.1366 Y14.8027
G01 X-9.1333 Y14.8093
G01 X-9.1290 Y14.8153
G01 X-8.7389 Y15.2058
G01 X-8.7333 Y15.2106
G01 X-8.7260 Y15.2151
G01 X-8.7192 Y15.2179
G01 X-8.7109 Y15.2199
G01 X-8.7035 Y15.2204
G01 X-8.6323 Y15.2204
G00 Z2.0000
G00 X-8.6323 Y19.6178
G01 F80.00
G01 Z0.0000
G01 F120.00
G01 X-8.6323 Y19.7719
G01 X-8.7651 Y19.7720
G01 X-8.7724 Y19.7731
G01 X-8.7794 Y19.7753
G01 X-8.7861 Y19.7784
G01 X-8.7922 Y19.7825
G01 X-8.7968 Y19.7865
G01 X-9.2655 Y20.2552
G01 X-9.2710 Y20.2618
G01 X-9.2753 Y20.2692
G01 X-9.2783 Y20.2773
G01 X-9.2799 Y20.2857
G01 X-9.2801 Y20.4197
G01 X-9.4342 Y20.4197
G01 X-9.4342 Y20.2060
G01 X-8.8460 Y19.6178
G01 X-8.6323 Y19.6178
G00 Z2.0000
G00 X-8.0140 Y19.6178
G01 F80.00
G01 Z0.0000
G01 F120.00
G01 X-7.4258 Y20.2060
G01 X-7.4258 Y20.4197
G01 X-7.5799 Y20.4197
G01 X-7.5800 Y20.2869
G01 X-7.5811 Y20.2796
G01 X-7.5833 Y20.2726
G01 X-7.5864 Y20.2659
G01 X-7.5905 Y20.2598
G01 X-7.5945 Y20.2552
G01 X-8.0632 Y19.7865
G01 X-8.0698 Y19.7810
G01 X-8.0772 Y19.7767
G01 X-8.0853 Y19.7737
G01 X-8.0937 Y19.7721
G01 X-8.2277 Y19.7719
G01 X-8.2277 Y19.6178
G01 X-8.0140 Y19.6178
G00 Z2.0000
G00 X-7.4258 Y20.8243
G01 F80.00
G01 Z0.0000
G01 F120.00
G01 X-7.4258 Y21.0380
G01 X-8.0140 Y21.6262
G01 X-8.2277 Y21.6262
G01 X-8.2277 Y21.4721
G01 X-8.0949 Y21.4720
G01 X-8.0876 Y21.4709
G01 X-8.0806 Y21.4687
G01 X-8.0739 Y21.4656
G01 X-8.0678 Y21.4615
G01 X-8.0632 Y21.4575
G01 X-7.5945 Y20.9888
G01 X-7.5890 Y20.9822
G01 X-7.5847 Y20.9748
G01 X-7.5817 Y20.9667
G01 X-7.5801 Y20.9583
G01 X-7.5799 Y20.8243
G01 X-7.4258 Y20.8243
G00 Z2.0000
G00 X-8.6323 Y21.4721
G01 F80.00
G01 Z0.0000
G01 F120.00
G01 X-8.6323 Y21.6262
G01 X-8.8460 Y21.6262
G01 X-9.4342 Y21.0380
G01 X-9.4342 Y20.8243
G01 X-9.2801 Y20.8243
G01 X-9.2800 Y20.9571
G01 X-9.2789 Y20.9644
G01 X-9.2767 Y20.9714
G01 X-9.2736 Y20.9781
G01 X-9.2695 Y20.9842
G01 X-9.2655 Y20.9888
G01 X-8.7968 Y21.4575
G01 X-8.7902 Y21.4630
G01 X-8.7828 Y21.4673
G01 X-8.7747 Y21.4703
G01 X-8.7663 Y21.4719
G01 X-8.6323 Y21.4721
G00 Z2.0000
G00 X-20.9277 Y8.6886
G01 F80.00
G01 Z0.0000
G01 F120.00
G01 X-20.8554 Y8.6705
G01 X-20.7703 Y8.6401
G01 X-20.6863 Y8.6006
G01 X-20.6045 Y8.5518
G01 X-20.5319 Y8.4980
G01 X-20.4612 Y8.4342
G01 X-20.3989 Y8.3654
G01 X-20.3436 Y8.2909
G01 X-20.2965 Y8.2123
G01 X-20.2562 Y8.1273
G01 X-20.2249 Y8.0400
G01 X-20.2024 Y7.9499
G01 X-20.1888 Y7.8581
G01 X-20.1842 Y7.7654
G01 X-20.1842 Y7.0723
G01 X-20.0306 Y7.0723
G01 X-20.0306 Y7.8519
G01 X-20.0577 Y8.0228
G01 X-20.1111 Y8.1874
G01 X-20.1897 Y8.3416
G01 X-20.2914 Y8.4816
G01 X-20.4138 Y8.6040
G01 X-20.5538 Y8.7056
G01 X-20.7080 Y8.7843
G01 X-20.8725 Y8.8377
G01 X-20.9277 Y8.8465
G01 X-20.9277 Y8.6886
G00 Z2.0000
G00 X-21.3323 Y8.6886
G01 F80.00
G01 Z0.0000
G01 F120.00
G01 X-21.3323 Y8.8465
G01 X-21.3875 Y8.8377
G01 X-21.5520 Y8.7843
G01 X-21.7062 Y8.7056
G01 X-21.8462 Y8.6040
G01 X-21.9686 Y8.4816
G01 X-22.0703 Y8.3416
G01 X-22.1489 Y8.1874
G01 X-22.2023 Y8.0228
G01 X-22.2294 Y7.8519
G01 X-22.2294 Y7.0723
G01 X-22.0758 Y7.0723
G01 X-22.0758 Y7.7654
G01 X-22.0712 Y7.8581
G01 X-22.0576 Y7.9499
G01 X-22.0351 Y8.0400
G01 X-22.0038 Y8.1273
G01 X-21.9635 Y8.2123
G01 X-21.9164 Y8.2909
G01 X-21.8611 Y8.3654
G01 X-21.7988 Y8.4342
G01 X-21.7281 Y8.4980
G01 X-21.6555 Y8.5518
G01 X-21.5737 Y8.6006
G01 X-21.4897 Y8.6401
G01 X-21.4046 Y8.6705
G01 X-21.3323 Y8.6886
G00 Z2.0000
G00 X-22.0758 Y6.6677
G01 F80.00
G01 Z0.0000
G01 F120.00
G01 X-22.2294 Y6.6677
G01 X-22.2294 Y5.8881
G01 X-22.2023 Y5.7172
G01 X-22.1489 Y5.5526
G01 X-22.0703 Y5.3984
G01 X-21.9686 Y5.2584
G01 X-21.8462 Y5.1360
G01 X-21.7062 Y5.0344
G01 X-21.5520 Y4.9557
G01 X-21.3875 Y4.9023
G01 X-21.3323 Y4.8935
G01 X-21.3323 Y5.0515
G01 X-21.4046 Y5.0696
G01 X-21.4897 Y5.1000
G01 X-21.5737 Y5.1395
G01 X-21.6555 Y5.1883
G01 X-21.7300 Y5.2436
G01 X-21.7988 Y5.3059
G01 X-21.8626 Y5.3766
G01 X-21.9164 Y5.4492
G01 X-21.9629 Y5.5267
G01 X-22.0038 Y5.6128
G01 X-22.0351 Y5.7001
G01 X-22.0571 Y5.7878
G01 X-22.0713 Y5.8832
G01 X-22.0758 Y5.9747
G01 X-22.0758 Y6.6677
G00 Z2.0000
G00 X-20.9277 Y5.0515
G01 F80.00
G01 Z0.0000
G01 F120.00
G01 X-20.9277 Y4.8935
G01 X-20.8725 Y4.9023
G01 X-20.7080 Y4.9557
G01 X-20.5538 Y5.0344
G01 X-20.4138 Y5.1360
G01 X-20.2914 Y5.2584
G01 X-20.1897 Y5.3984
G01 X-20.1111 Y5.5526
G01 X-20.0577 Y5.7172
G01 X-20.0306 Y5.8881
G01 X-20.0306 Y6.6677
G01 X-20.1842 Y6.6677
G01 X-20.1842 Y5.9747
G01 X-20.1888 Y5.8820
G01 X-20.2024 Y5.7902
G01 X-20.2249 Y5.7001
G01 X-20.2562 Y5.6128
G01 X-20.2965 Y5.5278
G01 X-20.3436 Y5.4492
G01 X-20.3989 Y5.3747
G01 X-20.4612 Y5.3059
G01 X-20.5319 Y5.2421
G01 X-20.6045 Y5.1883
G01 X-20.6863 Y5.1395
G01 X-20.7703 Y5.1000
G01 X-20.8554 Y5.0696
G01 X-20.9277 Y5.0515
G00 Z2.0000
G00 X-56.2079 Y14.2847
G01 F80.00
G01 Z0.0000
G01 F120.00
G01 X-41.9631 Y14.2847
G01 X-41.9594 Y14.2792
G01 X-41.9554 Y14.2746
G01 X-41.9508 Y14.2706
G01 X-41.9457 Y14.2671
G01 X-41.9403 Y14.2643
G01 X-41.9345 Y14.2622
G01 X-41.9285 Y14.2607
G01 X-41.9212 Y14.2600
G01 X-40.0600 Y14.2600
G01 X-40.0515 Y14.2607
G01 X-40.0432 Y14.2629
G01 X-40.0343 Y14.2671
G01 X-40.0273 Y14.2721
G01 X-40.0213 Y14.2783
G01 X-40.0165 Y14.2854
G01 X-40.0129 Y14.2932
G01 X-40.0107 Y14.3015
G01 X-40.0100 Y14.3100
G01 X-40.0100 Y14.5547
G01 X-24.7600 Y14.5547
G01 X-24.6940 Y14.5579
G01 X-24.6239 Y14.5684
G01 X-24.5611 Y14.5842
G01 X-24.4977 Y14.6068
G01 X-24.4369 Y14.6356
G01 X-24.3813 Y14.6689
G01 X-24.3243 Y14.7110
G01 X-24.2754 Y14.7554
G01 X-23.4554 Y15.5754
G01 X-23.4102 Y15.6252
G01 X-23.3709 Y15.6782
G01 X-23.3356 Y15.7369
G01 X-23.3060 Y15.8000
G01 X-23.2842 Y15.8611
G01 X-23.2684 Y15.9239
G01 X-23.2581 Y15.9916
G01 X-23.2547 Y16.0600
G01 X-23.2547 Y16.6347
G01 X-18.5453 Y16.6347
G01 X-18.5453 Y14.8600
G01 X-18.5422 Y14.7953
G01 X-18.5321 Y14.7263
G01 X-18.5150 Y14.6587
G01 X-18.4932 Y14.5977
G01 X-18.4655 Y14.5391
G01 X-18.4305 Y14.4803
G01 X-18.3898 Y14.4252
G01 X-18.3446 Y14.3754
G01 X-15.4846 Y11.5154
G01 X-15.4348 Y11.4702
G01 X-15.3807 Y11.4302
G01 X-15.3231 Y11.3956
G01 X-15.2634 Y11.3673
G01 X-15.1989 Y11.3442
G01 X-15.1337 Y11.3279
G01 X-15.0672 Y11.3180
G01 X-15.0012 Y11.3147
G01 X-8.7793 Y11.3147
G01 X-8.7389 Y11.2742
G01 X-8.7343 Y11.2702
G01 X-8.7282 Y11.2661
G01 X-8.7215 Y11.2630
G01 X-8.7145 Y11.2608
G01 X-8.7084 Y11.2598
G01 X-8.1540 Y11.2597
G01 X-8.1455 Y11.2608
G01 X-8.1362 Y11.2639
G01 X-8.1287 Y11.2680
G01 X-8.1220 Y11.2734
G01 X-7.7342 Y11.6611
G01 X-7.7287 Y11.6677
G01 X-7.7239 Y11.6762
G01 X-7.7208 Y11.6855
G01 X-7.7197 Y11.6940
G01 X-7.7196 Y12.2435
G01 X-7.7206 Y12.2533
G01 X-7.7218 Y12.2581
G01 X-7.7239 Y12.2638
G01 X-7.7280 Y12.2713
G01 X-7.7342 Y12.2789
G01 X-8.1211 Y12.6658
G01 X-8.1277 Y12.6713
G01 X-8.1340 Y12.6751
G01 X-8.1419 Y12.6782
G01 X-8.1491 Y12.6799
G01 X-8.1565 Y12.6804
G01 X-8.3815 Y12.6804
G01 X-8.3940 Y12.6821
G01 X-8.4600 Y12.6853
G01 X-14.7161 Y12.6853
G01 X-17.1747 Y15.1439
G01 X-17.1747 Y17.0007
G01 X-17.1617 Y17.0138
G01 X-17.1561 Y17.0218
G01 X-17.1534 Y17.0273
G01 X-17.1514 Y17.0331
G01 X-17.1503 Y17.0379
G01 X-17.1497 Y17.0440
G01 X-17.1496 Y17.5935
G01 X-17.1501 Y17.6009
G01 X-17.1518 Y17.6081
G01 X-17.1549 Y17.6160
G01 X-17.1587 Y17.6223
G01 X-17.1634 Y17.6280
G01 X-17.5511 Y18.0158
G01 X-17.5577 Y18.0213
G01 X-17.5662 Y18.0261
G01 X-17.5755 Y18.0292
G01 X-17.5840 Y18.0303
G01 X-18.1360 Y18.0303
G01 X-18.1421 Y18.0297
G01 X-18.1481 Y18.0282
G01 X-18.1538 Y18.0261
G01 X-18.1582 Y18.0239
G01 X-18.1662 Y18.0183
G01 X-18.1793 Y18.0053
G01 X-23.3750 Y18.0053
G01 X-23.4465 Y18.0585
G01 X-23.5235 Y18.1044
G01 X-23.6001 Y18.1406
G01 X-23.6798 Y18.1692
G01 X-23.7667 Y18.1911
G01 X-23.8529 Y18.2039
G01 X-23.9425 Y18.2081
G01 X-24.0271 Y18.2039
G01 X-24.1109 Y18.1916
G01 X-24.1967 Y18.1703
G01 X-24.2799 Y18.1406
G01 X-24.3608 Y18.1021
G01 X-24.4335 Y18.0585
G01 X-24.5015 Y18.0081
G01 X-24.5663 Y17.9497
G01 X-24.6266 Y17.8835
G01 X-24.6785 Y17.8135
G01 X-24.7233 Y17.7387
G01 X-24.7610 Y17.6588
G01 X-24.7906 Y17.5755
G01 X-24.8111 Y17.4933
G01 X-24.8236 Y17.4095
G01 X-24.8282 Y17.3200
G01 X-24.8239 Y17.2329
G01 X-24.8111 Y17.1467
G01 X-24.7906 Y17.0645
G01 X-24.7606 Y16.9801
G01 X-24.7233 Y16.9013
G01 X-24.6798 Y16.8286
G01 X-24.6253 Y16.7550
G01 X-24.6253 Y16.3439
G01 X-25.0439 Y15.9253
G01 X-40.0100 Y15.9253
G01 X-40.0100 Y16.1700
G01 X-40.0105 Y16.1773
G01 X-40.0122 Y16.1845
G01 X-40.0153 Y16.1925
G01 X-40.0198 Y16.1998
G01 X-40.0246 Y16.2054
G01 X-40.0302 Y16.2102
G01 X-40.0375 Y16.2147
G01 X-40.0455 Y16.2178
G01 X-40.0527 Y16.2195
G01 X-40.0600 Y16.2200
G01 X-41.9200 Y16.2200
G01 X-41.9285 Y16.2193
G01 X-41.9380 Y16.2166
G01 X-41.9457 Y16.2129
G01 X-41.9536 Y16.2070
G01 X-41.9594 Y16.2008
G01 X-41.9647 Y16.1925
G01 X-41.9678 Y16.1845
G01 X-41.9698 Y16.1749
G01 X-41.9700 Y15.6553
G01 X-56.2079 Y15.6553
G01 X-56.2379 Y15.6955
G01 X-56.3115 Y15.7768
G01 X-56.3945 Y15.8521
G01 X-56.4854 Y15.9197
G01 X-56.5827 Y15.9779
G01 X-56.6852 Y16.0261
G01 X-56.7884 Y16.0630
G01 X-56.8948 Y16.0897
G01 X-57.0080 Y16.1067
G01 X-57.1200 Y16.1122
G01 X-57.2320 Y16.1067
G01 X-57.3452 Y16.0897
G01 X-57.4539 Y16.0622
G01 X-57.5571 Y16.0253
G01 X-57.6562 Y15.9784
G01 X-57.7546 Y15.9197
G01 X-57.8446 Y15.8529
G01 X-57.9277 Y15.7777
G01 X-58.0037 Y15.6936
G01 X-58.0697 Y15.6046
G01 X-58.1273 Y15.5084
G01 X-58.1753 Y15.4071
G01 X-58.2130 Y15.3016
G01 X-58.2403 Y15.1928
G01 X-58.2567 Y15.0820
G01 X-58.2622 Y14.9700
G01 X-58.2567 Y14.8580
G01 X-58.2403 Y14.7472
G01 X-58.2130 Y14.6384
G01 X-58.1753 Y14.5329
G01 X-58.1273 Y14.4316
G01 X-58.0697 Y14.3354
G01 X-58.0029 Y14.2454
G01 X-57.9277 Y14.1623
G01 X-57.8436 Y14.0863
G01 X-57.7546 Y14.0203
G01 X-57.6584 Y13.9627
G01 X-57.5571 Y13.9147
G01 X-57.4516 Y13.8770
G01 X-57.3428 Y13.8497
G01 X-57.2320 Y13.8333
G01 X-57.1200 Y13.8278
G01 X-57.0068 Y13.8334
G01 X-56.8972 Y13.8497
G01 X-56.7884 Y13.8770
G01 X-56.6829 Y13.9147
G01 X-56.5805 Y13.9633
G01 X-56.4854 Y14.0203
G01 X-56.3945 Y14.0879
G01 X-56.3115 Y14.1632
G01 X-56.2379 Y14.2445
G01 X-56.2079 Y14.2847
G00 Z2.0000
G00 X-65.8396 Y15.1723
G01 F80.00
G01 Z0.0000
G01 F120.00
G01 X-65.8557 Y15.2735
G01 X-65.9187 Y15.4676
G01 X-66.0114 Y15.6494
G01 X-66.1312 Y15.8144
G01 X-66.2756 Y15.9588
G01 X-66.4406 Y16.0786
G01 X-66.6224 Y16.1713
G01 X-66.8165 Y16.2343
G01 X-66.9177 Y16.2504
G01 X-66.9177 Y16.0934
G01 X-66.8960 Y16.0900
G01 X-66.7884 Y16.0630
G01 X-66.6807 Y16.0243
G01 X-66.5816 Y15.9773
G01 X-66.4875 Y15.9210
G01 X-66.3945 Y15.8521
G01 X-66.3123 Y15.7777
G01 X-66.2371 Y15.6946
G01 X-66.1703 Y15.6046
G01 X-66.1139 Y15.5106
G01 X-66.0647 Y15.4071
G01 X-66.0278 Y15.3039
G01 X-66.0000 Y15.1940
G01 X-65.9966 Y15.1723
G01 X-65.8396 Y15.1723
G00 Z2.0000
G00 X-67.3223 Y16.0934
G01 F80.00
G01 Z0.0000
G01 F120.00
G01 X-67.3223 Y16.2504
G01 X-67.4235 Y16.2343
G01 X-67.6176 Y16.1713
G01 X-67.7994 Y16.0786
G01 X-67.9644 Y15.9588
G01 X-68.1088 Y15.8144
G01 X-68.2286 Y15.6494
G01 X-68.3213 Y15.4676
G01 X-68.3843 Y15.2735
G01 X-68.4004 Y15.1723
G01 X-68.2434 Y15.1723
G01 X-68.2400 Y15.1940
G01 X-68.2122 Y15.3039
G01 X-68.1753 Y15.4071
G01 X-68.1261 Y15.5106
G01 X-68.0697 Y15.6046
G01 X-68.0029 Y15.6946
G01 X-67.9277 Y15.7777
G01 X-67.8455 Y15.8521
G01 X-67.7525 Y15.9210
G01 X-67.6584 Y15.9773
G01 X-67.5593 Y16.0243
G01 X-67.4516 Y16.0630
G01 X-67.3440 Y16.0900
G01 X-67.3223 Y16.0934
G00 Z2.0000
G00 X-68.2434 Y14.7677
G01 F80.00
G01 Z0.0000
G01 F120.00
G01 X-68.4004 Y14.7677
G01 X-68.3843 Y14.6665
G01 X-68.3213 Y14.4724
G01 X-68.2286 Y14.2906
G01 X-68.1088 Y14.1256
G01 X-67.9644 Y13.9812
G01 X-67.7994 Y13.8614
G01 X-67.6176 Y13.7687
G01 X-67.4235 Y13.7057
G01 X-67.3223 Y13.6896
G01 X-67.3223 Y13.8466
G01 X-67.3440 Y13.8500
G01 X-67.4539 Y13.8778
G01 X-67.5571 Y13.9147
G01 X-67.6606 Y13.9639
G01 X-67.7546 Y14.0203
G01 X-67.8446 Y14.0871
G01 X-67.9277 Y14.1623
G01 X-68.0021 Y14.2445
G01 X-68.0710 Y14.3375
G01 X-68.1273 Y14.4316
G01 X-68.1743 Y14.5307
G01 X-68.2130 Y14.6384
G01 X-68.2400 Y14.7460
G01 X-68.2434 Y14.7677
G00 Z2.0000
G00 X-66.8165 Y13.7057
G01 F80.00
G01 Z0.0000
G01 F120.00
G01 X-66.6224 Y13.7687
G01 X-66.4406 Y13.8614
G01 X-66.2756 Y13.9812
G01 X-66.1312 Y14.1256
G01 X-66.0114 Y14.2906
G01 X-65.9187 Y14.4724
G01 X-65.8557 Y14.6665
G01 X-65.8396 Y14.7677
G01 X-65.9966 Y14.7677
G01 X-66.0000 Y14.7460
G01 X-66.0278 Y14.6361
G01 X-66.0647 Y14.5329
G01 X-66.1139 Y14.4294
G01 X-66.1703 Y14.3354
G01 X-66.2371 Y14.2454
G01 X-66.3123 Y14.1623
G01 X-66.3945 Y14.0879
G01 X-66.4875 Y14.0190
G01 X-66.5816 Y13.9627
G01 X-66.6807 Y13.9157
G01 X-66.7884 Y13.8770
G01 X-66.8960 Y13.8500
G01 X-66.9177 Y13.8466
G01 X-66.9177 Y13.6896
G01 X-66.8165 Y13.7057
G00 Z2.0000
G00 X-76.5853 Y14.0579
G01 F80.00
G01 Z0.0000
G01 F120.00
G01 X-76.5853 Y11.8988
G01 X-76.5820 Y11.8328
G01 X-76.5721 Y11.7663
G01 X-76.5558 Y11.7011
G01 X-76.5336 Y11.6389
G01 X-76.5044 Y11.5769
G01 X-76.4698 Y11.5193
G01 X-76.4298 Y11.4652
G01 X-76.3854 Y11.4163
G01 X-75.4837 Y10.5146
G01 X-75.4328 Y10.4687
G01 X-75.3807 Y10.4302
G01 X-75.3252 Y10.3968
G01 X-75.2623 Y10.3668
G01 X-75.1989 Y10.3442
G01 X-75.1337 Y10.3279
G01 X-75.0696 Y10.3183
G01 X-75.0000 Y10.3147
G01 X-64.0000 Y10.3147
G01 X-63.9340 Y10.3179
G01 X-63.8663 Y10.3279
G01 X-63.8034 Y10.3435
G01 X-63.7355 Y10.3678
G01 X-63.6769 Y10.3956
G01 X-63.6193 Y10.4302
G01 X-63.5652 Y10.4702
G01 X-63.5172 Y10.5137
G01 X-61.6354 Y12.3954
G01 X-61.5902 Y12.4452
G01 X-61.5495 Y12.5003
G01 X-61.5145 Y12.5591
G01 X-61.4868 Y12.6177
G01 X-61.4650 Y12.6787
G01 X-61.4479 Y12.7463
G01 X-61.4379 Y12.8140
G01 X-61.4347 Y12.8800
G01 X-61.4347 Y14.0579
G01 X-61.3945 Y14.0879
G01 X-61.3132 Y14.1615
G01 X-61.2363 Y14.2464
G01 X-61.1690 Y14.3375
G01 X-61.1127 Y14.4316
G01 X-61.0652 Y14.5318
G01 X-61.0270 Y14.6384
G01 X-60.9993 Y14.7496
G01 X-60.9833 Y14.8580
G01 X-60.9779 Y14.9675
G01 X-60.9832 Y15.0807
G01 X-61.0003 Y15.1952
G01 X-61.0270 Y15.3016
G01 X-61.0647 Y15.4071
G01 X-61.1139 Y15.5106
G01 X-61.1703 Y15.6046
G01 X-61.2371 Y15.6946
G01 X-61.3123 Y15.7777
G01 X-61.3935 Y15.8513
G01 X-61.4854 Y15.9197
G01 X-61.5838 Y15.9784
G01 X-61.6829 Y16.0253
G01 X-61.7861 Y16.0622
G01 X-61.8972 Y16.0903
G01 X-62.0105 Y16.1069
G01 X-62.1200 Y16.1122
G01 X-62.2295 Y16.1069
G01 X-62.3452 Y16.0897
G01 X-62.4516 Y16.0630
G01 X-62.5548 Y16.0261
G01 X-62.6584 Y15.9773
G01 X-62.7546 Y15.9197
G01 X-62.8427 Y15.8544
G01 X-62.9285 Y15.7768
G01 X-63.0029 Y15.6946
G01 X-63.0697 Y15.6046
G01 X-63.1273 Y15.5084
G01 X-63.1753 Y15.4071
G01 X-63.2130 Y15.3016
G01 X-63.2403 Y15.1928
G01 X-63.2567 Y15.0820
G01 X-63.2621 Y14.9675
G01 X-63.2567 Y14.8580
G01 X-63.2407 Y14.7496
G01 X-63.2137 Y14.6408
G01 X-63.1753 Y14.5329
G01 X-63.1279 Y14.4327
G01 X-63.0697 Y14.3354
G01 X-63.0021 Y14.2445
G01 X-62.9268 Y14.1615
G01 X-62.8455 Y14.0879
G01 X-62.8053 Y14.0579
G01 X-62.8053 Y13.1639
G01 X-64.2839 Y11.6853
G01 X-74.7161 Y11.6853
G01 X-75.2147 Y12.1839
G01 X-75.2147 Y14.0579
G01 X-75.1745 Y14.0879
G01 X-75.0932 Y14.1615
G01 X-75.0163 Y14.2464
G01 X-74.9503 Y14.3354
G01 X-74.8939 Y14.4294
G01 X-74.8443 Y14.5340
G01 X-74.8070 Y14.6384
G01 X-74.7803 Y14.7448
G01 X-74.7633 Y14.8580
G01 X-74.7578 Y14.9700
G01 X-74.7631 Y15.0795
G01 X-74.7800 Y15.1940
G01 X-74.8070 Y15.3016
G01 X-74.8439 Y15.4048
G01 X-74.8927 Y15.5084
G01 X-74.9503 Y15.6046
G01 X-75.0156 Y15.6927
G01 X-75.0923 Y15.7777
G01 X-75.1773 Y15.8544
G01 X-75.2654 Y15.9197
G01 X-75.3616 Y15.9773
G01 X-75.4652 Y16.0261
G01 X-75.5684 Y16.0630
G01 X-75.6772 Y16.0903
G01 X-75.7880 Y16.1067
G01 X-75.9000 Y16.1122
G01 X-76.0120 Y16.1067
G01 X-76.1204 Y16.0907
G01 X-76.2339 Y16.0622
G01 X-76.3371 Y16.0253
G01 X-76.4384 Y15.9773
G01 X-76.5346 Y15.9197
G01 X-76.6227 Y15.8544
G01 X-76.7093 Y15.7759
G01 X-76.7829 Y15.6946
G01 X-76.8497 Y15.6046
G01 X-76.9073 Y15.5084
G01 X-76.9548 Y15.4082
G01 X-76.9930 Y15.3016
G01 X-77.0197 Y15.1952
G01 X-77.0369 Y15.0795
G01 X-77.0422 Y14.9700
G01 X-77.0367 Y14.8580
G01 X-77.0203 Y14.7472
G01 X-76.9934 Y14.6396
G01 X-76.9553 Y14.5329
G01 X-76.9084 Y14.4338
G01 X-76.8490 Y14.3344
G01 X-76.7829 Y14.2454
G01 X-76.7085 Y14.1632
G01 X-76.6255 Y14.0879
G01 X-76.5853 Y14.0579
G00 Z2.0000
G00 X-77.5167 Y13.6685
G01 F80.00
G01 Z0.0000
G01 F120.00
G01 X-77.5124 Y13.6600
G01 X-77.5043 Y13.6366
G01 X-77.5022 Y13.6243
G01 X-77.5011 Y13.6080
G01 X-77.5011 Y11.5815
G01 X-77.2573 Y10.9930
G01 X-75.9070 Y9.6427
G01 X-75.3185 Y9.3989
G01 X-63.6815 Y9.3989
G01 X-63.0930 Y9.6427
G01 X-60.7627 Y11.9730
G01 X-60.5189 Y12.5615
G01 X-60.5189 Y13.6080
G01 X-60.5186 Y13.6131
G01 X-60.5172 Y13.6230
G01 X-60.5162 Y13.6329
G01 X-60.5150 Y13.6389
G01 X-60.5111 Y13.6516
G01 X-60.5058 Y13.6620
G01 X-60.5020 Y13.6707
G01 X-60.4989 Y13.6762
G01 X-60.4914 Y13.6865
G01 X-60.4820 Y13.6971
G01 X-60.3751 Y13.8041
G01 X-60.0617 Y14.5605
G01 X-60.0617 Y15.3795
G01 X-60.3751 Y16.1359
G01 X-60.9541 Y16.7149
G01 X-61.7105 Y17.0283
G01 X-62.5295 Y17.0283
G01 X-63.2859 Y16.7149
G01 X-63.8649 Y16.1359
G01 X-64.1783 Y15.3795
G01 X-64.1783 Y14.5605
G01 X-63.8649 Y13.8041
G01 X-63.7564 Y13.6955
G01 X-63.7407 Y13.6756
G01 X-63.7334 Y13.6622
G01 X-63.7250 Y13.6389
G01 X-63.7238 Y13.6343
G01 X-63.7220 Y13.6230
G01 X-63.7211 Y13.6091
G01 X-63.7212 Y13.5928
G01 X-63.7244 Y13.5667
G01 X-63.7272 Y13.5565
G01 X-63.7288 Y13.5521
G01 X-63.7342 Y13.5415
G01 X-63.7392 Y13.5305
G01 X-63.7470 Y13.5188
G01 X-63.7580 Y13.5062
G01 X-64.6262 Y12.6380
G01 X-64.6306 Y12.6342
G01 X-64.6380 Y12.6288
G01 X-64.6480 Y12.6206
G01 X-64.6586 Y12.6146
G01 X-64.6644 Y12.6121
G01 X-64.6736 Y12.6091
G01 X-64.6824 Y12.6057
G01 X-64.6881 Y12.6041
G01 X-64.6994 Y12.6021
G01 X-64.7154 Y12.6011
G01 X-74.1728 Y12.6011
G01 X-74.1812 Y12.6014
G01 X-74.2085 Y12.6063
G01 X-74.2199 Y12.6102
G01 X-74.2253 Y12.6128
G01 X-74.2446 Y12.6238
G01 X-74.2550 Y12.6315
G01 X-74.2584 Y12.6349
G01 X-74.2657 Y12.6434
G01 X-74.2743 Y12.6525
G01 X-74.2815 Y12.6632
G01 X-74.2930 Y12.6894
G01 X-74.2958 Y12.6993
G01 X-74.2968 Y12.7051
G01 X-74.2989 Y12.7272
G01 X-74.2989 Y13.6080
G01 X-74.2986 Y13.6131
G01 X-74.2972 Y13.6230
G01 X-74.2961 Y13.6341
G01 X-74.2928 Y13.6471
G01 X-74.2901 Y13.6538
G01 X-74.2858 Y13.6620
G01 X-74.2808 Y13.6729
G01 X-74.2722 Y13.6855
G01 X-74.2620 Y13.6971
G01 X-74.1551 Y13.8041
G01 X-73.8417 Y14.5605
G01 X-73.8417 Y15.3795
G01 X-74.1551 Y16.1359
G01 X-74.7341 Y16.7149
G01 X-75.4905 Y17.0283
G01 X-76.3095 Y17.0283
G01 X-77.0659 Y16.7149
G01 X-77.6449 Y16.1359
G01 X-77.9583 Y15.3795
G01 X-77.9583 Y14.5605
G01 X-77.6449 Y13.8041
G01 X-77.5372 Y13.6963
G01 X-77.5342 Y13.6928
G01 X-77.5288 Y13.6854
G01 X-77.5221 Y13.6775
G01 X-77.5194 Y13.6736
G01 X-77.5167 Y13.6685
G00 Z2.0000
G00 X-79.6196 Y15.1723
G01 F80.00
G01 Z0.0000
G01 F120.00
G01 X-79.6357 Y15.2735
G01 X-79.6987 Y15.4676
G01 X-79.7914 Y15.6494
G01 X-79.9112 Y15.8144
G01 X-80.0556 Y15.9588
G01 X-80.2206 Y16.0786
G01 X-80.4024 Y16.1713
G01 X-80.5965 Y16.2343
G01 X-80.6977 Y16.2504
G01 X-80.6977 Y16.0934
G01 X-80.6760 Y16.0900
G01 X-80.5684 Y16.0630
G01 X-80.4607 Y16.0243
G01 X-80.3616 Y15.9773
G01 X-80.2675 Y15.9210
G01 X-80.1745 Y15.8521
G01 X-80.0923 Y15.7777
G01 X-80.0171 Y15.6946
G01 X-79.9503 Y15.6046
G01 X-79.8939 Y15.5106
G01 X-79.8447 Y15.4071
G01 X-79.8078 Y15.3039
G01 X-79.7800 Y15.1940
G01 X-79.7766 Y15.1723
G01 X-79.6196 Y15.1723
G00 Z2.0000
G00 X-81.1023 Y16.0934
G01 F80.00
G01 Z0.0000
G01 F120.00
G01 X-81.1023 Y16.2504
G01 X-81.2035 Y16.2343
G01 X-81.3976 Y16.1713
G01 X-81.5794 Y16.0786
G01 X-81.7444 Y15.9588
G01 X-81.8888 Y15.8144
G01 X-82.0086 Y15.6494
G01 X-82.1013 Y15.4676
G01 X-82.1643 Y15.2735
G01 X-82.1804 Y15.1723
G01 X-82.0234 Y15.1723
G01 X-82.0200 Y15.1940
G01 X-81.9922 Y15.3039
G01 X-81.9553 Y15.4071
G01 X-81.9061 Y15.5106
G01 X-81.8497 Y15.6046
G01 X-81.7829 Y15.6946
G01 X-81.7077 Y15.7777
G01 X-81.6255 Y15.8521
G01 X-81.5325 Y15.9210
G01 X-81.4384 Y15.9773
G01 X-81.3393 Y16.0243
G01 X-81.2316 Y16.0630
G01 X-81.1240 Y16.0900
G01 X-81.1023 Y16.0934
G00 Z2.0000
G00 X-82.0234 Y14.7677
G01 F80.00
G01 Z0.0000
G01 F120.00
G01 X-82.1804 Y14.7677
G01 X-82.1643 Y14.6665
G01 X-82.1013 Y14.4724
G01 X-82.0086 Y14.2906
G01 X-81.8888 Y14.1256
G01 X-81.7444 Y13.9812
G01 X-81.5794 Y13.8614
G01 X-81.3976 Y13.7687
G01 X-81.2035 Y13.7057
G01 X-81.1023 Y13.6896
G01 X-81.1023 Y13.8466
G01 X-81.1240 Y13.8500
G01 X-81.2339 Y13.8778
G01 X-81.3371 Y13.9147
G01 X-81.4406 Y13.9639
G01 X-81.5346 Y14.0203
G01 X-81.6246 Y14.0871
G01 X-81.7077 Y14.1623
G01 X-81.7821 Y14.2445
G01 X-81.8510 Y14.3375
G01 X-81.9073 Y14.4316
G01 X-81.9543 Y14.5307
G01 X-81.9930 Y14.6384
G01 X-82.0200 Y14.7460
G01 X-82.0234 Y14.7677
G00 Z2.0000
G00 X-80.5965 Y13.7057
G01 F80.00
G01 Z0.0000
G01 F120.00
G01 X-80.4024 Y13.7687
G01 X-80.2206 Y13.8614
G01 X-80.0556 Y13.9812
G01 X-79.9112 Y14.1256
G01 X-79.7914 Y14.2906
G01 X-79.6987 Y14.4724
G01 X-79.6357 Y14.6665
G01 X-79.6196 Y14.7677
G01 X-79.7766 Y14.7677
G01 X-79.7800 Y14.7460
G01 X-79.8078 Y14.6361
G01 X-79.8447 Y14.5329
G01 X-79.8939 Y14.4294
G01 X-79.9503 Y14.3354
G01 X-80.0171 Y14.2454
G01 X-80.0923 Y14.1623
G01 X-80.1745 Y14.0879
G01 X-80.2675 Y14.0190
G01 X-80.3616 Y13.9627
G01 X-80.4607 Y13.9157
G01 X-80.5684 Y13.8770
G01 X-80.6760 Y13.8500
G01 X-80.6977 Y13.8466
G01 X-80.6977 Y13.6896
G01 X-80.5965 Y13.7057
G00 Z2.0000
G00 X-84.6196 Y15.1723
G01 F80.00
G01 Z0.0000
G01 F120.00
G01 X-84.6357 Y15.2735
G01 X-84.6987 Y15.4676
G01 X-84.7914 Y15.6494
G01 X-84.9112 Y15.8144
G01 X-85.0556 Y15.9588
G01 X-85.2206 Y16.0786
G01 X-85.4024 Y16.1713
G01 X-85.5965 Y16.2343
G01 X-85.6977 Y16.2504
G01 X-85.6977 Y16.0934
G01 X-85.6760 Y16.0900
G01 X-85.5684 Y16.0630
G01 X-85.4607 Y16.0243
G01 X-85.3616 Y15.9773
G01 X-85.2675 Y15.9210
G01 X-85.1745 Y15.8521
G01 X-85.0923 Y15.7777
G01 X-85.0171 Y15.6946
G01 X-84.9503 Y15.6046
G01 X-84.8939 Y15.5106
G01 X-84.8447 Y15.4071
G01 X-84.8078 Y15.3039
G01 X-84.7800 Y15.1940
G01 X-84.7766 Y15.1723
G01 X-84.6196 Y15.1723
G00 Z2.0000
G00 X-85.5965 Y13.7057
G01 F80.00
G01 Z0.0000
G01 F120.00
G01 X-85.4024 Y13.7687
G01 X-85.2206 Y13.8614
G01 X-85.0556 Y13.9812
G01 X-84.9112 Y14.1256
G01 X-84.7914 Y14.2906
G01 X-84.6987 Y14.4724
G01 X-84.6357 Y14.6665
G01 X-84.6196 Y14.7677
G01 X-84.7766 Y14.7677
G01 X-84.7800 Y14.7460
G01 X-84.8078 Y14.6361
G01 X-84.8447 Y14.5329
G01 X-84.8939 Y14.4294
G01 X-84.9503 Y14.3354
G01 X-85.0171 Y14.2454
G01 X-85.0923 Y14.1623
G01 X-85.1745 Y14.0879
G01 X-85.2675 Y14.0190
G01 X-85.3616 Y13.9627
G01 X-85.4607 Y13.9157
G01 X-85.5684 Y13.8770
G01 X-85.6760 Y13.8500
G01 X-85.6977 Y13.8466
G01 X-85.6977 Y13.6896
G01 X-85.5965 Y13.7057
G00 Z2.0000
G00 X-89.6853 Y10.9975
G01 F80.00
G01 Z0.0000
G01 F120.00
G01 X-89.6820 Y10.9328
G01 X-89.6721 Y10.8663
G01 X-89.6558 Y10.8011
G01 X-89.6332 Y10.7377
G01 X-89.6044 Y10.6769
G01 X-89.5698 Y10.6193
G01 X-89.5298 Y10.5652
G01 X-89.4846 Y10.5154
G01 X-85.3537 Y6.3846
G01 X-85.3048 Y6.3402
G01 X-85.2507 Y6.3002
G01 X-85.1931 Y6.2656
G01 X-85.1345 Y6.2378
G01 X-85.0666 Y6.2135
G01 X-85.0037 Y6.1979
G01 X-84.9372 Y6.1880
G01 X-84.8700 Y6.1847
G01 X-27.0758 Y6.1847
G01 X-27.0757 Y5.9722
G01 X-27.0712 Y5.8820
G01 X-27.0578 Y5.7914
G01 X-27.0343 Y5.6978
G01 X-27.0038 Y5.6128
G01 X-26.9641 Y5.5289
G01 X-26.9164 Y5.4492
G01 X-26.8611 Y5.3747
G01 X-26.7988 Y5.3059
G01 X-26.7319 Y5.2452
G01 X-26.6534 Y5.1870
G01 X-26.5758 Y5.1406
G01 X-26.4919 Y5.1009
G01 X-26.4046 Y5.0696
G01 X-26.3169 Y5.0476
G01 X-26.2203 Y5.0333
G01 X-26.1300 Y5.0289
G01 X-26.0373 Y5.0335
G01 X-25.9455 Y5.0471
G01 X-25.8554 Y5.0696
G01 X-25.7681 Y5.1009
G01 X-25.6842 Y5.1406
G01 X-25.6045 Y5.1883
G01 X-25.5319 Y5.2421
G01 X-25.4612 Y5.3059
G01 X-25.4005 Y5.3728
G01 X-25.3423 Y5.4513
G01 X-25.2959 Y5.5289
G01 X-25.2572 Y5.6105
G01 X-25.2257 Y5.6978
G01 X-25.2024 Y5.7902
G01 X-25.1886 Y5.8844
G01 X-25.1842 Y5.9747
G01 X-25.1842 Y7.7654
G01 X-25.1888 Y7.8581
G01 X-25.2029 Y7.9523
G01 X-25.2249 Y8.0400
G01 X-25.2562 Y8.1273
G01 X-25.2959 Y8.2112
G01 X-25.3423 Y8.2888
G01 X-25.4005 Y8.3673
G01 X-25.4612 Y8.4342
G01 X-25.5300 Y8.4965
G01 X-25.6045 Y8.5518
G01 X-25.6820 Y8.5983
G01 X-25.7703 Y8.6401
G01 X-25.8554 Y8.6705
G01 X-25.9455 Y8.6930
G01 X-26.0373 Y8.7066
G01 X-26.1288 Y8.7112
G01 X-26.2227 Y8.7066
G01 X-26.3145 Y8.6930
G01 X-26.4046 Y8.6705
G01 X-26.4942 Y8.6382
G01 X-26.5758 Y8.5995
G01 X-26.6534 Y8.5531
G01 X-26.7281 Y8.4980
G01 X-26.7988 Y8.4342
G01 X-26.8611 Y8.3654
G01 X-26.9164 Y8.2909
G01 X-26.9641 Y8.2112
G01 X-27.0038 Y8.1273
G01 X-27.0354 Y8.0388
G01 X-27.0576 Y7.9499
G01 X-27.0713 Y7.8569
G01 X-27.0758 Y7.7666
G01 X-27.0758 Y7.5553
G01 X-84.5861 Y7.5553
G01 X-88.3147 Y11.2839
G01 X-88.3147 Y22.3147
G01 X-79.2839 Y22.3147
G01 X-77.4837 Y20.5146
G01 X-77.4328 Y20.4687
G01 X-77.3807 Y20.4302
G01 X-77.3252 Y20.3968
G01 X-77.2623 Y20.3668
G01 X-77.1989 Y20.3442
G01 X-77.1337 Y20.3279
G01 X-77.0696 Y20.3183
G01 X-77.0000 Y20.3147
G01 X-73.0000 Y20.3147
G01 X-72.9328 Y20.3180
G01 X-72.8663 Y20.3279
G01 X-72.8011 Y20.3442
G01 X-72.7366 Y20.3673
G01 X-72.6769 Y20.3956
G01 X-72.6193 Y20.4302
G01 X-72.5652 Y20.4702
G01 X-72.5163 Y20.5146
G01 X-70.5254 Y22.5054
G01 X-70.4787 Y22.5572
G01 X-70.4402 Y22.6093
G01 X-70.4068 Y22.6648
G01 X-70.3768 Y22.7277
G01 X-70.3539 Y22.7922
G01 X-70.3379 Y22.8563
G01 X-70.3283 Y22.9204
G01 X-70.3247 Y22.9888
G01 X-70.3247 Y24.3586
G01 X-70.3060 Y24.3985
G01 X-70.2816 Y24.4666
G01 X-70.2633 Y24.5390
G01 X-70.2521 Y24.6142
G01 X-70.2484 Y24.6888
G01 X-70.2485 Y26.1137
G01 X-70.2521 Y26.1858
G01 X-70.2633 Y26.2610
G01 X-70.2816 Y26.3334
G01 X-70.3060 Y26.4015
G01 X-70.3247 Y26.4414
G01 X-70.3247 Y28.7061
G01 X-67.5961 Y31.4347
G01 X-45.6853 Y31.4347
G01 X-45.6853 Y19.0000
G01 X-45.6819 Y18.9316
G01 X-45.6721 Y18.8663
G01 X-45.6565 Y18.8034
G01 X-45.6332 Y18.7377
G01 X-45.6044 Y18.6769
G01 X-45.5711 Y18.6213
G01 X-45.5290 Y18.5643
G01 X-45.4846 Y18.5154
G01 X-44.2646 Y17.2954
G01 X-44.2148 Y17.2502
G01 X-44.1627 Y17.2116
G01 X-44.1009 Y17.1745
G01 X-44.0423 Y17.1468
G01 X-43.9789 Y17.1242
G01 X-43.9137 Y17.1079
G01 X-43.8484 Y17.0981
G01 X-43.7800 Y17.0947
G01 X-41.6900 Y17.0947
G01 X-41.6812 Y17.0853
G01 X-41.6117 Y17.0224
G01 X-41.5345 Y16.9652
G01 X-41.4520 Y16.9157
G01 X-41.3650 Y16.8746
G01 X-41.2745 Y16.8422
G01 X-41.1812 Y16.8188
G01 X-41.0861 Y16.8047
G01 X-40.9900 Y16.8000
G01 X-40.8939 Y16.8047
G01 X-40.7988 Y16.8188
G01 X-40.7055 Y16.8422
G01 X-40.6150 Y16.8746
G01 X-40.5280 Y16.9157
G01 X-40.4455 Y16.9652
G01 X-40.3683 Y17.0224
G01 X-40.2988 Y17.0853
G01 X-40.2900 Y17.0947
G01 X-34.2188 Y17.0947
G01 X-34.1528 Y17.0980
G01 X-34.0887 Y17.1074
G01 X-34.0211 Y17.1242
G01 X-33.9555 Y17.1478
G01 X-33.8969 Y17.1756
G01 X-33.8393 Y17.2102
G01 X-33.7852 Y17.2502
G01 X-33.7354 Y17.2954
G01 X-31.5154 Y19.5154
G01 X-31.4702 Y19.5652
G01 X-31.4316 Y19.6173
G01 X-31.3945 Y19.6791
G01 X-31.3660 Y19.7400
G01 X-31.3442 Y19.8011
G01 X-31.3284 Y19.8639
G01 X-31.3180 Y19.9328
G01 X-31.3147 Y19.9988
G01 X-31.3147 Y24.7161
G01 X-29.2361 Y26.7947
G01 X-24.5050 Y26.7947
G01 X-24.4335 Y26.7415
G01 X-24.3608 Y26.6979
G01 X-24.2776 Y26.6585
G01 X-24.1978 Y26.6300
G01 X-24.1133 Y26.6089
G01 X-24.0271 Y26.5961
G01 X-23.9400 Y26.5918
G01 X-23.8529 Y26.5961
G01 X-23.7667 Y26.6089
G01 X-23.6822 Y26.6300
G01 X-23.6024 Y26.6585
G01 X-23.5192 Y26.6979
G01 X-23.4465 Y26.7415
G01 X-23.3750 Y26.7947
G01 X-18.1793 Y26.7947
G01 X-18.1662 Y26.7817
G01 X-18.1613 Y26.7780
G01 X-18.1571 Y26.7755
G01 X-18.1515 Y26.7730
G01 X-18.1457 Y26.7711
G01 X-18.1397 Y26.7700
G01 X-18.1335 Y26.7696
G01 X-17.5840 Y26.7697
G01 X-17.5779 Y26.7703
G01 X-17.5719 Y26.7718
G01 X-17.5662 Y26.7739
G01 X-17.5618 Y26.7761
G01 X-17.5538 Y26.7817
G01 X-17.5407 Y26.7947
G01 X-10.7639 Y26.7947
G01 X-9.6853 Y25.7161
G01 X-9.6853 Y24.7468
G01 X-9.6820 Y24.6808
G01 X-9.6726 Y24.6167
G01 X-9.6554 Y24.5479
G01 X-9.6332 Y24.4857
G01 X-9.6044 Y24.4249
G01 X-9.5698 Y24.3673
G01 X-9.5305 Y24.3142
G01 X-9.4846 Y24.2634
G01 X-9.2691 Y24.0480
G01 X-9.2635 Y24.0110
G01 X-9.2431 Y23.9301
G01 X-9.2154 Y23.8527
G01 X-9.1791 Y23.7762
G01 X-9.1368 Y23.7057
G01 X-9.0871 Y23.6387
G01 X-9.0311 Y23.5769
G01 X-8.9683 Y23.5201
G01 X-8.9023 Y23.4712
G01 X-8.8329 Y23.4295
G01 X-8.7553 Y23.3926
G01 X-8.6768 Y23.3645
G01 X-8.5982 Y23.3448
G01 X-8.5133 Y23.3320
G01 X-8.4275 Y23.3280
G01 X-8.3467 Y23.3320
G01 X-8.2642 Y23.3442
G01 X-8.1832 Y23.3645
G01 X-8.1070 Y23.3917
G01 X-8.0271 Y23.4295
G01 X-7.9577 Y23.4712
G01 X-7.8907 Y23.5209
G01 X-7.8289 Y23.5769
G01 X-7.7745 Y23.6368
G01 X-7.7219 Y23.7078
G01 X-7.6803 Y23.7773
G01 X-7.6456 Y23.8504
G01 X-7.6159 Y23.9336
G01 X-7.5962 Y24.0122
G01 X-7.5840 Y24.0947
G01 X-7.5800 Y24.1805
G01 X-7.5840 Y24.2613
G01 X-7.5960 Y24.3426
G01 X-7.6173 Y24.4271
G01 X-7.6446 Y24.5033
G01 X-7.6803 Y24.5787
G01 X-7.7232 Y24.6503
G01 X-7.7714 Y24.7154
G01 X-7.8298 Y24.7800
G01 X-7.8907 Y24.8351
G01 X-7.9557 Y24.8834
G01 X-8.0293 Y24.9277
G01 X-8.1047 Y24.9634
G01 X-8.1821 Y24.9911
G01 X-8.2630 Y25.0115
G01 X-8.3000 Y25.0171
G01 X-8.3147 Y25.0319
G01 X-8.3147 Y26.0000
G01 X-8.3179 Y26.0660
G01 X-8.3284 Y26.1361
G01 X-8.3442 Y26.1989
G01 X-8.3660 Y26.2600
G01 X-8.3956 Y26.3231
G01 X-8.4309 Y26.3818
G01 X-8.4702 Y26.4348
G01 X-8.5154 Y26.4846
G01 X-9.9972 Y27.9663
G01 X-10.0452 Y28.0098
G01 X-10.0973 Y28.0484
G01 X-10.1569 Y28.0844
G01 X-10.2177 Y28.1132
G01 X-10.2787 Y28.1350
G01 X-10.3475 Y28.1524
G01 X-10.4128 Y28.1620
G01 X-10.4800 Y28.1653
G01 X-17.5407 Y28.1653
G01 X-17.5538 Y28.1783
G01 X-17.5587 Y28.1820
G01 X-17.5629 Y28.1845
G01 X-17.5685 Y28.1870
G01 X-17.5743 Y28.1889
G01 X-17.5803 Y28.1900
G01 X-17.5865 Y28.1904
G01 X-18.1360 Y28.1903
G01 X-18.1421 Y28.1897
G01 X-18.1481 Y28.1882
G01 X-18.1538 Y28.1861
G01 X-18.1582 Y28.1839
G01 X-18.1662 Y28.1783
G01 X-18.1793 Y28.1653
G01 X-23.3750 Y28.1653
G01 X-23.4465 Y28.2185
G01 X-23.5192 Y28.2621
G01 X-23.6024 Y28.3015
G01 X-23.6822 Y28.3300
G01 X-23.7667 Y28.3511
G01 X-23.8529 Y28.3639
G01 X-23.9400 Y28.3682
G01 X-24.0271 Y28.3639
G01 X-24.1133 Y28.3511
G01 X-24.1978 Y28.3300
G01 X-24.2776 Y28.3015
G01 X-24.3608 Y28.2621
G01 X-24.4335 Y28.2185
G01 X-24.5050 Y28.1653
G01 X-29.5200 Y28.1653
G01 X-29.5872 Y28.1620
G01 X-29.6525 Y28.1524
G01 X-29.7213 Y28.1350
G01 X-29.7823 Y28.1132
G01 X-29.8431 Y28.0844
G01 X-29.9027 Y28.0484
G01 X-29.9548 Y28.0098
G01 X-30.0037 Y27.9654
G01 X-32.4846 Y25.4846
G01 X-32.5298 Y25.4348
G01 X-32.5684 Y25.3827
G01 X-32.6050 Y25.3220
G01 X-32.6340 Y25.2600
G01 X-32.6558 Y25.1989
G01 X-32.6716 Y25.1361
G01 X-32.6820 Y25.0672
G01 X-32.6853 Y25.0012
G01 X-32.6853 Y20.2839
G01 X-34.5039 Y18.4653
G01 X-40.2900 Y18.4653
G01 X-40.2988 Y18.4747
G01 X-40.3683 Y18.5376
G01 X-40.4455 Y18.5948
G01 X-40.5280 Y18.6443
G01 X-40.6150 Y18.6854
G01 X-40.7055 Y18.7178
G01 X-40.7988 Y18.7412
G01 X-40.8939 Y18.7553
G01 X-40.9900 Y18.7600
G01 X-41.0861 Y18.7553
G01 X-41.1812 Y18.7412
G01 X-41.2745 Y18.7178
G01 X-41.3650 Y18.6854
G01 X-41.4520 Y18.6443
G01 X-41.5345 Y18.5948
G01 X-41.6117 Y18.5376
G01 X-41.6812 Y18.4747
G01 X-41.6900 Y18.4653
G01 X-43.4961 Y18.4653
G01 X-44.3147 Y19.2839
G01 X-44.3147 Y32.1200
G01 X-44.3180 Y32.1872
G01 X-44.3279 Y32.2537
G01 X-44.3442 Y32.3189
G01 X-44.3673 Y32.3834
G01 X-44.3956 Y32.4431
G01 X-44.4289 Y32.4987
G01 X-44.4702 Y32.5548
G01 X-44.5172 Y32.6063
G01 X-44.5652 Y32.6498
G01 X-44.6173 Y32.6884
G01 X-44.6769 Y32.7244
G01 X-44.7400 Y32.7540
G01 X-44.8011 Y32.7758
G01 X-44.8639 Y32.7916
G01 X-44.9340 Y32.8021
G01 X-45.0000 Y32.8053
G01 X-50.4847 Y32.8053
G01 X-50.4847 Y35.1450
G01 X-50.4315 Y35.2165
G01 X-50.3867 Y35.2913
G01 X-50.3494 Y35.3701
G01 X-50.3194 Y35.4545
G01 X-50.2989 Y35.5367
G01 X-50.2864 Y35.6205
G01 X-50.2819 Y35.7075
G01 X-50.2861 Y35.7971
G01 X-50.2991 Y35.8845
G01 X-50.3200 Y35.9678
G01 X-50.3494 Y36.0499
G01 X-50.3867 Y36.1287
G01 X-50.4315 Y36.2035
G01 X-50.4834 Y36.2735
G01 X-50.5419 Y36.3381
G01 X-50.6065 Y36.3966
G01 X-50.6765 Y36.4485
G01 X-50.7513 Y36.4933
G01 X-50.8301 Y36.5306
G01 X-50.9122 Y36.5600
G01 X-50.9967 Y36.5811
G01 X-51.0829 Y36.5939
G01 X-51.1700 Y36.5982
G01 X-51.2571 Y36.5939
G01 X-51.3421 Y36.5814
G01 X-51.4302 Y36.5592
G01 X-51.5099 Y36.5306
G01 X-51.5887 Y36.4933
G01 X-51.6635 Y36.4485
G01 X-51.7315 Y36.3981
G01 X-51.7997 Y36.3363
G01 X-51.8566 Y36.2735
G01 X-51.9085 Y36.2035
G01 X-51.9533 Y36.1287
G01 X-51.9896 Y36.0521
G01 X-52.0206 Y35.9655
G01 X-52.0411 Y35.8833
G01 X-52.0536 Y35.7995
G01 X-52.0582 Y35.7100
G01 X-52.0539 Y35.6229
G01 X-52.0411 Y35.5367
G01 X-52.0200 Y35.4522
G01 X-51.9906 Y35.3701
G01 X-51.9533 Y35.2913
G01 X-51.9085 Y35.2165
G01 X-51.8553 Y35.1450
G01 X-51.8553 Y32.8053
G01 X-67.8800 Y32.8053
G01 X-67.9496 Y32.8017
G01 X-68.0137 Y32.7921
G01 X-68.0789 Y32.7758
G01 X-68.1445 Y32.7522
G01 X-68.2031 Y32.7244
G01 X-68.2607 Y32.6898
G01 X-68.3148 Y32.6498
G01 X-68.3646 Y32.6046
G01 X-71.4946 Y29.4746
G01 X-71.5398 Y29.4248
G01 X-71.5798 Y29.3707
G01 X-71.6144 Y29.3131
G01 X-71.6427 Y29.2534
G01 X-71.6658 Y29.1889
G01 X-71.6821 Y29.1237
G01 X-71.6920 Y29.0572
G01 X-71.6953 Y28.9912
G01 X-71.6953 Y26.4414
G01 X-71.7140 Y26.4015
G01 X-71.7384 Y26.3334
G01 X-71.7567 Y26.2610
G01 X-71.7679 Y26.1858
G01 X-71.7716 Y26.1112
G01 X-71.7715 Y24.6876
G01 X-71.7679 Y24.6142
G01 X-71.7567 Y24.5390
G01 X-71.7384 Y24.4666
G01 X-71.7140 Y24.3985
G01 X-71.6953 Y24.3586
G01 X-71.6953 Y23.2739
G01 X-73.2839 Y21.6853
G01 X-76.7161 Y21.6853
G01 X-78.5154 Y23.4846
G01 X-78.5634 Y23.5282
G01 X-78.6213 Y23.5711
G01 X-78.6769 Y23.6044
G01 X-78.7377 Y23.6332
G01 X-78.8034 Y23.6565
G01 X-78.8663 Y23.6721
G01 X-78.9316 Y23.6819
G01 X-79.0000 Y23.6853
G01 X-89.0000 Y23.6853
G01 X-89.0696 Y23.6817
G01 X-89.1337 Y23.6721
G01 X-89.1989 Y23.6558
G01 X-89.2645 Y23.6322
G01 X-89.3231 Y23.6044
G01 X-89.3807 Y23.5698
G01 X-89.4366 Y23.5282
G01 X-89.4846 Y23.4846
G01 X-89.5282 Y23.4366
G01 X-89.5698 Y23.3807
G01 X-89.6044 Y23.3231
G01 X-89.6332 Y23.2623
G01 X-89.6565 Y23.1966
G01 X-89.6721 Y23.1337
G01 X-89.6817 Y23.0696
G01 X-89.6853 Y23.0012
G01 X-89.6853 Y10.9975
G00 Z2.0000
G00 X-92.6853 Y9.9975
G01 F80.00
G01 Z0.0000
G01 F120.00
G01 X-92.6820 Y9.9328
G01 X-92.6721 Y9.8663
G01 X-92.6558 Y9.8011
G01 X-92.6332 Y9.7377
G01 X-92.6044 Y9.6769
G01 X-92.5698 Y9.6193
G01 X-92.5298 Y9.5652
G01 X-92.4846 Y9.5154
G01 X-85.4837 Y2.5146
G01 X-85.4348 Y2.4702
G01 X-85.3807 Y2.4302
G01 X-85.3231 Y2.3956
G01 X-85.2645 Y2.3678
G01 X-85.1989 Y2.3442
G01 X-85.1361 Y2.3284
G01 X-85.0647 Y2.3178
G01 X-85.0000 Y2.3147
G01 X-17.0000 Y2.3147
G01 X-16.9353 Y2.3178
G01 X-16.8639 Y2.3284
G01 X-16.8011 Y2.3442
G01 X-16.7377 Y2.3668
G01 X-16.6769 Y2.3956
G01 X-16.6213 Y2.4289
G01 X-16.5643 Y2.4710
G01 X-16.5154 Y2.5154
G01 X-15.6446 Y3.3863
G01 X-15.6002 Y3.4352
G01 X-15.5616 Y3.4873
G01 X-15.5250 Y3.5480
G01 X-15.4968 Y3.6077
G01 X-15.4735 Y3.6734
G01 X-15.4579 Y3.7363
G01 X-15.4483 Y3.8004
G01 X-15.4447 Y3.8675
G01 X-15.4447 Y5.3241
G01 X-15.3989 Y5.3747
G01 X-15.3436 Y5.4492
G01 X-15.2959 Y5.5289
G01 X-15.2567 Y5.6116
G01 X-15.2249 Y5.7001
G01 X-15.2029 Y5.7878
G01 X-15.1886 Y5.8844
G01 X-15.1842 Y5.9747
G01 X-15.1842 Y7.7666
G01 X-15.1888 Y7.8581
G01 X-15.2020 Y7.9475
G01 X-15.2253 Y8.0411
G01 X-15.2562 Y8.1273
G01 X-15.2948 Y8.2091
G01 X-15.3450 Y8.2929
G01 X-15.3989 Y8.3654
G01 X-15.4612 Y8.4342
G01 X-15.5300 Y8.4965
G01 X-15.6025 Y8.5504
G01 X-15.6863 Y8.6006
G01 X-15.7681 Y8.6392
G01 X-15.8554 Y8.6705
G01 X-15.9455 Y8.6930
G01 X-16.0349 Y8.7063
G01 X-16.1312 Y8.7112
G01 X-16.2227 Y8.7066
G01 X-16.3145 Y8.6930
G01 X-16.4046 Y8.6705
G01 X-16.4897 Y8.6401
G01 X-16.5780 Y8.5983
G01 X-16.6555 Y8.5518
G01 X-16.7300 Y8.4965
G01 X-16.7988 Y8.4342
G01 X-16.8595 Y8.3673
G01 X-16.9177 Y8.2888
G01 X-16.9641 Y8.2112
G01 X-17.0038 Y8.1273
G01 X-17.0351 Y8.0400
G01 X-17.0574 Y7.9511
G01 X-17.0712 Y7.8581
G01 X-17.0758 Y7.7654
G01 X-17.0758 Y5.9747
G01 X-17.0713 Y5.8832
G01 X-17.0576 Y5.7902
G01 X-17.0357 Y5.7025
G01 X-17.0033 Y5.6116
G01 X-16.9641 Y5.5289
G01 X-16.9164 Y5.4492
G01 X-16.8611 Y5.3747
G01 X-16.8153 Y5.3241
G01 X-16.8153 Y4.1539
G01 X-17.2839 Y3.6853
G01 X-84.7161 Y3.6853
G01 X-91.3147 Y10.2839
G01 X-91.3147 Y24.7161
G01 X-89.7161 Y26.3147
G01 X-78.2839 Y26.3147
G01 X-76.8837 Y24.9146
G01 X-76.8348 Y24.8702
G01 X-76.7807 Y24.8302
G01 X-76.7231 Y24.7956
G01 X-76.6611 Y24.7664
G01 X-76.5989 Y24.7442
G01 X-76.5337 Y24.7279
G01 X-76.4672 Y24.7180
G01 X-76.4012 Y24.7147
G01 X-74.3116 Y24.7147
G01 X-74.3115 Y24.6863
G01 X-74.3078 Y24.6129
G01 X-74.2969 Y24.5402
G01 X-74.2784 Y24.4666
G01 X-74.2536 Y24.3974
G01 X-74.2216 Y24.3298
G01 X-74.1832 Y24.2657
G01 X-74.1379 Y24.2047
G01 X-74.0885 Y24.1503
G01 X-74.0331 Y24.1001
G01 X-73.9731 Y24.0556
G01 X-73.9090 Y24.0172
G01 X-73.8414 Y23.9852
G01 X-73.7711 Y23.9600
G01 X-73.6986 Y23.9419
G01 X-73.6259 Y23.9310
G01 X-73.5475 Y23.9273
G01 X-73.4754 Y23.9309
G01 X-73.4038 Y23.9415
G01 X-73.3289 Y23.9600
G01 X-73.2563 Y23.9862
G01 X-73.1910 Y24.0172
G01 X-73.1290 Y24.0543
G01 X-73.0669 Y24.1001
G01 X-73.0115 Y24.1503
G01 X-72.9629 Y24.2038
G01 X-72.9168 Y24.2657
G01 X-72.8773 Y24.3320
G01 X-72.8464 Y24.3974
G01 X-72.8220 Y24.4654
G01 X-72.8031 Y24.5402
G01 X-72.7920 Y24.6154
G01 X-72.7884 Y24.6888
G01 X-72.7884 Y26.1112
G01 X-72.7920 Y26.1846
G01 X-72.8031 Y26.2598
G01 X-72.8212 Y26.3323
G01 X-72.8464 Y26.4026
G01 X-72.8796 Y26.4723
G01 X-72.9168 Y26.5343
G01 X-72.9598 Y26.5924
G01 X-73.0098 Y26.6479
G01 X-73.0669 Y26.6999
G01 X-73.1269 Y26.7444
G01 X-73.1932 Y26.7839
G01 X-73.2586 Y26.8148
G01 X-73.3289 Y26.8400
G01 X-73.4038 Y26.8585
G01 X-73.4754 Y26.8691
G01 X-73.5475 Y26.8727
G01 X-73.6246 Y26.8691
G01 X-73.7010 Y26.8576
G01 X-73.7711 Y26.8400
G01 X-73.8391 Y26.8157
G01 X-73.9101 Y26.7822
G01 X-73.9731 Y26.7444
G01 X-74.0312 Y26.7014
G01 X-74.0885 Y26.6497
G01 X-74.1402 Y26.5924
G01 X-74.1832 Y26.5343
G01 X-74.2210 Y26.4713
G01 X-74.2545 Y26.4003
G01 X-74.2788 Y26.3323
G01 X-74.2967 Y26.2610
G01 X-74.3080 Y26.1846
G01 X-74.3115 Y26.1124
G01 X-74.3116 Y26.0853
G01 X-76.1161 Y26.0853
G01 X-77.5154 Y27.4846
G01 X-77.5643 Y27.5290
G01 X-77.6213 Y27.5711
G01 X-77.6769 Y27.6044
G01 X-77.7377 Y27.6332
G01 X-77.8011 Y27.6558
G01 X-77.8639 Y27.6716
G01 X-77.9353 Y27.6822
G01 X-78.0000 Y27.6853
G01 X-90.0000 Y27.6853
G01 X-90.0672 Y27.6820
G01 X-90.1313 Y27.6726
G01 X-90.2013 Y27.6550
G01 X-90.2623 Y27.6332
G01 X-90.3231 Y27.6044
G01 X-90.3827 Y27.5684
G01 X-90.4348 Y27.5298
G01 X-90.4837 Y27.4854
G01 X-92.4846 Y25.4846
G01 X-92.5298 Y25.4348
G01 X-92.5698 Y25.3807
G01 X-92.6044 Y25.3231
G01 X-92.6332 Y25.2623
G01 X-92.6550 Y25.2013
G01 X-92.6726 Y25.1313
G01 X-92.6820 Y25.0672
G01 X-92.6853 Y25.0000
G01 X-92.6853 Y9.9975
G00 Z2.0000
G00 X-98.9552 Y8.3594
G01 F80.00
G01 Z0.0000
G01 F120.00
G01 X-98.9527 Y8.3503
G01 X-98.9445 Y8.3290
G01 X-98.9419 Y8.3233
G01 X-98.9362 Y8.3144
G01 X-98.9208 Y8.2958
G01 X-98.9155 Y8.2904
G01 X-98.9086 Y8.2849
G01 X-98.8869 Y8.2714
G01 X-98.8789 Y8.2677
G01 X-98.8717 Y8.2653
G01 X-98.8491 Y8.2599
G01 X-98.8430 Y8.2589
G01 X-98.8333 Y8.2585
G01 X-98.8087 Y8.2608
G01 X-98.7989 Y8.2627
G01 X-98.7920 Y8.2650
G01 X-98.7691 Y8.2753
G01 X-98.7610 Y8.2800
G01 X-98.7553 Y8.2845
G01 X-98.7385 Y8.2999
G01 X-98.7338 Y8.3049
G01 X-98.4325 Y8.6753
G01 X-97.3136 Y9.4651
G01 X-96.0231 Y9.9237
G01 X-94.6568 Y10.0171
G01 X-93.7529 Y9.8293
G01 X-93.7355 Y9.8270
G01 X-93.7258 Y9.8267
G01 X-93.7209 Y9.8270
G01 X-93.7092 Y9.8289
G01 X-93.6987 Y9.8302
G01 X-93.6939 Y9.8312
G01 X-93.6812 Y9.8355
G01 X-93.6706 Y9.8412
G01 X-93.6611 Y9.8457
G01 X-93.6569 Y9.8482
G01 X-93.6496 Y9.8534
G01 X-93.6459 Y9.8565
G01 X-93.6378 Y9.8651
G01 X-93.6303 Y9.8724
G01 X-93.6271 Y9.8761
G01 X-93.6220 Y9.8833
G01 X-93.6196 Y9.8873
G01 X-93.6147 Y9.8978
G01 X-93.6098 Y9.9071
G01 X-93.6076 Y9.9127
G01 X-93.6043 Y9.9251
G01 X-93.6031 Y9.9368
G01 X-93.6014 Y9.9469
G01 X-93.6011 Y9.9528
G01 X-93.6011 Y25.3185
G01 X-93.3573 Y25.9070
G01 X-90.9397 Y28.3246
G01 X-90.9322 Y28.3330
G01 X-90.9236 Y28.3448
G01 X-90.9205 Y28.3503
G01 X-90.9181 Y28.3559
G01 X-90.9145 Y28.3620
G01 X-90.9117 Y28.3685
G01 X-90.9072 Y28.3834
G01 X-90.9057 Y28.3945
G01 X-90.9042 Y28.4023
G01 X-90.9038 Y28.4085
G01 X-90.9043 Y28.4250
G01 X-90.9064 Y28.4349
G01 X-90.9079 Y28.4451
G01 X-90.9130 Y28.4603
G01 X-90.9156 Y28.4660
G01 X-90.9200 Y28.4733
G01 X-90.9252 Y28.4831
G01 X-90.9362 Y28.4974
G01 X-90.9405 Y28.5016
G01 X-90.9451 Y28.5052
G01 X-90.9500 Y28.5103
G01 X-90.9558 Y28.5148
G01 X-90.9692 Y28.5233
G01 X-90.9896 Y28.5324
G01 X-91.0043 Y28.5363
G01 X-91.0105 Y28.5373
G01 X-91.0182 Y28.5377
G01 X-91.0246 Y28.5386
G01 X-91.0298 Y28.5389
G01 X-91.1181 Y28.5386
G01 X-91.1391 Y28.5357
G01 X-91.1590 Y28.5293
G01 X-91.7643 Y28.2786
G01 X-94.2957 Y28.2786
G01 X-94.9798 Y28.5620
G01 X-95.5034 Y29.0856
G01 X-95.7868 Y29.7697
G01 X-95.7868 Y30.5103
G01 X-95.5034 Y31.1944
G01 X-94.9798 Y31.7180
G01 X-94.2957 Y32.0014
G01 X-91.7643 Y32.0014
G01 X-91.1590 Y31.7507
G01 X-91.1489 Y31.7470
G01 X-91.1341 Y31.7433
G01 X-91.1294 Y31.7425
G01 X-91.1215 Y31.7422
G01 X-91.1134 Y31.7412
G01 X-88.5754 Y31.7411
G01 X-88.5582 Y31.7423
G01 X-88.5481 Y31.7441
G01 X-88.5424 Y31.7457
G01 X-88.5336 Y31.7491
G01 X-88.5220 Y31.7530
G01 X-88.5112 Y31.7587
G01 X-88.5050 Y31.7628
G01 X-88.4980 Y31.7688
G01 X-88.4897 Y31.7749
G01 X-88.4862 Y31.7780
G01 X-86.5080 Y33.7562
G01 X-86.4970 Y33.7688
G01 X-86.4898 Y33.7794
G01 X-86.4793 Y33.8010
G01 X-86.4769 Y33.8077
G01 X-86.4740 Y33.8191
G01 X-86.4728 Y33.8304
G01 X-86.4714 Y33.8403
G01 X-86.4711 Y33.8454
G01 X-86.4711 Y44.3187
G01 X-86.4723 Y44.3359
G01 X-86.4741 Y44.3460
G01 X-86.4757 Y44.3517
G01 X-86.4840 Y44.3744
G01 X-86.4903 Y44.3856
G01 X-86.4965 Y44.3934
G01 X-86.4965 Y45.7437
G01 X-85.5437 Y46.6965
G01 X-85.4835 Y46.6965
G01 X-85.4730 Y46.6969
G01 X-85.4551 Y46.6997
G01 X-85.4336 Y46.7068
G01 X-85.4203 Y46.7135
G01 X-85.4161 Y46.7160
G01 X-85.4086 Y46.7221
G01 X-85.4015 Y46.7269
G01 X-85.3968 Y46.7311
G01 X-85.3933 Y46.7351
G01 X-85.3885 Y46.7396
G01 X-85.3840 Y46.7453
G01 X-85.3804 Y46.7513
G01 X-85.3741 Y46.7600
G01 X-85.3674 Y46.7733
G01 X-85.3647 Y46.7804
G01 X-85.3631 Y46.7877
G01 X-85.3603 Y46.7957
G01 X-85.3592 Y46.8015
G01 X-85.3575 Y46.8181
G01 X-85.3582 Y46.8279
G01 X-85.3585 Y46.8389
G01 X-85.3622 Y46.8572
G01 X-85.3664 Y46.8674
G01 X-85.3687 Y46.8745
G01 X-85.3718 Y46.8811
G01 X-85.3752 Y46.8864
G01 X-85.3782 Y46.8920
G01 X-85.3810 Y46.8960
G01 X-85.3943 Y46.9118
G01 X-85.7345 Y47.2519
G01 X-85.7345 Y47.4077
G01 X-85.5804 Y47.4077
G01 X-85.5804 Y47.3365
G01 X-85.5800 Y47.3303
G01 X-85.5786 Y47.3231
G01 X-85.5761 Y47.3162
G01 X-85.5726 Y47.3097
G01 X-85.5683 Y47.3038
G01 X-85.1780 Y46.9134
G01 X-85.1703 Y46.9074
G01 X-85.1615 Y46.9030
G01 X-85.1521 Y46.9003
G01 X-85.1435 Y46.8996
G01 X-84.5965 Y46.8996
G01 X-84.5867 Y46.9006
G01 X-84.5819 Y46.9018
G01 X-84.5762 Y46.9039
G01 X-84.5677 Y46.9087
G01 X-84.5611 Y46.9142
G01 X-84.1710 Y47.3047
G01 X-84.1667 Y47.3107
G01 X-84.1634 Y47.3173
G01 X-84.1611 Y47.3243
G01 X-84.1598 Y47.3316
G01 X-84.1596 Y47.4077
G01 X-84.0055 Y47.4077
G01 X-84.0055 Y47.2519
G01 X-84.3510 Y46.9060
G01 X-84.3549 Y46.9015
G01 X-84.3627 Y46.8906
G01 X-84.3658 Y46.8851
G01 X-84.3682 Y46.8795
G01 X-84.3718 Y46.8734
G01 X-84.3750 Y46.8657
G01 X-84.3763 Y46.8605
G01 X-84.3785 Y46.8543
G01 X-84.3798 Y46.8485
G01 X-84.3806 Y46.8409
G01 X-84.3819 Y46.8344
G01 X-84.3824 Y46.8294
G01 X-84.3821 Y46.8116
G01 X-84.3784 Y46.7903
G01 X-84.3729 Y46.7742
G01 X-84.3704 Y46.7687
G01 X-84.3663 Y46.7621
G01 X-84.3622 Y46.7539
G01 X-84.3526 Y46.7411
G01 X-84.3467 Y46.7347
G01 X-84.3412 Y46.7302
G01 X-84.3354 Y46.7243
G01 X-84.3305 Y46.7206
G01 X-84.3171 Y46.7121
G01 X-84.3078 Y46.7082
G01 X-84.3013 Y46.7048
G01 X-84.2944 Y46.7023
G01 X-84.2881 Y46.7009
G01 X-84.2820 Y46.6991
G01 X-84.2758 Y46.6981
G01 X-84.2681 Y46.6977
G01 X-84.2578 Y46.6965
G01 X-84.1946 Y46.6965
G01 X-84.1869 Y46.6911
G01 X-84.1825 Y46.6886
G01 X-84.1726 Y46.6842
G01 X-84.1642 Y46.6798
G01 X-84.1587 Y46.6776
G01 X-84.1450 Y46.6740
G01 X-84.1200 Y46.6711
G01 X-53.6454 Y46.6711
G01 X-53.6267 Y46.6725
G01 X-53.6138 Y46.6752
G01 X-53.6036 Y46.6791
G01 X-53.5944 Y46.6821
G01 X-53.5886 Y46.6846
G01 X-53.5770 Y46.6913
G01 X-53.5680 Y46.6988
G01 X-53.5606 Y46.7042
G01 X-53.5562 Y46.7080
G01 X-51.7580 Y48.5062
G01 X-51.7478 Y48.5179
G01 X-51.7404 Y48.5283
G01 X-51.7297 Y48.5500
G01 X-51.7270 Y48.5571
G01 X-51.7239 Y48.5693
G01 X-51.7228 Y48.5804
G01 X-51.7214 Y48.5903
G01 X-51.7211 Y48.5954
G01 X-51.7211 Y51.0656
G01 X-51.7215 Y51.0755
G01 X-51.7243 Y51.0939
G01 X-51.7307 Y51.1138
G01 X-52.0161 Y51.8028
G01 X-52.0161 Y52.5572
G01 X-51.7274 Y53.2541
G01 X-51.1941 Y53.7874
G01 X-50.4972 Y54.0761
G01 X-49.7428 Y54.0761
G01 X-49.3544 Y53.9151
G01 X-49.3497 Y53.9134
G01 X-49.3328 Y53.9087
G01 X-49.3278 Y53.9077
G01 X-49.3160 Y53.9063
G01 X-49.3089 Y53.9061
G01 X-49.3008 Y53.9070
G01 X-49.2937 Y53.9069
G01 X-49.2887 Y53.9074
G01 X-49.2727 Y53.9108
G01 X-49.2679 Y53.9125
G01 X-49.2613 Y53.9155
G01 X-49.2533 Y53.9182
G01 X-49.2466 Y53.9215
G01 X-49.2346 Y53.9291
G01 X-49.2266 Y53.9362
G01 X-49.2196 Y53.9415
G01 X-49.2151 Y53.9460
G01 X-49.2058 Y53.9572
G01 X-49.2001 Y53.9669
G01 X-49.1953 Y53.9741
G01 X-49.1926 Y53.9795
G01 X-49.1880 Y53.9908
G01 X-49.1863 Y53.9966
G01 X-49.1849 Y54.0045
G01 X-49.1822 Y54.0151
G01 X-49.1812 Y54.0295
G01 X-49.1811 Y54.7385
G01 X-48.9373 Y55.3270
G01 X-44.4550 Y59.8093
G01 X-43.8665 Y60.0531
G01 X-30.7789 Y60.0531
G01 X-30.7626 Y60.0542
G01 X-30.7480 Y60.0570
G01 X-30.7247 Y60.0654
G01 X-30.7144 Y60.0708
G01 X-30.7094 Y60.0741
G01 X-30.7015 Y60.0808
G01 X-30.6941 Y60.0862
G01 X-30.6906 Y60.0892
G01 X-30.5616 Y60.2182
G01 X-29.0984 Y60.2182
G01 X-28.0491 Y59.1689
G01 X-28.0461 Y59.1628
G01 X-28.0400 Y59.1535
G01 X-28.0217 Y59.1332
G01 X-28.0181 Y59.1300
G01 X-28.0105 Y59.1244
G01 X-27.9859 Y59.1107
G01 X-27.9783 Y59.1077
G01 X-27.9734 Y59.1063
G01 X-27.9497 Y59.1019
G01 X-27.9377 Y59.1011
G01 X-20.5639 Y59.1011
G01 X-20.5478 Y59.1023
G01 X-20.5343 Y59.1049
G01 X-20.5116 Y59.1130
G01 X-20.5018 Y59.1181
G01 X-20.4966 Y59.1213
G01 X-20.4767 Y59.1372
G01 X-20.3858 Y59.2281
G01 X-19.8738 Y59.2281
G01 X-19.3220 Y58.6763
G01 X-19.2897 Y58.6470
G01 X-19.2537 Y58.6203
G01 X-19.2152 Y58.5973
G01 X-19.1747 Y58.5782
G01 X-19.1325 Y58.5631
G01 X-19.0891 Y58.5522
G01 X-19.0448 Y58.5456
G01 X-19.0025 Y58.5435
G01 X-18.2695 Y58.5434
G01 X-17.9419 Y58.2158
G01 X-17.9419 Y56.7842
G01 X-18.9542 Y55.7719
G01 X-20.3858 Y55.7719
G01 X-20.4758 Y55.8620
G01 X-20.4905 Y55.8745
G01 X-20.5012 Y55.8814
G01 X-20.5111 Y55.8858
G01 X-20.5195 Y55.8902
G01 X-20.5250 Y55.8924
G01 X-20.5387 Y55.8960
G01 X-20.5500 Y55.8972
G01 X-20.5599 Y55.8986
G01 X-20.5650 Y55.8989
G01 X-26.2741 Y55.8989
G01 X-26.2972 Y55.8965
G01 X-26.3082 Y55.8938
G01 X-26.3334 Y55.8832
G01 X-26.3379 Y55.8809
G01 X-26.3445 Y55.8766
G01 X-26.3484 Y55.8735
G01 X-26.3566 Y55.8657
G01 X-26.3660 Y55.8576
G01 X-26.3735 Y55.8486
G01 X-26.3768 Y55.8436
G01 X-26.3877 Y55.8243
G01 X-26.3923 Y55.8134
G01 X-26.3939 Y55.8073
G01 X-26.3958 Y55.7961
G01 X-26.3981 Y55.7848
G01 X-26.3989 Y55.7728
G01 X-26.3989 Y52.6913
G01 X-26.3979 Y52.6753
G01 X-26.3959 Y52.6640
G01 X-26.3943 Y52.6583
G01 X-26.3909 Y52.6495
G01 X-26.3870 Y52.6379
G01 X-26.3848 Y52.6333
G01 X-26.3789 Y52.6234
G01 X-26.3713 Y52.6140
G01 X-26.3643 Y52.6047
G01 X-26.3123 Y52.5525
G01 X-26.3108 Y52.5439
G01 X-26.3093 Y52.5382
G01 X-26.3055 Y52.5282
G01 X-26.3025 Y52.5190
G01 X-26.3006 Y52.5143
G01 X-26.2933 Y52.5016
G01 X-26.2858 Y52.4926
G01 X-26.2804 Y52.4852
G01 X-26.2766 Y52.4808
G01 X-24.0427 Y50.2470
G01 X-23.7989 Y49.6585
G01 X-23.7989 Y44.6035
G01 X-23.7980 Y44.5886
G01 X-23.7962 Y44.5773
G01 X-23.7951 Y44.5727
G01 X-23.7909 Y44.5616
G01 X-23.7879 Y44.5524
G01 X-23.7860 Y44.5477
G01 X-23.7789 Y44.5355
G01 X-23.7628 Y44.5151
G01 X-23.1639 Y43.9162
G01 X-23.1639 Y42.0638
G01 X-24.4738 Y40.7539
G01 X-26.3262 Y40.7539
G01 X-27.6361 Y42.0638
G01 X-27.6361 Y43.9162
G01 X-27.0371 Y44.5152
G01 X-27.0270 Y44.5268
G01 X-27.0204 Y44.5363
G01 X-27.0093 Y44.5590
G01 X-27.0072 Y44.5645
G01 X-27.0042 Y44.5762
G01 X-27.0014 Y44.5984
G01 X-27.0011 Y44.6035
G01 X-27.0011 Y48.6246
G01 X-27.0020 Y48.6394
G01 X-27.0036 Y48.6496
G01 X-27.0057 Y48.6576
G01 X-27.0091 Y48.6664
G01 X-27.0125 Y48.6768
G01 X-27.0152 Y48.6826
G01 X-27.0193 Y48.6899
G01 X-27.0220 Y48.6940
G01 X-27.0288 Y48.7020
G01 X-27.0349 Y48.7103
G01 X-27.0380 Y48.7138
G01 X-28.5408 Y50.2166
G01 X-28.5534 Y50.2276
G01 X-28.5618 Y50.2335
G01 X-28.5673 Y50.2366
G01 X-28.5761 Y50.2404
G01 X-28.5845 Y50.2448
G01 X-28.5900 Y50.2470
G01 X-28.6025 Y50.2504
G01 X-28.6117 Y50.2515
G01 X-29.1218 Y50.7616
G01 X-29.1390 Y50.7756
G01 X-29.1485 Y50.7815
G01 X-29.1541 Y50.7842
G01 X-29.1772 Y50.7932
G01 X-29.1906 Y50.7959
G01 X-29.2138 Y50.7972
G01 X-29.2212 Y50.7971
G01 X-29.2318 Y50.7956
G01 X-29.2437 Y50.7920
G01 X-29.2557 Y50.7889
G01 X-29.2658 Y50.7845
G01 X-29.2722 Y50.7808
G01 X-29.2803 Y50.7750
G01 X-29.2898 Y50.7688
G01 X-29.2936 Y50.7659
G01 X-29.8063 Y50.2535
G01 X-31.1537 Y50.2535
G01 X-31.2621 Y50.3620
G01 X-31.2747 Y50.3730
G01 X-31.2864 Y50.3808
G01 X-31.3102 Y50.3920
G01 X-31.3238 Y50.3958
G01 X-31.3462 Y50.3986
G01 X-31.3513 Y50.3989
G01 X-32.2857 Y50.3989
G01 X-32.3009 Y50.3978
G01 X-32.3125 Y50.3958
G01 X-32.3174 Y50.3944
G01 X-32.3391 Y50.3865
G01 X-32.3488 Y50.3813
G01 X-32.3530 Y50.3787
G01 X-32.3620 Y50.3712
G01 X-32.3694 Y50.3658
G01 X-32.3738 Y50.3620
G01 X-34.1920 Y48.5438
G01 X-34.2014 Y48.5331
G01 X-34.2082 Y48.5238
G01 X-34.2108 Y48.5195
G01 X-34.2158 Y48.5085
G01 X-34.2203 Y48.5000
G01 X-34.2222 Y48.4953
G01 X-34.2261 Y48.4807
G01 X-34.2272 Y48.4696
G01 X-34.2286 Y48.4597
G01 X-34.2289 Y48.4546
G01 X-34.2289 Y46.2813
G01 X-34.2277 Y46.2641
G01 X-34.2259 Y46.2540
G01 X-34.2243 Y46.2483
G01 X-34.2160 Y46.2256
G01 X-34.2097 Y46.2144
G01 X-34.2035 Y46.2066
G01 X-34.2035 Y44.8563
G01 X-35.1563 Y43.9035
G01 X-36.5037 Y43.9035
G01 X-37.4565 Y44.8563
G01 X-37.4565 Y46.2054
G01 X-37.4511 Y46.2131
G01 X-37.4486 Y46.2175
G01 X-37.4442 Y46.2274
G01 X-37.4398 Y46.2358
G01 X-37.4376 Y46.2413
G01 X-37.4340 Y46.2550
G01 X-37.4328 Y46.2663
G01 X-37.4314 Y46.2762
G01 X-37.4311 Y46.2813
G01 X-37.4311 Y49.4885
G01 X-37.1873 Y50.0770
G01 X-33.9070 Y53.3573
G01 X-33.3185 Y53.6011
G01 X-30.2815 Y53.6011
G01 X-30.0763 Y53.5161
G01 X-30.0661 Y53.5124
G01 X-30.0514 Y53.5087
G01 X-30.0455 Y53.5078
G01 X-30.0388 Y53.5076
G01 X-30.0281 Y53.5065
G01 X-29.8048 Y53.5065
G01 X-29.7930 Y53.4982
G01 X-29.7841 Y53.4940
G01 X-29.7770 Y53.4899
G01 X-29.7726 Y53.4880
G01 X-29.7554 Y53.4828
G01 X-29.7455 Y53.4816
G01 X-29.7377 Y53.4801
G01 X-29.7315 Y53.4797
G01 X-29.7150 Y53.4802
G01 X-29.6937 Y53.4841
G01 X-29.6763 Y53.4904
G01 X-29.6667 Y53.4959
G01 X-29.6601 Y53.4991
G01 X-29.6548 Y53.5025
G01 X-29.6497 Y53.5068
G01 X-29.6453 Y53.5099
G01 X-29.6397 Y53.5150
G01 X-29.6347 Y53.5210
G01 X-29.6272 Y53.5289
G01 X-29.6173 Y53.5440
G01 X-29.6150 Y53.5486
G01 X-29.6127 Y53.5545
G01 X-29.6088 Y53.5623
G01 X-29.6066 Y53.5691
G01 X-29.6030 Y53.5839
G01 X-29.6011 Y53.6057
G01 X-29.6011 Y55.9822
G01 X-29.6031 Y56.0040
G01 X-29.6040 Y56.0095
G01 X-29.6057 Y56.0154
G01 X-29.6158 Y56.0409
G01 X-29.6205 Y56.0494
G01 X-29.6233 Y56.0532
G01 X-29.6404 Y56.0735
G01 X-29.6454 Y56.0783
G01 X-29.6493 Y56.0813
G01 X-29.6727 Y56.0957
G01 X-29.6779 Y56.0983
G01 X-29.7850 Y56.1427
G01 X-30.2911 Y56.6489
G01 X-30.3058 Y56.6614
G01 X-30.3165 Y56.6683
G01 X-30.3392 Y56.6789
G01 X-30.3528 Y56.6827
G01 X-30.3752 Y56.6855
G01 X-30.3803 Y56.6858
G01 X-30.5616 Y56.6858
G01 X-30.6897 Y56.8140
G01 X-30.7023 Y56.8250
G01 X-30.7140 Y56.8328
G01 X-30.7375 Y56.8440
G01 X-30.7516 Y56.8478
G01 X-30.7763 Y56.8508
G01 X-42.8326 Y56.8509
G01 X-42.8486 Y56.8499
G01 X-42.8622 Y56.8474
G01 X-42.8848 Y56.8395
G01 X-42.8979 Y56.8327
G01 X-42.9030 Y56.8292
G01 X-42.9100 Y56.8232
G01 X-42.9183 Y56.8171
G01 X-42.9218 Y56.8140
G01 X-45.9420 Y53.7938
G01 X-45.9522 Y53.7821
G01 X-45.9596 Y53.7717
G01 X-45.9620 Y53.7673
G01 X-45.9658 Y53.7585
G01 X-45.9712 Y53.7479
G01 X-45.9731 Y53.7423
G01 X-45.9758 Y53.7321
G01 X-45.9789 Y53.7059
G01 X-45.9787 Y53.4362
G01 X-45.9765 Y53.4158
G01 X-45.9742 Y53.4060
G01 X-45.9721 Y53.4001
G01 X-45.9627 Y53.3784
G01 X-45.9580 Y53.3706
G01 X-45.9543 Y53.3655
G01 X-45.9457 Y53.3564
G01 X-45.9384 Y53.3479
G01 X-45.9332 Y53.3430
G01 X-45.9246 Y53.3368
G01 X-45.9043 Y53.3253
G01 X-45.8988 Y53.3227
G01 X-45.8922 Y53.3203
G01 X-45.8873 Y53.3191
G01 X-45.8761 Y53.3172
G01 X-45.8648 Y53.3149
G01 X-45.8588 Y53.3142
G01 X-45.2423 Y53.3141
G01 X-45.2423 Y53.1600
G01 X-45.9725 Y53.1599
G01 X-45.9798 Y53.1590
G01 X-45.9868 Y53.1571
G01 X-45.9936 Y53.1541
G01 X-45.9988 Y53.1509
G01 X-46.0045 Y53.1462
G01 X-46.0094 Y53.1408
G01 X-46.0129 Y53.1357
G01 X-46.0162 Y53.1291
G01 X-46.0190 Y53.1198
G01 X-46.0200 Y53.1100
G01 X-46.0200 Y51.2500
G01 X-46.0196 Y51.2439
G01 X-46.0182 Y51.2367
G01 X-46.0157 Y51.2297
G01 X-46.0122 Y51.2233
G01 X-46.0079 Y51.2173
G01 X-46.0017 Y51.2113
G01 X-45.9957 Y51.2071
G01 X-45.9880 Y51.2034
G01 X-45.9810 Y51.2012
G01 X-45.9725 Y51.2001
G01 X-45.2423 Y51.2000
G01 X-45.2423 Y51.0459
G01 X-45.9815 Y51.0459
G01 X-45.9967 Y51.0448
G01 X-46.0079 Y51.0429
G01 X-46.0136 Y51.0413
G01 X-46.0223 Y51.0378
G01 X-46.0324 Y51.0346
G01 X-46.0379 Y51.0320
G01 X-46.0480 Y51.0263
G01 X-46.0687 Y51.0098
G01 X-46.5059 Y50.5726
G01 X-47.2028 Y50.2839
G01 X-47.9572 Y50.2839
G01 X-48.3456 Y50.4449
G01 X-48.3503 Y50.4466
G01 X-48.3672 Y50.4513
G01 X-48.3722 Y50.4523
G01 X-48.3840 Y50.4537
G01 X-48.3911 Y50.4539
G01 X-48.3992 Y50.4530
G01 X-48.4063 Y50.4531
G01 X-48.4113 Y50.4526
G01 X-48.4273 Y50.4492
G01 X-48.4321 Y50.4475
G01 X-48.4387 Y50.4445
G01 X-48.4467 Y50.4418
G01 X-48.4534 Y50.4385
G01 X-48.4654 Y50.4309
G01 X-48.4831 Y50.4159
G01 X-48.4919 Y50.4058
G01 X-48.4956 Y50.4008
G01 X-48.4999 Y50.3931
G01 X-48.5058 Y50.3837
G01 X-48.5111 Y50.3714
G01 X-48.5134 Y50.3646
G01 X-48.5151 Y50.3555
G01 X-48.5176 Y50.3462
G01 X-48.5182 Y50.3411
G01 X-48.5189 Y50.3279
G01 X-48.5189 Y47.5615
G01 X-48.7627 Y46.9730
G01 X-52.0230 Y43.7127
G01 X-52.6115 Y43.4689
G01 X-83.1428 Y43.4689
G01 X-83.1660 Y43.4667
G01 X-83.1758 Y43.4645
G01 X-83.1829 Y43.4621
G01 X-83.2057 Y43.4521
G01 X-83.2165 Y43.4451
G01 X-83.2351 Y43.4284
G01 X-83.2400 Y43.4232
G01 X-83.2462 Y43.4146
G01 X-83.2583 Y43.3932
G01 X-83.2627 Y43.3822
G01 X-83.2639 Y43.3773
G01 X-83.2658 Y43.3661
G01 X-83.2681 Y43.3549
G01 X-83.2687 Y43.3502
G01 X-83.2689 Y43.3428
G01 X-83.2689 Y32.8115
G01 X-83.5127 Y32.2230
G01 X-86.9203 Y28.8154
G01 X-86.9278 Y28.8070
G01 X-86.9364 Y28.7952
G01 X-86.9395 Y28.7897
G01 X-86.9419 Y28.7841
G01 X-86.9455 Y28.7780
G01 X-86.9483 Y28.7715
G01 X-86.9528 Y28.7566
G01 X-86.9543 Y28.7455
G01 X-86.9558 Y28.7377
G01 X-86.9562 Y28.7302
G01 X-86.9555 Y28.7138
G01 X-86.9536 Y28.7051
G01 X-86.9521 Y28.6949
G01 X-86.9470 Y28.6797
G01 X-86.9444 Y28.6740
G01 X-86.9400 Y28.6667
G01 X-86.9348 Y28.6569
G01 X-86.9253 Y28.6445
G01 X-86.9204 Y28.6392
G01 X-86.9149 Y28.6348
G01 X-86.9072 Y28.6274
G01 X-86.8930 Y28.6179
G01 X-86.8873 Y28.6150
G01 X-86.8815 Y28.6128
G01 X-86.8750 Y28.6094
G01 X-86.8669 Y28.6066
G01 X-86.8520 Y28.6030
G01 X-86.8302 Y28.6011
G01 X-77.6815 Y28.6011
G01 X-77.0930 Y28.3573
G01 X-75.7738 Y27.0380
G01 X-75.7621 Y27.0278
G01 X-75.7517 Y27.0204
G01 X-75.7301 Y27.0098
G01 X-75.7223 Y27.0069
G01 X-75.7109 Y27.0040
G01 X-75.6859 Y27.0011
G01 X-75.0811 Y27.0011
G01 X-75.0606 Y27.0030
G01 X-75.0527 Y27.0043
G01 X-75.0469 Y27.0061
G01 X-75.0236 Y27.0153
G01 X-75.0173 Y27.0184
G01 X-75.0102 Y27.0233
G01 X-74.9890 Y27.0413
G01 X-74.9837 Y27.0472
G01 X-74.9791 Y27.0541
G01 X-74.5001 Y27.5331
G01 X-73.8837 Y27.7885
G01 X-73.2163 Y27.7885
G01 X-72.7844 Y27.6095
G01 X-72.7797 Y27.6078
G01 X-72.7628 Y27.6031
G01 X-72.7553 Y27.6018
G01 X-72.7446 Y27.6006
G01 X-72.7396 Y27.6005
G01 X-72.7308 Y27.6013
G01 X-72.7196 Y27.6017
G01 X-72.7015 Y27.6056
G01 X-72.6913 Y27.6099
G01 X-72.6809 Y27.6137
G01 X-72.6687 Y27.6207
G01 X-72.6627 Y27.6249
G01 X-72.6462 Y27.6392
G01 X-72.6378 Y27.6490
G01 X-72.6343 Y27.6538
G01 X-72.6301 Y27.6613
G01 X-72.6242 Y27.6707
G01 X-72.6185 Y27.6837
G01 X-72.6166 Y27.6896
G01 X-72.6149 Y27.6990
G01 X-72.6124 Y27.7082
G01 X-72.6118 Y27.7133
G01 X-72.6111 Y27.7252
G01 X-72.6111 Y29.3085
G01 X-72.3673 Y29.8970
G01 X-68.7870 Y33.4773
G01 X-68.1985 Y33.7211
G01 X-52.8972 Y33.7211
G01 X-52.8751 Y33.7232
G01 X-52.8693 Y33.7242
G01 X-52.8582 Y33.7274
G01 X-52.8377 Y33.7363
G01 X-52.8321 Y33.7391
G01 X-52.8255 Y33.7434
G01 X-52.8216 Y33.7465
G01 X-52.8134 Y33.7543
G01 X-52.8049 Y33.7616
G01 X-52.8007 Y33.7659
G01 X-52.7938 Y33.7754
G01 X-52.7828 Y33.7947
G01 X-52.7802 Y33.8001
G01 X-52.7763 Y33.8115
G01 X-52.7714 Y33.8388
G01 X-52.7711 Y33.8472
G01 X-52.7714 Y34.8428
G01 X-52.7740 Y34.8625
G01 X-52.7803 Y34.8827
G01 X-52.9743 Y35.3511
G01 X-52.9743 Y36.0689
G01 X-52.6996 Y36.7321
G01 X-52.1921 Y37.2396
G01 X-51.5289 Y37.5143
G01 X-50.8111 Y37.5143
G01 X-50.1479 Y37.2396
G01 X-49.6404 Y36.7321
G01 X-49.3657 Y36.0689
G01 X-49.3657 Y35.3511
G01 X-49.5597 Y34.8826
G01 X-49.5630 Y34.8735
G01 X-49.5667 Y34.8588
G01 X-49.5675 Y34.8541
G01 X-49.5678 Y34.8462
G01 X-49.5688 Y34.8381
G01 X-49.5688 Y33.8445
G01 X-49.5665 Y33.8228
G01 X-49.5642 Y33.8130
G01 X-49.5621 Y33.8071
G01 X-49.5521 Y33.7843
G01 X-49.5451 Y33.7735
G01 X-49.5284 Y33.7549
G01 X-49.5232 Y33.7500
G01 X-49.5156 Y33.7444
G01 X-49.4932 Y33.7317
G01 X-49.4822 Y33.7273
G01 X-49.4773 Y33.7261
G01 X-49.4661 Y33.7242
G01 X-49.4548 Y33.7219
G01 X-49.4428 Y33.7211
G01 X-44.6815 Y33.7211
G01 X-44.0930 Y33.4773
G01 X-43.6427 Y33.0270
G01 X-43.3989 Y32.4385
G01 X-43.3988 Y19.7132
G01 X-43.3979 Y19.6994
G01 X-43.3957 Y19.6870
G01 X-43.3870 Y19.6620
G01 X-43.3819 Y19.6522
G01 X-43.3787 Y19.6470
G01 X-43.3712 Y19.6380
G01 X-43.3658 Y19.6306
G01 X-43.3620 Y19.6262
G01 X-43.1538 Y19.4180
G01 X-43.1431 Y19.4086
G01 X-43.1338 Y19.4018
G01 X-43.1295 Y19.3992
G01 X-43.1057 Y19.3880
G01 X-43.0921 Y19.3842
G01 X-43.0685 Y19.3812
G01 X-42.8399 Y19.3811
G01 X-42.8188 Y19.3833
G01 X-42.8129 Y19.3845
G01 X-42.7985 Y19.3889
G01 X-42.7775 Y19.3989
G01 X-42.7634 Y19.4086
G01 X-42.7598 Y19.4119
G01 X-42.7550 Y19.4171
G01 X-42.7485 Y19.4229
G01 X-42.7451 Y19.4267
G01 X-42.7385 Y19.4355
G01 X-42.7345 Y19.4416
G01 X-42.7309 Y19.4493
G01 X-42.7272 Y19.4557
G01 X-42.7251 Y19.4601
G01 X-42.7199 Y19.4763
G01 X-42.7183 Y19.4879
G01 X-42.7163 Y19.4987
G01 X-42.7163 Y19.5154
G01 X-42.7201 Y19.5389
G01 X-42.7247 Y19.5532
G01 X-42.8861 Y19.9428
G01 X-42.8861 Y20.6972
G01 X-42.5974 Y21.3941
G01 X-42.0641 Y21.9274
G01 X-41.3751 Y22.2128
G01 X-41.3652 Y22.2175
G01 X-41.3523 Y22.2252
G01 X-41.3482 Y22.2281
G01 X-41.3426 Y22.2333
G01 X-41.3358 Y22.2385
G01 X-37.4680 Y26.1062
G01 X-37.4578 Y26.1179
G01 X-37.4504 Y26.1283
G01 X-37.4480 Y26.1327
G01 X-37.4442 Y26.1415
G01 X-37.4388 Y26.1521
G01 X-37.4369 Y26.1577
G01 X-37.4342 Y26.1679
G01 X-37.4312 Y26.1928
G01 X-37.4311 Y33.9828
G01 X-37.4314 Y33.9882
G01 X-37.4337 Y34.0084
G01 X-37.4358 Y34.0170
G01 X-37.4379 Y34.0229
G01 X-37.4473 Y34.0446
G01 X-37.4534 Y34.0545
G01 X-37.4565 Y34.0584
G01 X-37.4643 Y34.0666
G01 X-37.4724 Y34.0760
G01 X-37.4814 Y34.0835
G01 X-37.4864 Y34.0868
G01 X-37.5057 Y34.0977
G01 X-37.5155 Y34.1019
G01 X-37.5239 Y34.1042
G01 X-37.5339 Y34.1058
G01 X-37.5452 Y34.1081
G01 X-37.5512 Y34.1088
G01 X-40.1365 Y34.1089
G01 X-40.1465 Y34.1084
G01 X-40.1613 Y34.1063
G01 X-40.1662 Y34.1051
G01 X-40.1735 Y34.1024
G01 X-40.1827 Y34.0997
G01 X-40.6511 Y33.9057
G01 X-41.3689 Y33.9057
G01 X-42.0321 Y34.1804
G01 X-42.5396 Y34.6879
G01 X-42.8143 Y35.3511
G01 X-42.8143 Y36.0689
G01 X-42.5396 Y36.7321
G01 X-42.0321 Y37.2396
G01 X-41.3689 Y37.5143
G01 X-40.6511 Y37.5143
G01 X-40.1826 Y37.3203
G01 X-40.1735 Y37.3170
G01 X-40.1588 Y37.3133
G01 X-40.1541 Y37.3125
G01 X-40.1461 Y37.3122
G01 X-40.1379 Y37.3112
G01 X-35.8515 Y37.3111
G01 X-35.2630 Y37.0673
G01 X-35.2272 Y37.0316
G01 X-35.2166 Y37.0224
G01 X-35.2082 Y37.0165
G01 X-35.2038 Y37.0140
G01 X-35.1939 Y37.0096
G01 X-35.1855 Y37.0052
G01 X-35.1800 Y37.0030
G01 X-35.1675 Y36.9996
G01 X-35.1570 Y36.9984
G01 X-35.1479 Y36.9918
G01 X-35.1436 Y36.9892
G01 X-35.1198 Y36.9780
G01 X-35.1050 Y36.9740
G01 X-35.0813 Y36.9712
G01 X-28.6554 Y36.9711
G01 X-28.6404 Y36.9720
G01 X-28.6251 Y36.9748
G01 X-28.6136 Y36.9791
G01 X-28.6044 Y36.9821
G01 X-28.5997 Y36.9840
G01 X-28.5870 Y36.9913
G01 X-28.5671 Y37.0072
G01 X-27.6730 Y37.9012
G01 X-27.6628 Y37.9129
G01 X-27.6554 Y37.9233
G01 X-27.6447 Y37.9450
G01 X-27.6420 Y37.9521
G01 X-27.6389 Y37.9643
G01 X-27.6362 Y37.9878
G01 X-27.6361 Y38.3548
G01 X-27.2956 Y39.1767
G01 X-26.6667 Y39.8056
G01 X-25.8448 Y40.1461
G01 X-24.9552 Y40.1461
G01 X-24.1333 Y39.8056
G01 X-23.8758 Y39.5480
G01 X-23.8651 Y39.5386
G01 X-23.8558 Y39.5318
G01 X-23.8515 Y39.5292
G01 X-23.8277 Y39.5180
G01 X-23.8126 Y39.5140
G01 X-23.7878 Y39.5111
G01 X-6.8043 Y39.5111
G01 X-6.7894 Y39.5121
G01 X-6.7781 Y39.5141
G01 X-6.7724 Y39.5157
G01 X-6.7636 Y39.5191
G01 X-6.7520 Y39.5230
G01 X-6.7422 Y39.5281
G01 X-6.7370 Y39.5313
G01 X-6.7171 Y39.5472
G01 X-5.6380 Y40.6262
G01 X-5.6278 Y40.6379
G01 X-5.6204 Y40.6483
G01 X-5.6098 Y40.6699
G01 X-5.6076 Y40.6754
G01 X-5.6040 Y40.6891
G01 X-5.6028 Y40.7004
G01 X-5.6014 Y40.7103
G01 X-5.6011 Y40.7154
G01 X-5.6011 Y56.9438
G01 X-5.6024 Y56.9616
G01 X-5.6050 Y56.9748
G01 X-5.6096 Y56.9867
G01 X-5.6137 Y56.9986
G01 X-5.6204 Y57.0109
G01 X-5.6360 Y57.0306
G01 X-5.6403 Y57.0352
G01 X-5.6493 Y57.0429
G01 X-5.6595 Y57.0491
G01 X-5.6682 Y57.0550
G01 X-5.6736 Y57.0579
G01 X-5.6849 Y57.0625
G01 X-5.6964 Y57.0652
G01 X-5.7067 Y57.0681
G01 X-5.7139 Y57.0692
G01 X-5.7248 Y57.0698
G01 X-5.7476 Y57.0681
G01 X-5.7546 Y57.0669
G01 X-5.7654 Y57.0639
G01 X-5.7761 Y57.0590
G01 X-5.7868 Y57.0548
G01 X-5.7974 Y57.0486
G01 X-5.8024 Y57.0448
G01 X-5.8211 Y57.0279
G01 X-5.8300 Y57.0166
G01 X-5.8432 Y56.9933
G01 X-6.0269 Y56.5499
G01 X-6.4987 Y56.0781
G01 X-7.1151 Y55.8227
G01 X-7.5219 Y55.8227
G01 X-7.5368 Y55.8217
G01 X-7.5492 Y55.8195
G01 X-7.5718 Y55.8117
G01 X-7.5776 Y55.8092
G01 X-7.5892 Y55.8025
G01 X-7.5982 Y55.7950
G01 X-7.6056 Y55.7896
G01 X-7.6100 Y55.7858
G01 X-8.2530 Y55.1427
G01 X-8.8415 Y54.8989
G01 X-13.9085 Y54.8989
G01 X-14.4970 Y55.1427
G01 X-15.0893 Y55.7350
G01 X-15.1018 Y55.7460
G01 X-15.1135 Y55.7538
G01 X-15.1245 Y55.7588
G01 X-15.1342 Y55.7638
G01 X-15.1401 Y55.7660
G01 X-15.1487 Y55.7683
G01 X-15.1535 Y55.7692
G01 X-15.1771 Y55.7719
G01 X-15.3058 Y55.7719
G01 X-16.3181 Y56.7842
G01 X-16.3181 Y58.2158
G01 X-15.9905 Y58.5434
G01 X-13.1895 Y58.5434
G01 X-12.8608 Y58.2147
G01 X-12.8593 Y58.2016
G01 X-12.8568 Y58.1918
G01 X-12.8457 Y58.1654
G01 X-12.8432 Y58.1610
G01 X-12.8381 Y58.1535
G01 X-12.8206 Y58.1340
G01 X-12.8162 Y58.1300
G01 X-12.8086 Y58.1244
G01 X-12.7840 Y58.1107
G01 X-12.7764 Y58.1077
G01 X-12.7715 Y58.1063
G01 X-12.7478 Y58.1019
G01 X-12.7358 Y58.1011
G01 X-10.5220 Y58.1011
G01 X-10.4978 Y58.1035
G01 X-10.4888 Y58.1057
G01 X-10.4643 Y58.1154
G01 X-10.4579 Y58.1186
G01 X-10.4519 Y58.1226
G01 X-10.4317 Y58.1396
G01 X-10.4262 Y58.1452
G01 X-10.4216 Y58.1513
G01 X-10.4085 Y58.1727
G01 X-10.4054 Y58.1790
G01 X-10.2931 Y58.4501
G01 X-9.8213 Y58.9219
G01 X-9.4334 Y59.0827
G01 X-9.4176 Y59.0909
G01 X-9.4079 Y59.0978
G01 X-9.3880 Y59.1165
G01 X-9.3827 Y59.1232
G01 X-9.3794 Y59.1282
G01 X-9.3676 Y59.1501
G01 X-9.3637 Y59.1606
G01 X-9.3625 Y59.1654
G01 X-9.3586 Y59.1887
G01 X-9.3580 Y59.1997
G01 X-9.3584 Y59.2058
G01 X-9.3619 Y59.2280
G01 X-9.3637 Y59.2354
G01 X-9.3675 Y59.2456
G01 X-9.3800 Y59.2692
G01 X-9.3878 Y59.2793
G01 X-9.4073 Y59.2980
G01 X-9.4674 Y59.3418
G01 X-9.5694 Y59.4438
G01 X-9.6540 Y59.5603
G01 X-9.6658 Y59.5834
G01 X-9.4796 Y59.5834
G01 X-9.4591 Y59.5559
G01 X-9.4106 Y59.5024
G01 X-9.3553 Y59.4521
G01 X-9.2943 Y59.4068
G01 X-9.2313 Y59.3690
G01 X-9.1626 Y59.3364
G01 X-9.0923 Y59.3112
G01 X-9.0198 Y59.2931
G01 X-8.9471 Y59.2822
G01 X-8.8712 Y59.2784
G01 X-7.4488 Y59.2784
G01 X-7.3754 Y59.2820
G01 X-7.3002 Y59.2931
G01 X-7.2254 Y59.3120
G01 X-7.1574 Y59.3364
G01 X-7.0920 Y59.3673
G01 X-7.0257 Y59.4068
G01 X-6.9657 Y59.4513
G01 X-6.9103 Y59.5015
G01 X-6.8601 Y59.5569
G01 X-6.8163 Y59.6159
G01 X-6.7772 Y59.6810
G01 X-6.7457 Y59.7474
G01 X-6.7204 Y59.8178
G01 X-6.7153 Y59.8377
G01 X-6.5542 Y59.8377
G01 X-6.5561 Y59.8257
G01 X-6.6005 Y59.6887
G01 X-6.6660 Y59.5603
G01 X-6.7506 Y59.4438
G01 X-6.8526 Y59.3418
G01 X-6.9109 Y59.2995
G01 X-6.9247 Y59.2876
G01 X-6.9332 Y59.2782
G01 X-6.9483 Y59.2550
G01 X-6.9520 Y59.2473
G01 X-6.9538 Y59.2426
G01 X-6.9598 Y59.2198
G01 X-6.9610 Y59.2135
G01 X-6.9618 Y59.2025
G01 X-6.9602 Y59.1782
G01 X-6.9583 Y59.1679
G01 X-6.9562 Y59.1609
G01 X-6.9515 Y59.1504
G01 X-6.9469 Y59.1386
G01 X-6.9440 Y59.1332
G01 X-6.9391 Y59.1258
G01 X-6.9202 Y59.1044
G01 X-6.9104 Y59.0965
G01 X-6.8873 Y59.0830
G01 X-6.4987 Y58.9219
G01 X-6.0269 Y58.4501
G01 X-5.8437 Y58.0080
G01 X-5.8358 Y57.9920
G01 X-5.8278 Y57.9804
G01 X-5.8111 Y57.9621
G01 X-5.8010 Y57.9540
G01 X-5.7778 Y57.9408
G01 X-5.7723 Y57.9384
G01 X-5.7639 Y57.9356
G01 X-5.7376 Y57.9306
G01 X-5.7235 Y57.9302
G01 X-5.6963 Y57.9340
G01 X-5.6856 Y57.9371
G01 X-5.6800 Y57.9394
G01 X-5.6589 Y57.9502
G01 X-5.6486 Y57.9575
G01 X-5.6450 Y57.9608
G01 X-5.6378 Y57.9685
G01 X-5.6295 Y57.9767
G01 X-5.6220 Y57.9867
G01 X-5.6190 Y57.9918
G01 X-5.6147 Y58.0012
G01 X-5.6098 Y58.0105
G01 X-5.6072 Y58.0172
G01 X-5.6042 Y58.0294
G01 X-5.6011 Y58.0549
G01 X-5.6011 Y62.0238
G01 X-5.6024 Y62.0416
G01 X-5.6050 Y62.0548
G01 X-5.6096 Y62.0667
G01 X-5.6137 Y62.0786
G01 X-5.6186 Y62.0879
G01 X-5.6218 Y62.0929
G01 X-5.6368 Y62.1116
G01 X-5.6444 Y62.1189
G01 X-5.6504 Y62.1236
G01 X-5.6595 Y62.1291
G01 X-5.6672 Y62.1344
G01 X-5.6736 Y62.1379
G01 X-5.6837 Y62.1421
G01 X-5.7091 Y62.1486
G01 X-5.7199 Y62.1497
G01 X-5.7260 Y62.1497
G01 X-5.7488 Y62.1479
G01 X-5.7595 Y62.1457
G01 X-5.7666 Y62.1434
G01 X-5.7761 Y62.1390
G01 X-5.7879 Y62.1343
G01 X-5.7974 Y62.1286
G01 X-5.8024 Y62.1248
G01 X-5.8194 Y62.1097
G01 X-5.8272 Y62.1006
G01 X-5.8307 Y62.0955
G01 X-5.8432 Y62.0733
G01 X-6.0269 Y61.6299
G01 X-6.4987 Y61.1581
G01 X-6.8878 Y60.9967
G01 X-6.9013 Y60.9897
G01 X-6.9093 Y60.9845
G01 X-6.9139 Y60.9806
G01 X-6.9311 Y60.9644
G01 X-6.9344 Y60.9606
G01 X-6.9399 Y60.9529
G01 X-6.9519 Y60.9308
G01 X-6.9555 Y60.9217
G01 X-6.9575 Y60.9146
G01 X-6.9616 Y60.8901
G01 X-6.9620 Y60.8815
G01 X-6.9618 Y60.8766
G01 X-6.9579 Y60.8507
G01 X-6.9552 Y60.8413
G01 X-6.9525 Y60.8346
G01 X-6.9410 Y60.8125
G01 X-6.9382 Y60.8082
G01 X-6.9322 Y60.8007
G01 X-6.9127 Y60.7820
G01 X-6.8526 Y60.7382
G01 X-6.7506 Y60.6362
G01 X-6.6660 Y60.5197
G01 X-6.6005 Y60.3913
G01 X-6.5561 Y60.2543
G01 X-6.5542 Y60.2423
G01 X-6.7153 Y60.2423
G01 X-6.7204 Y60.2622
G01 X-6.7457 Y60.3326
G01 X-6.7772 Y60.3990
G01 X-6.8163 Y60.4641
G01 X-6.8601 Y60.5231
G01 X-6.9103 Y60.5785
G01 X-6.9657 Y60.6287
G01 X-7.0257 Y60.6732
G01 X-7.0920 Y60.7127
G01 X-7.1574 Y60.7436
G01 X-7.2254 Y60.7680
G01 X-7.3002 Y60.7869
G01 X-7.3754 Y60.7980
G01 X-7.4488 Y60.8016
G01 X-8.8712 Y60.8016
G01 X-8.9471 Y60.7978
G01 X-9.0198 Y60.7869
G01 X-9.0923 Y60.7688
G01 X-9.1626 Y60.7436
G01 X-9.2313 Y60.7110
G01 X-9.2943 Y60.6732
G01 X-9.3553 Y60.6279
G01 X-9.4106 Y60.5776
G01 X-9.4591 Y60.5241
G01 X-9.4796 Y60.4966
G01 X-9.6658 Y60.4966
G01 X-9.6540 Y60.5197
G01 X-9.5694 Y60.6362
G01 X-9.4674 Y60.7382
G01 X-9.4082 Y60.7812
G01 X-9.3944 Y60.7933
G01 X-9.3868 Y60.8018
G01 X-9.3736 Y60.8218
G01 X-9.3700 Y60.8282
G01 X-9.3662 Y60.8374
G01 X-9.3602 Y60.8602
G01 X-9.3590 Y60.8665
G01 X-9.3582 Y60.8763
G01 X-9.3597 Y60.9006
G01 X-9.3605 Y60.9068
G01 X-9.3634 Y60.9180
G01 X-9.3685 Y60.9296
G01 X-9.3726 Y60.9403
G01 X-9.3760 Y60.9468
G01 X-9.3817 Y60.9552
G01 X-9.3980 Y60.9739
G01 X-9.4058 Y60.9807
G01 X-9.4116 Y60.9847
G01 X-9.4338 Y60.9975
G01 X-9.6723 Y61.0963
G01 X-9.6817 Y61.0999
G01 X-9.6995 Y61.1042
G01 X-9.7098 Y61.1048
G01 X-9.7180 Y61.1058
G01 X-9.7583 Y61.1059
G01 X-9.7747 Y61.1047
G01 X-9.7838 Y61.1031
G01 X-9.7888 Y61.1018
G01 X-9.7990 Y61.0979
G01 X-9.8082 Y61.0949
G01 X-9.8129 Y61.0930
G01 X-9.8256 Y61.0857
G01 X-9.8455 Y61.0698
G01 X-11.1650 Y59.7504
G01 X-11.7067 Y59.5259
G01 X-12.2933 Y59.5259
G01 X-12.5215 Y59.6203
G01 X-12.5271 Y59.6221
G01 X-12.5426 Y59.6258
G01 X-12.5636 Y59.6275
G01 X-17.5275 Y59.6275
G01 X-17.5375 Y59.6270
G01 X-17.5523 Y59.6249
G01 X-17.5572 Y59.6237
G01 X-17.5646 Y59.6209
G01 X-17.5734 Y59.6184
G01 X-17.7967 Y59.5259
G01 X-18.3833 Y59.5259
G01 X-18.9250 Y59.7504
G01 X-19.9896 Y60.8150
G01 X-20.0013 Y60.8252
G01 X-20.0106 Y60.8319
G01 X-20.0161 Y60.8350
G01 X-20.0248 Y60.8388
G01 X-20.0330 Y60.8431
G01 X-20.0397 Y60.8458
G01 X-20.0527 Y60.8491
G01 X-20.0762 Y60.8518
G01 X-20.3858 Y60.8519
G01 X-21.3981 Y61.8642
G01 X-21.3981 Y63.2958
G01 X-20.3858 Y64.3081
G01 X-18.9542 Y64.3081
G01 X-17.9419 Y63.2958
G01 X-17.9418 Y62.9866
G01 X-17.9408 Y62.9725
G01 X-17.9382 Y62.9585
G01 X-17.9300 Y62.9354
G01 X-17.9237 Y62.9235
G01 X-17.9202 Y62.9184
G01 X-17.9142 Y62.9114
G01 X-17.9081 Y62.9031
G01 X-17.9050 Y62.8996
G01 X-17.4148 Y62.4094
G01 X-17.4012 Y62.3977
G01 X-17.3938 Y62.3925
G01 X-17.3894 Y62.3900
G01 X-17.3796 Y62.3856
G01 X-17.3714 Y62.3813
G01 X-17.3658 Y62.3790
G01 X-17.3517 Y62.3753
G01 X-17.3406 Y62.3742
G01 X-17.3307 Y62.3728
G01 X-17.3256 Y62.3725
G01 X-16.4429 Y62.3725
G01 X-16.4210 Y62.3747
G01 X-16.4112 Y62.3769
G01 X-16.4052 Y62.3788
G01 X-16.3824 Y62.3887
G01 X-16.3780 Y62.3912
G01 X-16.3705 Y62.3963
G01 X-16.3528 Y62.4122
G01 X-16.3477 Y62.4173
G01 X-16.3414 Y62.4258
G01 X-16.3293 Y62.4471
G01 X-16.3251 Y62.4569
G01 X-16.3231 Y62.4641
G01 X-16.3185 Y62.4890
G01 X-16.3181 Y62.4986
G01 X-16.3181 Y62.9238
G01 X-16.0550 Y63.5589
G01 X-15.5689 Y64.0450
G01 X-15.2844 Y64.1628
G01 X-15.2763 Y64.1666
G01 X-15.2624 Y64.1750
G01 X-15.2585 Y64.1778
G01 X-15.2530 Y64.1829
G01 X-15.2462 Y64.1881
G01 X-13.7980 Y65.6362
G01 X-13.7863 Y65.6498
G01 X-13.7811 Y65.6572
G01 X-13.7786 Y65.6616
G01 X-13.7742 Y65.6715
G01 X-13.7698 Y65.6799
G01 X-13.7676 Y65.6854
G01 X-13.7640 Y65.6991
G01 X-13.7628 Y65.7104
G01 X-13.7614 Y65.7203
G01 X-13.7611 Y65.7254
G01 X-13.7611 Y70.3267
G01 X-13.7616 Y70.3365
G01 X-13.7637 Y70.3513
G01 X-13.7649 Y70.3562
G01 X-13.7676 Y70.3635
G01 X-13.7703 Y70.3727
G01 X-13.9643 Y70.8411
G01 X-13.9643 Y71.5589
G01 X-13.6885 Y72.2246
G01 X-13.6865 Y72.2302
G01 X-13.6817 Y72.2471
G01 X-13.6804 Y72.2540
G01 X-13.6791 Y72.2678
G01 X-13.6799 Y72.2789
G01 X-13.6799 Y72.2875
G01 X-13.6807 Y72.2937
G01 X-13.6831 Y72.3047
G01 X-13.6848 Y72.3105
G01 X-13.6884 Y72.3187
G01 X-13.6924 Y72.3295
G01 X-13.6994 Y72.3416
G01 X-13.7029 Y72.3466
G01 X-13.7091 Y72.3534
G01 X-13.7148 Y72.3608
G01 X-13.7191 Y72.3650
G01 X-13.7309 Y72.3747
G01 X-13.7397 Y72.3798
G01 X-13.7470 Y72.3847
G01 X-13.7524 Y72.3874
G01 X-13.7661 Y72.3928
G01 X-13.7707 Y72.3940
G01 X-13.7776 Y72.3951
G01 X-13.7856 Y72.3973
G01 X-13.7919 Y72.3982
G01 X-13.8051 Y72.3989
G01 X-20.6760 Y72.3989
G01 X-20.6808 Y72.3987
G01 X-20.6983 Y72.3967
G01 X-20.7054 Y72.3952
G01 X-20.7198 Y72.3906
G01 X-20.7286 Y72.3861
G01 X-20.7387 Y72.3816
G01 X-20.7541 Y72.3710
G01 X-20.7712 Y72.3543
G01 X-20.7815 Y72.3402
G01 X-20.7863 Y72.3304
G01 X-20.7898 Y72.3243
G01 X-20.7919 Y72.3198
G01 X-20.7963 Y72.3071
G01 X-20.7975 Y72.3025
G01 X-20.8008 Y72.2797
G01 X-20.8006 Y72.2621
G01 X-20.7965 Y72.2395
G01 X-20.7915 Y72.2246
G01 X-20.5157 Y71.5589
G01 X-20.5157 Y70.8411
G01 X-20.7904 Y70.1779
G01 X-21.2979 Y69.6704
G01 X-21.7664 Y69.4764
G01 X-21.7745 Y69.4726
G01 X-21.7884 Y69.4642
G01 X-21.7923 Y69.4614
G01 X-21.7978 Y69.4563
G01 X-21.8054 Y69.4503
G01 X-25.6130 Y65.6427
G01 X-26.2015 Y65.3989
G01 X-48.3185 Y65.3989
G01 X-48.9070 Y65.6427
G01 X-51.0473 Y67.7830
G01 X-51.2911 Y68.3715
G01 X-51.2911 Y70.6641
G01 X-51.2935 Y70.6872
G01 X-51.2962 Y70.6982
G01 X-51.3068 Y70.7234
G01 X-51.3091 Y70.7279
G01 X-51.3134 Y70.7345
G01 X-51.3165 Y70.7384
G01 X-51.3243 Y70.7466
G01 X-51.3316 Y70.7551
G01 X-51.3368 Y70.7600
G01 X-51.3454 Y70.7662
G01 X-51.3657 Y70.7777
G01 X-51.3712 Y70.7803
G01 X-51.3778 Y70.7827
G01 X-51.3839 Y70.7842
G01 X-51.3939 Y70.7858
G01 X-51.4064 Y70.7883
G01 X-51.4172 Y70.7889
G01 X-62.4728 Y70.7889
G01 X-62.4960 Y70.7867
G01 X-62.5082 Y70.7838
G01 X-62.5334 Y70.7732
G01 X-62.5379 Y70.7709
G01 X-62.5445 Y70.7666
G01 X-62.5484 Y70.7635
G01 X-62.5566 Y70.7557
G01 X-62.5660 Y70.7476
G01 X-62.5735 Y70.7386
G01 X-62.5768 Y70.7336
G01 X-62.5877 Y70.7143
G01 X-62.5923 Y70.7034
G01 X-62.5939 Y70.6973
G01 X-62.5958 Y70.6861
G01 X-62.5981 Y70.6748
G01 X-62.5989 Y70.6628
G01 X-62.5989 Y62.9154
G01 X-62.5979 Y62.8994
G01 X-62.5957 Y62.8870
G01 X-62.5875 Y62.8632
G01 X-62.5819 Y62.8522
G01 X-62.5780 Y62.8460
G01 X-62.5712 Y62.8380
G01 X-62.5636 Y62.8279
G01 X-62.3738 Y62.6380
G01 X-62.3612 Y62.6270
G01 X-62.3495 Y62.6192
G01 X-62.3268 Y62.6084
G01 X-62.3158 Y62.6051
G01 X-62.3109 Y62.6040
G01 X-62.2996 Y62.6028
G01 X-62.2897 Y62.6014
G01 X-62.2846 Y62.6011
G01 X-60.9381 Y62.6011
G01 X-60.9251 Y62.6017
G01 X-60.9097 Y62.6043
G01 X-60.9048 Y62.6057
G01 X-60.8990 Y62.6080
G01 X-60.8917 Y62.6100
G01 X-60.8860 Y62.6124
G01 X-60.8717 Y62.6199
G01 X-60.8632 Y62.6267
G01 X-60.8561 Y62.6315
G01 X-60.8514 Y62.6357
G01 X-60.8408 Y62.6470
G01 X-60.8350 Y62.6559
G01 X-60.8300 Y62.6625
G01 X-60.8269 Y62.6679
G01 X-60.8201 Y62.6826
G01 X-60.8177 Y62.6923
G01 X-60.8149 Y62.7003
G01 X-60.8136 Y62.7073
G01 X-60.8121 Y62.7227
G01 X-60.8128 Y62.7325
G01 X-60.8128 Y62.7410
G01 X-60.8136 Y62.7471
G01 X-60.8150 Y62.7526
G01 X-60.8162 Y62.7594
G01 X-60.8176 Y62.7641
G01 X-60.8210 Y62.7720
G01 X-60.8237 Y62.7802
G01 X-60.8270 Y62.7867
G01 X-60.8349 Y62.7996
G01 X-60.8415 Y62.8071
G01 X-60.8480 Y62.8154
G01 X-61.1745 Y63.1419
G01 X-61.1745 Y63.2977
G01 X-61.0204 Y63.2977
G01 X-61.0204 Y63.2265
G01 X-61.0200 Y63.2203
G01 X-61.0186 Y63.2131
G01 X-61.0161 Y63.2062
G01 X-61.0126 Y63.1997
G01 X-61.0083 Y63.1938
G01 X-60.6180 Y62.8034
G01 X-60.6103 Y62.7974
G01 X-60.6015 Y62.7930
G01 X-60.5921 Y62.7903
G01 X-60.5835 Y62.7896
G01 X-60.0365 Y62.7896
G01 X-60.0267 Y62.7906
G01 X-60.0219 Y62.7918
G01 X-60.0162 Y62.7939
G01 X-60.0077 Y62.7987
G01 X-60.0011 Y62.8042
G01 X-59.6110 Y63.1947
G01 X-59.6067 Y63.2007
G01 X-59.6034 Y63.2073
G01 X-59.6011 Y63.2143
G01 X-59.5998 Y63.2216
G01 X-59.5996 Y63.2977
G01 X-59.4455 Y63.2977
G01 X-59.4455 Y63.1419
G01 X-59.7857 Y62.8018
G01 X-59.7934 Y62.7934
G01 X-59.8034 Y62.7795
G01 X-59.8082 Y62.7695
G01 X-59.8118 Y62.7634
G01 X-59.8146 Y62.7569
G01 X-59.8191 Y62.7420
G01 X-59.8206 Y62.7309
G01 X-59.8221 Y62.7231
G01 X-59.8225 Y62.7156
G01 X-59.8220 Y62.7004
G01 X-59.8199 Y62.6905
G01 X-59.8184 Y62.6803
G01 X-59.8133 Y62.6653
G01 X-59.8104 Y62.6587
G01 X-59.8063 Y62.6521
G01 X-59.8015 Y62.6428
G01 X-59.7926 Y62.6311
G01 X-59.7876 Y62.6255
G01 X-59.7812 Y62.6202
G01 X-59.7744 Y62.6135
G01 X-59.7705 Y62.6106
G01 X-59.7571 Y62.6021
G01 X-59.7367 Y62.5930
G01 X-59.7220 Y62.5891
G01 X-59.7171 Y62.5882
G01 X-59.7081 Y62.5877
G01 X-59.6978 Y62.5865
G01 X-59.6363 Y62.5865
G01 X-58.6835 Y61.6337
G01 X-58.6835 Y60.2863
G01 X-59.6363 Y59.3335
G01 X-60.9837 Y59.3335
G01 X-61.0141 Y59.3638
G01 X-61.0247 Y59.3730
G01 X-61.0364 Y59.3808
G01 X-61.0474 Y59.3858
G01 X-61.0569 Y59.3907
G01 X-61.0636 Y59.3931
G01 X-61.0750 Y59.3960
G01 X-61.1000 Y59.3989
G01 X-63.3185 Y59.3989
G01 X-63.9070 Y59.6427
G01 X-65.5573 Y61.2930
G01 X-65.8011 Y61.8815
G01 X-65.8011 Y66.2741
G01 X-65.8035 Y66.2972
G01 X-65.8062 Y66.3082
G01 X-65.8168 Y66.3334
G01 X-65.8227 Y66.3435
G01 X-65.8265 Y66.3484
G01 X-65.8343 Y66.3566
G01 X-65.8408 Y66.3642
G01 X-65.8468 Y66.3700
G01 X-65.8554 Y66.3762
G01 X-65.8790 Y66.3893
G01 X-65.8866 Y66.3923
G01 X-65.8927 Y66.3939
G01 X-65.9164 Y66.3983
G01 X-65.9272 Y66.3989
G01 X-75.6384 Y66.3989
G01 X-75.7456 Y66.4433
G01 X-75.7671 Y66.4497
G01 X-75.7729 Y66.4508
G01 X-75.7828 Y66.4520
G01 X-75.7911 Y66.4524
G01 X-75.7992 Y66.4515
G01 X-75.8063 Y66.4516
G01 X-75.8113 Y66.4511
G01 X-75.8293 Y66.4470
G01 X-75.8384 Y66.4431
G01 X-75.8490 Y66.4393
G01 X-75.8645 Y66.4301
G01 X-75.8682 Y66.4272
G01 X-75.8735 Y66.4223
G01 X-75.8818 Y66.4156
G01 X-75.8932 Y66.4025
G01 X-75.9058 Y66.3822
G01 X-75.9124 Y66.3665
G01 X-75.9140 Y66.3607
G01 X-75.9151 Y66.3539
G01 X-75.9177 Y66.3440
G01 X-75.9183 Y66.3393
G01 X-75.9189 Y66.3263
G01 X-75.9189 Y55.1615
G01 X-76.1627 Y54.5730
G01 X-81.0930 Y49.6427
G01 X-81.6815 Y49.3989
G01 X-90.1546 Y49.3989
G01 X-90.1730 Y49.3975
G01 X-90.1819 Y49.3959
G01 X-90.1864 Y49.3947
G01 X-90.1964 Y49.3909
G01 X-90.2056 Y49.3879
G01 X-90.2103 Y49.3860
G01 X-90.2230 Y49.3787
G01 X-90.2434 Y49.3623
G01 X-90.2524 Y49.3531
G01 X-90.2638 Y49.3391
G01 X-90.2681 Y49.3326
G01 X-90.2703 Y49.3283
G01 X-90.2805 Y49.3045
G01 X-90.2827 Y49.2975
G01 X-90.2839 Y49.2903
G01 X-90.2861 Y49.2643
G01 X-90.2857 Y49.2545
G01 X-90.2848 Y49.2496
G01 X-90.2787 Y49.2245
G01 X-90.2732 Y49.2102
G01 X-90.2732 Y48.4697
G01 X-90.5566 Y47.7856
G01 X-91.0802 Y47.2620
G01 X-91.7643 Y46.9786
G01 X-94.2957 Y46.9786
G01 X-94.9798 Y47.2620
G01 X-95.5034 Y47.7856
G01 X-95.7868 Y48.4697
G01 X-95.7868 Y49.2103
G01 X-95.5034 Y49.8944
G01 X-94.9798 Y50.4180
G01 X-94.2957 Y50.7014
G01 X-93.4840 Y50.7014
G01 X-93.4678 Y50.7026
G01 X-93.4543 Y50.7053
G01 X-93.4316 Y50.7134
G01 X-93.4182 Y50.7206
G01 X-93.3998 Y50.7348
G01 X-93.3959 Y50.7383
G01 X-91.7770 Y52.3573
G01 X-91.1885 Y52.6011
G01 X-82.7154 Y52.6011
G01 X-82.6994 Y52.6021
G01 X-82.6847 Y52.6049
G01 X-82.6736 Y52.6091
G01 X-82.6632 Y52.6125
G01 X-82.6512 Y52.6187
G01 X-82.6450 Y52.6228
G01 X-82.6380 Y52.6288
G01 X-82.6297 Y52.6349
G01 X-82.6262 Y52.6380
G01 X-79.1580 Y56.1062
G01 X-79.1478 Y56.1179
G01 X-79.1411 Y56.1272
G01 X-79.1380 Y56.1327
G01 X-79.1342 Y56.1415
G01 X-79.1298 Y56.1499
G01 X-79.1269 Y56.1577
G01 X-79.1240 Y56.1691
G01 X-79.1228 Y56.1804
G01 X-79.1214 Y56.1903
G01 X-79.1211 Y56.1954
G01 X-79.1211 Y69.3267
G01 X-79.1216 Y69.3365
G01 X-79.1237 Y69.3513
G01 X-79.1249 Y69.3562
G01 X-79.1276 Y69.3635
G01 X-79.1303 Y69.3727
G01 X-79.3243 Y69.8411
G01 X-79.3243 Y70.5589
G01 X-79.0496 Y71.2221
G01 X-78.5421 Y71.7296
G01 X-77.8789 Y72.0043
G01 X-77.1611 Y72.0043
G01 X-76.4979 Y71.7296
G01 X-75.9904 Y71.2221
G01 X-75.7964 Y70.7536
G01 X-75.7926 Y70.7455
G01 X-75.7842 Y70.7316
G01 X-75.7718 Y70.7163
G01 X-74.6938 Y69.6380
G01 X-74.6812 Y69.6270
G01 X-74.6695 Y69.6192
G01 X-74.6468 Y69.6084
G01 X-74.6358 Y69.6051
G01 X-74.6309 Y69.6040
G01 X-74.6196 Y69.6028
G01 X-74.6097 Y69.6014
G01 X-74.6046 Y69.6011
G01 X-65.9272 Y69.6011
G01 X-65.9051 Y69.6032
G01 X-65.8993 Y69.6042
G01 X-65.8894 Y69.6070
G01 X-65.8632 Y69.6185
G01 X-65.8525 Y69.6257
G01 X-65.8434 Y69.6343
G01 X-65.8349 Y69.6416
G01 X-65.8315 Y69.6450
G01 X-65.8238 Y69.6554
G01 X-65.8128 Y69.6747
G01 X-65.8102 Y69.6801
G01 X-65.8063 Y69.6915
G01 X-65.8019 Y69.7152
G01 X-65.8013 Y69.7200
G01 X-65.8011 Y70.8974
G01 X-65.8017 Y70.9092
G01 X-65.8046 Y70.9259
G01 X-65.8080 Y70.9353
G01 X-65.8113 Y70.9458
G01 X-65.8188 Y70.9606
G01 X-65.8214 Y70.9647
G01 X-65.8267 Y70.9711
G01 X-65.8323 Y70.9792
G01 X-65.8463 Y70.9930
G01 X-65.8649 Y71.0058
G01 X-65.8779 Y71.0123
G01 X-65.8838 Y71.0146
G01 X-65.8923 Y71.0166
G01 X-65.8980 Y71.0187
G01 X-65.9038 Y71.0201
G01 X-65.9189 Y71.0220
G01 X-65.9252 Y71.0222
G01 X-65.9325 Y71.0215
G01 X-65.9435 Y71.0212
G01 X-65.9582 Y71.0184
G01 X-65.9641 Y71.0167
G01 X-65.9720 Y71.0133
G01 X-65.9791 Y71.0110
G01 X-65.9857 Y71.0079
G01 X-65.9979 Y71.0007
G01 X-66.0144 Y70.9872
G01 X-66.1107 Y70.8911
G01 X-66.2337 Y70.8018
G01 X-66.3692 Y70.7327
G01 X-66.5138 Y70.6857
G01 X-66.5377 Y70.6819
G01 X-66.5377 Y70.8421
G01 X-66.5030 Y70.8510
G01 X-66.4303 Y70.8770
G01 X-66.3560 Y70.9121
G01 X-66.2887 Y70.9525
G01 X-66.2266 Y70.9985
G01 X-66.1647 Y71.0544
G01 X-66.1120 Y71.1126
G01 X-66.0659 Y71.1747
G01 X-66.0235 Y71.2450
G01 X-65.9886 Y71.3194
G01 X-65.9626 Y71.3922
G01 X-65.9435 Y71.4683
G01 X-65.9315 Y71.5484
G01 X-65.9276 Y71.6280
G01 X-65.9276 Y73.1520
G01 X-65.9318 Y73.2341
G01 X-65.9432 Y73.3105
G01 X-65.9619 Y73.3855
G01 X-65.9886 Y73.4606
G01 X-66.0235 Y73.5350
G01 X-66.0652 Y73.6043
G01 X-66.1120 Y73.6674
G01 X-66.1656 Y73.7264
G01 X-66.2246 Y73.7800
G01 X-66.2877 Y73.8268
G01 X-66.3570 Y73.8685
G01 X-66.4280 Y73.9021
G01 X-66.5030 Y73.9290
G01 X-66.5377 Y73.9379
G01 X-66.5377 Y74.0981
G01 X-66.5138 Y74.0943
G01 X-66.3692 Y74.0473
G01 X-66.2337 Y73.9782
G01 X-66.1107 Y73.8889
G01 X-65.9980 Y73.7764
G01 X-65.9880 Y73.7677
G01 X-65.9803 Y73.7622
G01 X-65.9666 Y73.7543
G01 X-65.9612 Y73.7519
G01 X-65.9420 Y73.7451
G01 X-65.9282 Y73.7424
G01 X-65.9211 Y73.7417
G01 X-65.9011 Y73.7415
G01 X-65.8870 Y73.7435
G01 X-65.8811 Y73.7448
G01 X-65.8731 Y73.7477
G01 X-65.8623 Y73.7508
G01 X-65.8578 Y73.7528
G01 X-65.8458 Y73.7592
G01 X-65.8370 Y73.7659
G01 X-65.8298 Y73.7706
G01 X-65.8261 Y73.7737
G01 X-65.8142 Y73.7862
G01 X-65.8081 Y73.7951
G01 X-65.8027 Y73.8021
G01 X-65.7997 Y73.8072
G01 X-65.7942 Y73.8191
G01 X-65.6650 Y74.1309
G01 X-65.1789 Y74.6170
G01 X-64.5438 Y74.8801
G01 X-63.8562 Y74.8801
G01 X-63.2211 Y74.6170
G01 X-62.7350 Y74.1309
G01 X-62.7090 Y74.0680
G01 X-62.6993 Y74.0498
G01 X-62.6961 Y74.0448
G01 X-62.6923 Y74.0400
G01 X-62.6741 Y74.0212
G01 X-62.6686 Y74.0164
G01 X-62.6626 Y74.0124
G01 X-62.6395 Y74.0003
G01 X-62.6350 Y73.9983
G01 X-62.6244 Y73.9954
G01 X-62.5998 Y73.9916
G01 X-62.5928 Y73.9911
G01 X-51.2945 Y73.9912
G01 X-51.2754 Y73.9931
G01 X-51.2674 Y73.9947
G01 X-51.2629 Y73.9961
G01 X-51.2383 Y74.0059
G01 X-51.2321 Y74.0092
G01 X-51.2271 Y74.0126
G01 X-51.2043 Y74.0320
G01 X-51.1975 Y74.0402
G01 X-51.1820 Y74.0658
G01 X-51.1550 Y74.1309
G01 X-50.6689 Y74.6170
G01 X-50.0338 Y74.8801
G01 X-49.3462 Y74.8801
G01 X-48.7111 Y74.6170
G01 X-48.2250 Y74.1309
G01 X-48.0934 Y73.8136
G01 X-48.0824 Y73.7946
G01 X-48.0741 Y73.7840
G01 X-48.0697 Y73.7795
G01 X-48.0632 Y73.7742
G01 X-48.0554 Y73.7667
G01 X-48.0439 Y73.7590
G01 X-48.0373 Y73.7554
G01 X-48.0292 Y73.7524
G01 X-48.0206 Y73.7482
G01 X-48.0148 Y73.7464
G01 X-48.0012 Y73.7431
G01 X-47.9900 Y73.7424
G01 X-47.9815 Y73.7413
G01 X-47.9742 Y73.7414
G01 X-47.9606 Y73.7426
G01 X-47.9418 Y73.7470
G01 X-47.9349 Y73.7492
G01 X-47.9221 Y73.7549
G01 X-47.9131 Y73.7601
G01 X-47.9035 Y73.7665
G01 X-47.8911 Y73.7772
G01 X-47.7793 Y73.8889
G01 X-47.6563 Y73.9782
G01 X-47.5208 Y74.0473
G01 X-47.3762 Y74.0943
G01 X-47.3523 Y74.0981
G01 X-47.3523 Y73.9379
G01 X-47.3870 Y73.9290
G01 X-47.4620 Y73.9021
G01 X-47.5330 Y73.8685
G01 X-47.6023 Y73.8268
G01 X-47.6654 Y73.7800
G01 X-47.7244 Y73.7264
G01 X-47.7780 Y73.6674
G01 X-47.8261 Y73.6023
G01 X-47.8665 Y73.5350
G01 X-47.8995 Y73.4651
G01 X-47.9274 Y73.3878
G01 X-47.9468 Y73.3105
G01 X-47.9582 Y73.2341
G01 X-47.9624 Y73.1520
G01 X-47.9624 Y71.6280
G01 X-47.9585 Y71.5484
G01 X-47.9462 Y71.4671
G01 X-47.9274 Y71.3922
G01 X-47.9014 Y71.3194
G01 X-47.8665 Y71.2450
G01 X-47.8241 Y71.1747
G01 X-47.7780 Y71.1126
G01 X-47.7253 Y71.0544
G01 X-47.6634 Y70.9985
G01 X-47.6013 Y70.9525
G01 X-47.5340 Y70.9121
G01 X-47.4597 Y70.8770
G01 X-47.3870 Y70.8510
G01 X-47.3523 Y70.8421
G01 X-47.3523 Y70.6819
G01 X-47.3762 Y70.6857
G01 X-47.5208 Y70.7327
G01 X-47.6563 Y70.8018
G01 X-47.7793 Y70.8911
G01 X-47.8737 Y70.9854
G01 X-47.8802 Y70.9915
G01 X-47.8959 Y71.0031
G01 X-47.9163 Y71.0135
G01 X-47.9346 Y71.0191
G01 X-47.9445 Y71.0203
G01 X-47.9523 Y71.0218
G01 X-47.9572 Y71.0222
G01 X-47.9706 Y71.0221
G01 X-47.9756 Y71.0217
G01 X-47.9853 Y71.0196
G01 X-47.9938 Y71.0184
G01 X-47.9999 Y71.0167
G01 X-48.0135 Y71.0117
G01 X-48.0231 Y71.0062
G01 X-48.0299 Y71.0029
G01 X-48.0352 Y70.9995
G01 X-48.0453 Y70.9915
G01 X-48.0499 Y70.9873
G01 X-48.0552 Y70.9809
G01 X-48.0619 Y70.9741
G01 X-48.0721 Y70.9590
G01 X-48.0750 Y70.9533
G01 X-48.0772 Y70.9475
G01 X-48.0806 Y70.9410
G01 X-48.0834 Y70.9329
G01 X-48.0870 Y70.9180
G01 X-48.0889 Y70.8962
G01 X-48.0889 Y69.4054
G01 X-48.0879 Y69.3894
G01 X-48.0859 Y69.3781
G01 X-48.0843 Y69.3724
G01 X-48.0809 Y69.3636
G01 X-48.0775 Y69.3532
G01 X-48.0754 Y69.3486
G01 X-48.0694 Y69.3380
G01 X-48.0528 Y69.3171
G01 X-47.3728 Y68.6371
G01 X-47.3612 Y68.6270
G01 X-47.3506 Y68.6198
G01 X-47.3290 Y68.6093
G01 X-47.3223 Y68.6069
G01 X-47.3109 Y68.6040
G01 X-47.2996 Y68.6028
G01 X-47.2897 Y68.6014
G01 X-47.2846 Y68.6011
G01 X-27.2320 Y68.6012
G01 X-27.2194 Y68.6021
G01 X-27.2070 Y68.6043
G01 X-27.1820 Y68.6130
G01 X-27.1722 Y68.6181
G01 X-27.1670 Y68.6213
G01 X-27.1580 Y68.6288
G01 X-27.1506 Y68.6342
G01 X-27.1462 Y68.6380
G01 X-24.0653 Y71.7193
G01 X-24.0529 Y71.7359
G01 X-24.0432 Y71.7547
G01 X-23.8485 Y72.2246
G01 X-23.8461 Y72.2314
G01 X-23.8410 Y72.2505
G01 X-23.8392 Y72.2666
G01 X-23.8401 Y72.2900
G01 X-23.8434 Y72.3059
G01 X-23.8448 Y72.3105
G01 X-23.8484 Y72.3187
G01 X-23.8519 Y72.3284
G01 X-23.8594 Y72.3416
G01 X-23.8637 Y72.3476
G01 X-23.8691 Y72.3534
G01 X-23.8748 Y72.3608
G01 X-23.8791 Y72.3650
G01 X-23.8899 Y72.3740
G01 X-23.8997 Y72.3798
G01 X-23.9060 Y72.3841
G01 X-23.9115 Y72.3870
G01 X-23.9223 Y72.3915
G01 X-23.9282 Y72.3934
G01 X-23.9376 Y72.3951
G01 X-23.9468 Y72.3976
G01 X-23.9519 Y72.3982
G01 X-23.9651 Y72.3989
G01 X-42.2846 Y72.3989
G01 X-42.3009 Y72.3978
G01 X-42.3112 Y72.3961
G01 X-42.3162 Y72.3948
G01 X-42.3399 Y72.3861
G01 X-42.3491 Y72.3812
G01 X-42.3532 Y72.3786
G01 X-42.3729 Y72.3628
G01 X-42.8450 Y71.8908
G01 X-42.8560 Y71.8782
G01 X-42.8632 Y71.8676
G01 X-42.8688 Y71.8555
G01 X-42.8733 Y71.8470
G01 X-42.8760 Y71.8399
G01 X-42.8791 Y71.8277
G01 X-42.8819 Y71.8029
G01 X-42.8819 Y71.2842
G01 X-43.1450 Y70.6491
G01 X-43.6311 Y70.1630
G01 X-44.2662 Y69.8999
G01 X-44.9538 Y69.8999
G01 X-45.5889 Y70.1630
G01 X-46.0750 Y70.6491
G01 X-46.2066 Y70.9664
G01 X-46.2174 Y70.9851
G01 X-46.2259 Y70.9960
G01 X-46.2303 Y71.0005
G01 X-46.2368 Y71.0058
G01 X-46.2446 Y71.0133
G01 X-46.2561 Y71.0210
G01 X-46.2627 Y71.0246
G01 X-46.2708 Y71.0276
G01 X-46.2794 Y71.0318
G01 X-46.2852 Y71.0336
G01 X-46.2988 Y71.0369
G01 X-46.3100 Y71.0376
G01 X-46.3185 Y71.0387
G01 X-46.3258 Y71.0386
G01 X-46.3397 Y71.0373
G01 X-46.3501 Y71.0345
G01 X-46.3593 Y71.0327
G01 X-46.3651 Y71.0308
G01 X-46.3782 Y71.0249
G01 X-46.3875 Y71.0188
G01 X-46.3971 Y71.0130
G01 X-46.4089 Y71.0028
G01 X-46.5207 Y70.8911
G01 X-46.6437 Y70.8018
G01 X-46.7792 Y70.7327
G01 X-46.9238 Y70.6857
G01 X-46.9477 Y70.6819
G01 X-46.9477 Y70.8421
G01 X-46.9130 Y70.8510
G01 X-46.8380 Y70.8779
G01 X-46.7670 Y70.9115
G01 X-46.6977 Y70.9532
G01 X-46.6346 Y71.0000
G01 X-46.5756 Y71.0536
G01 X-46.5220 Y71.1126
G01 X-46.4739 Y71.1777
G01 X-46.4335 Y71.2450
G01 X-46.4005 Y71.3149
G01 X-46.3726 Y71.3922
G01 X-46.3532 Y71.4695
G01 X-46.3418 Y71.5459
G01 X-46.3376 Y71.6280
G01 X-46.3376 Y73.1520
G01 X-46.3415 Y73.2316
G01 X-46.3538 Y73.3129
G01 X-46.3726 Y73.3878
G01 X-46.3986 Y73.4606
G01 X-46.4335 Y73.5350
G01 X-46.4759 Y73.6053
G01 X-46.5220 Y73.6674
G01 X-46.5747 Y73.7256
G01 X-46.6366 Y73.7815
G01 X-46.6987 Y73.8275
G01 X-46.7660 Y73.8679
G01 X-46.8403 Y73.9030
G01 X-46.9130 Y73.9290
G01 X-46.9477 Y73.9379
G01 X-46.9477 Y74.0981
G01 X-46.9238 Y74.0943
G01 X-46.7792 Y74.0473
G01 X-46.6437 Y73.9782
G01 X-46.5207 Y73.8889
G01 X-46.4080 Y73.7764
G01 X-46.3980 Y73.7677
G01 X-46.3903 Y73.7622
G01 X-46.3766 Y73.7543
G01 X-46.3712 Y73.7519
G01 X-46.3520 Y73.7451
G01 X-46.3382 Y73.7424
G01 X-46.3311 Y73.7417
G01 X-46.3111 Y73.7415
G01 X-46.2970 Y73.7435
G01 X-46.2911 Y73.7448
G01 X-46.2831 Y73.7477
G01 X-46.2759 Y73.7496
G01 X-46.2712 Y73.7513
G01 X-46.2558 Y73.7592
G01 X-46.2470 Y73.7659
G01 X-46.2398 Y73.7706
G01 X-46.2361 Y73.7737
G01 X-46.2242 Y73.7862
G01 X-46.2181 Y73.7951
G01 X-46.2127 Y73.8021
G01 X-46.2097 Y73.8072
G01 X-46.2042 Y73.8191
G01 X-46.0750 Y74.1309
G01 X-45.5889 Y74.6170
G01 X-44.9538 Y74.8801
G01 X-44.4353 Y74.8801
G01 X-44.4201 Y74.8812
G01 X-44.4085 Y74.8832
G01 X-44.4036 Y74.8846
G01 X-44.3946 Y74.8881
G01 X-44.3833 Y74.8919
G01 X-44.3729 Y74.8972
G01 X-44.3678 Y74.9004
G01 X-44.3590 Y74.9078
G01 X-44.3516 Y74.9132
G01 X-44.3472 Y74.9170
G01 X-43.9070 Y75.3573
G01 X-43.3185 Y75.6011
G01 X-30.9458 Y75.6011
G01 X-30.9306 Y75.6022
G01 X-30.9171 Y75.6046
G01 X-30.9050 Y75.6092
G01 X-30.8949 Y75.6124
G01 X-30.8834 Y75.6182
G01 X-30.8774 Y75.6221
G01 X-30.8695 Y75.6288
G01 X-30.8594 Y75.6364
G01 X-30.8305 Y75.6653
G01 X-30.1814 Y75.9342
G01 X-29.4786 Y75.9342
G01 X-28.8295 Y75.6653
G01 X-28.8003 Y75.6362
G01 X-28.7897 Y75.6270
G01 X-28.7780 Y75.6192
G01 X-28.7671 Y75.6142
G01 X-28.7578 Y75.6094
G01 X-28.7510 Y75.6069
G01 X-28.7392 Y75.6039
G01 X-28.7144 Y75.6011
G01 X-12.6815 Y75.6011
G01 X-12.0930 Y75.3573
G01 X-10.6427 Y73.9070
G01 X-10.3989 Y73.3185
G01 X-10.3989 Y71.6872
G01 X-10.3984 Y71.6772
G01 X-10.3963 Y71.6624
G01 X-10.3951 Y71.6575
G01 X-10.3924 Y71.6502
G01 X-10.3905 Y71.6432
G01 X-10.3557 Y71.5589
G01 X-10.3557 Y70.8411
G01 X-10.3887 Y70.7614
G01 X-10.3944 Y70.7429
G01 X-10.3958 Y70.7370
G01 X-10.3966 Y70.7303
G01 X-10.3971 Y70.7029
G01 X-10.3965 Y70.6955
G01 X-10.3952 Y70.6895
G01 X-10.3873 Y70.6647
G01 X-10.3850 Y70.6588
G01 X-10.3803 Y70.6507
G01 X-10.3652 Y70.6301
G01 X-10.3609 Y70.6251
G01 X-8.3738 Y68.6380
G01 X-8.3621 Y68.6278
G01 X-8.3528 Y68.6211
G01 X-8.3473 Y68.6180
G01 X-8.3385 Y68.6142
G01 X-8.3290 Y68.6093
G01 X-8.3235 Y68.6072
G01 X-8.3121 Y68.6042
G01 X-8.2897 Y68.6014
G01 X-8.2846 Y68.6011
G01 X-5.6815 Y68.6011
G01 X-5.0930 Y68.3573
G01 X-2.6427 Y65.9070
G01 X-2.3989 Y65.3185
G01 X-2.3989 Y39.6815
G01 X-2.6427 Y39.0930
G01 X-5.1830 Y36.5527
G01 X-5.7715 Y36.3089
G01 X-23.7865 Y36.3089
G01 X-23.8014 Y36.3080
G01 X-23.8127 Y36.3062
G01 X-23.8173 Y36.3051
G01 X-23.8411 Y36.2965
G01 X-23.8545 Y36.2889
G01 X-23.8639 Y36.2813
G01 X-23.8732 Y36.2743
G01 X-24.1333 Y36.0144
G01 X-24.9552 Y35.6739
G01 X-25.3218 Y35.6738
G01 X-25.3359 Y35.6728
G01 X-25.3499 Y35.6702
G01 X-25.3730 Y35.6620
G01 X-25.3870 Y35.6544
G01 X-25.3970 Y35.6462
G01 X-25.4044 Y35.6408
G01 X-25.4088 Y35.6370
G01 X-27.0330 Y34.0127
G01 X-27.6215 Y33.7689
G01 X-34.1028 Y33.7689
G01 X-34.1260 Y33.7667
G01 X-34.1358 Y33.7645
G01 X-34.1429 Y33.7621
G01 X-34.1657 Y33.7521
G01 X-34.1765 Y33.7451
G01 X-34.1951 Y33.7284
G01 X-34.2000 Y33.7232
G01 X-34.2068 Y33.7136
G01 X-34.2183 Y33.6932
G01 X-34.2227 Y33.6822
G01 X-34.2239 Y33.6773
G01 X-34.2258 Y33.6661
G01 X-34.2281 Y33.6548
G01 X-34.2289 Y33.6428
G01 X-34.2289 Y25.1615
G01 X-34.4727 Y24.5730
G01 X-39.0706 Y19.9751
G01 X-39.0773 Y19.9676
G01 X-39.0863 Y19.9556
G01 X-39.0890 Y19.9512
G01 X-39.0921 Y19.9444
G01 X-39.0967 Y19.9360
G01 X-39.2553 Y19.5532
G01 X-39.2613 Y19.5328
G01 X-39.2625 Y19.5266
G01 X-39.2639 Y19.5113
G01 X-39.2630 Y19.5008
G01 X-39.2630 Y19.4925
G01 X-39.2622 Y19.4862
G01 X-39.2592 Y19.4727
G01 X-39.2502 Y19.4499
G01 X-39.2409 Y19.4346
G01 X-39.2338 Y19.4266
G01 X-39.2285 Y19.4196
G01 X-39.2240 Y19.4151
G01 X-39.2148 Y19.4073
G01 X-39.2097 Y19.4038
G01 X-39.2031 Y19.4001
G01 X-39.1937 Y19.3942
G01 X-39.1803 Y19.3884
G01 X-39.1746 Y19.3866
G01 X-39.1655 Y19.3849
G01 X-39.1562 Y19.3824
G01 X-39.1511 Y19.3818
G01 X-39.1392 Y19.3811
G01 X-34.9354 Y19.3811
G01 X-34.9194 Y19.3821
G01 X-34.9093 Y19.3838
G01 X-34.9036 Y19.3853
G01 X-34.8936 Y19.3891
G01 X-34.8844 Y19.3921
G01 X-34.8774 Y19.3952
G01 X-34.8701 Y19.3993
G01 X-34.8660 Y19.4020
G01 X-34.8580 Y19.4088
G01 X-34.8497 Y19.4149
G01 X-34.8462 Y19.4180
G01 X-33.6380 Y20.6262
G01 X-33.6278 Y20.6379
G01 X-33.6204 Y20.6483
G01 X-33.6180 Y20.6527
G01 X-33.6142 Y20.6615
G01 X-33.6088 Y20.6721
G01 X-33.6069 Y20.6777
G01 X-33.6040 Y20.6891
G01 X-33.6028 Y20.7004
G01 X-33.6014 Y20.7103
G01 X-33.6011 Y20.7154
G01 X-33.6011 Y25.3185
G01 X-33.3573 Y25.9070
G01 X-30.4270 Y28.8373
G01 X-29.8385 Y29.0811
G01 X-24.8122 Y29.0812
G01 X-24.8035 Y29.0816
G01 X-24.7875 Y29.0840
G01 X-24.7673 Y29.0903
G01 X-24.2989 Y29.2843
G01 X-23.5811 Y29.2843
G01 X-23.1126 Y29.0903
G01 X-23.1035 Y29.0870
G01 X-23.0888 Y29.0833
G01 X-23.0829 Y29.0824
G01 X-23.0762 Y29.0822
G01 X-23.0668 Y29.0811
G01 X-18.6113 Y29.0811
G01 X-18.5941 Y29.0823
G01 X-18.5840 Y29.0841
G01 X-18.5783 Y29.0857
G01 X-18.5556 Y29.0940
G01 X-18.5444 Y29.1003
G01 X-18.5366 Y29.1065
G01 X-17.1846 Y29.1065
G01 X-17.1769 Y29.1011
G01 X-17.1725 Y29.0986
G01 X-17.1626 Y29.0942
G01 X-17.1542 Y29.0898
G01 X-17.1487 Y29.0876
G01 X-17.1350 Y29.0840
G01 X-17.1237 Y29.0828
G01 X-17.1138 Y29.0814
G01 X-17.1087 Y29.0811
G01 X-10.1615 Y29.0811
G01 X-9.5730 Y28.8373
G01 X-7.6427 Y26.9070
G01 X-7.3989 Y26.3185
G01 X-7.3989 Y25.6958
G01 X-7.3978 Y25.6806
G01 X-7.3959 Y25.6694
G01 X-7.3943 Y25.6637
G01 X-7.3908 Y25.6550
G01 X-7.3871 Y25.6438
G01 X-7.3850 Y25.6394
G01 X-7.3793 Y25.6293
G01 X-7.3628 Y25.6086
G01 X-6.9327 Y25.1785
G01 X-6.6638 Y24.5294
G01 X-6.6638 Y23.8266
G01 X-6.9327 Y23.1775
G01 X-7.4295 Y22.6807
G01 X-8.0786 Y22.4118
G01 X-8.7814 Y22.4118
G01 X-9.4305 Y22.6807
G01 X-9.9273 Y23.1775
G01 X-10.0828 Y23.5529
G01 X-10.0870 Y23.5621
G01 X-10.0952 Y23.5757
G01 X-10.0989 Y23.5807
G01 X-10.1033 Y23.5854
G01 X-10.1070 Y23.5904
G01 X-10.1101 Y23.5939
G01 X-10.3573 Y23.8410
G01 X-10.6011 Y24.4295
G01 X-10.6011 Y25.2857
G01 X-10.6021 Y25.3006
G01 X-10.6041 Y25.3119
G01 X-10.6057 Y25.3176
G01 X-10.6091 Y25.3264
G01 X-10.6125 Y25.3368
G01 X-10.6152 Y25.3426
G01 X-10.6213 Y25.3530
G01 X-10.6288 Y25.3620
G01 X-10.6342 Y25.3694
G01 X-10.6380 Y25.3738
G01 X-11.1072 Y25.8429
G01 X-11.1188 Y25.8530
G01 X-11.1272 Y25.8589
G01 X-11.1316 Y25.8614
G01 X-11.1415 Y25.8658
G01 X-11.1532 Y25.8716
G01 X-11.1642 Y25.8749
G01 X-11.1704 Y25.8762
G01 X-11.1804 Y25.8772
G01 X-11.1903 Y25.8786
G01 X-11.1954 Y25.8789
G01 X-17.1087 Y25.8789
G01 X-17.1259 Y25.8777
G01 X-17.1360 Y25.8759
G01 X-17.1417 Y25.8743
G01 X-17.1644 Y25.8660
G01 X-17.1756 Y25.8597
G01 X-17.1834 Y25.8535
G01 X-18.5354 Y25.8535
G01 X-18.5431 Y25.8589
G01 X-18.5475 Y25.8614
G01 X-18.5574 Y25.8658
G01 X-18.5658 Y25.8702
G01 X-18.5713 Y25.8724
G01 X-18.5850 Y25.8760
G01 X-18.5963 Y25.8772
G01 X-18.6062 Y25.8786
G01 X-18.6113 Y25.8789
G01 X-23.0667 Y25.8789
G01 X-23.0765 Y25.8784
G01 X-23.0913 Y25.8763
G01 X-23.0962 Y25.8751
G01 X-23.1035 Y25.8724
G01 X-23.1127 Y25.8697
G01 X-23.5811 Y25.6757
G01 X-24.2989 Y25.6757
G01 X-24.7674 Y25.8697
G01 X-24.7765 Y25.8730
G01 X-24.7912 Y25.8767
G01 X-24.7971 Y25.8776
G01 X-24.8038 Y25.8778
G01 X-24.8132 Y25.8789
G01 X-28.8046 Y25.8789
G01 X-28.8206 Y25.8779
G01 X-28.8319 Y25.8759
G01 X-28.8376 Y25.8743
G01 X-28.8464 Y25.8709
G01 X-28.8568 Y25.8675
G01 X-28.8678 Y25.8619
G01 X-28.8750 Y25.8572
G01 X-28.8820 Y25.8512
G01 X-28.8903 Y25.8451
G01 X-28.8938 Y25.8420
G01 X-30.3620 Y24.3738
G01 X-30.3730 Y24.3612
G01 X-30.3808 Y24.3495
G01 X-30.3858 Y24.3385
G01 X-30.3912 Y24.3279
G01 X-30.3949 Y24.3158
G01 X-30.3962 Y24.3096
G01 X-30.3972 Y24.2996
G01 X-30.3986 Y24.2897
G01 X-30.3989 Y24.2846
G01 X-30.3989 Y19.6815
G01 X-30.6427 Y19.0930
G01 X-32.6803 Y17.0554
G01 X-32.6878 Y17.0470
G01 X-32.6964 Y17.0352
G01 X-32.6995 Y17.0297
G01 X-32.7019 Y17.0241
G01 X-32.7055 Y17.0180
G01 X-32.7083 Y17.0115
G01 X-32.7128 Y16.9966
G01 X-32.7143 Y16.9855
G01 X-32.7158 Y16.9777
G01 X-32.7162 Y16.9715
G01 X-32.7157 Y16.9550
G01 X-32.7118 Y16.9337
G01 X-32.7055 Y16.9163
G01 X-32.6941 Y16.8958
G01 X-32.6853 Y16.8845
G01 X-32.6804 Y16.8792
G01 X-32.6749 Y16.8748
G01 X-32.6672 Y16.8674
G01 X-32.6552 Y16.8593
G01 X-32.6497 Y16.8561
G01 X-32.6415 Y16.8528
G01 X-32.6338 Y16.8489
G01 X-32.6281 Y16.8469
G01 X-32.6132 Y16.8432
G01 X-32.5915 Y16.8411
G01 X-25.8704 Y16.8411
G01 X-25.8483 Y16.8432
G01 X-25.8413 Y16.8445
G01 X-25.8350 Y16.8462
G01 X-25.8303 Y16.8479
G01 X-25.8098 Y16.8568
G01 X-25.8042 Y16.8598
G01 X-25.7987 Y16.8634
G01 X-25.7948 Y16.8665
G01 X-25.7866 Y16.8743
G01 X-25.7781 Y16.8816
G01 X-25.7739 Y16.8859
G01 X-25.7670 Y16.8954
G01 X-25.7560 Y16.9147
G01 X-25.7534 Y16.9201
G01 X-25.7495 Y16.9315
G01 X-25.7447 Y16.9576
G01 X-25.7443 Y16.9672
G01 X-25.7443 Y17.6789
G01 X-25.4696 Y18.3421
G01 X-24.9621 Y18.8496
G01 X-24.2989 Y19.1243
G01 X-23.5811 Y19.1243
G01 X-23.1126 Y18.9303
G01 X-23.1035 Y18.9270
G01 X-23.0888 Y18.9233
G01 X-23.0829 Y18.9224
G01 X-23.0761 Y18.9222
G01 X-23.0667 Y18.9211
G01 X-18.6113 Y18.9211
G01 X-18.5941 Y18.9223
G01 X-18.5840 Y18.9241
G01 X-18.5783 Y18.9257
G01 X-18.5556 Y18.9340
G01 X-18.5444 Y18.9403
G01 X-18.5366 Y18.9465
G01 X-17.1863 Y18.9465
G01 X-16.2335 Y17.9937
G01 X-16.2335 Y16.6446
G01 X-16.2389 Y16.6369
G01 X-16.2414 Y16.6325
G01 X-16.2458 Y16.6226
G01 X-16.2502 Y16.6142
G01 X-16.2524 Y16.6087
G01 X-16.2560 Y16.5950
G01 X-16.2572 Y16.5837
G01 X-16.2586 Y16.5738
G01 X-16.2589 Y16.5687
G01 X-16.2589 Y15.5743
G01 X-16.2579 Y15.5594
G01 X-16.2557 Y15.5470
G01 X-16.2479 Y15.5244
G01 X-16.2454 Y15.5186
G01 X-16.2387 Y15.5070
G01 X-16.2312 Y15.4980
G01 X-16.2258 Y15.4906
G01 X-16.2220 Y15.4862
G01 X-14.3738 Y13.6380
G01 X-14.3608 Y13.6268
G01 X-14.3528 Y13.6211
G01 X-14.3473 Y13.6180
G01 X-14.3385 Y13.6142
G01 X-14.3279 Y13.6088
G01 X-14.3158 Y13.6051
G01 X-14.3096 Y13.6038
G01 X-14.2996 Y13.6028
G01 X-14.2897 Y13.6014
G01 X-14.2846 Y13.6011
G01 X-9.0481 Y13.6011
G01 X-9.0364 Y13.6016
G01 X-9.0197 Y13.6043
G01 X-9.0148 Y13.6057
G01 X-9.0090 Y13.6080
G01 X-9.0017 Y13.6100
G01 X-8.9960 Y13.6124
G01 X-8.9817 Y13.6199
G01 X-8.9732 Y13.6267
G01 X-8.9661 Y13.6315
G01 X-8.9614 Y13.6357
G01 X-8.9508 Y13.6470
G01 X-8.9450 Y13.6559
G01 X-8.9400 Y13.6625
G01 X-8.9375 Y13.6668
G01 X-8.9348 Y13.6729
G01 X-8.9320 Y13.6779
G01 X-8.9297 Y13.6838
G01 X-8.9277 Y13.6923
G01 X-8.9244 Y13.7026
G01 X-8.9224 Y13.7177
G01 X-8.9221 Y13.7252
G01 X-8.9228 Y13.7325
G01 X-8.9231 Y13.7435
G01 X-8.9259 Y13.7582
G01 X-8.9280 Y13.7653
G01 X-8.9310 Y13.7720
G01 X-8.9347 Y13.7825
G01 X-8.9422 Y13.7955
G01 X-8.9464 Y13.8015
G01 X-8.9515 Y13.8071
G01 X-8.9580 Y13.8154
G01 X-9.2945 Y14.1519
G01 X-9.2945 Y14.3077
G01 X-9.1404 Y14.3077
G01 X-9.1404 Y14.2365
G01 X-9.1400 Y14.2303
G01 X-9.1386 Y14.2231
G01 X-9.1361 Y14.2162
G01 X-9.1326 Y14.2097
G01 X-9.1283 Y14.2038
G01 X-8.7380 Y13.8134
G01 X-8.7303 Y13.8074
G01 X-8.7215 Y13.8030
G01 X-8.7121 Y13.8003
G01 X-8.7035 Y13.7996
G01 X-8.1565 Y13.7996
G01 X-8.1503 Y13.8000
G01 X-8.1455 Y13.8008
G01 X-8.1362 Y13.8039
G01 X-8.1277 Y13.8087
G01 X-8.1211 Y13.8142
G01 X-7.7310 Y14.2047
G01 X-7.7267 Y14.2107
G01 X-7.7234 Y14.2173
G01 X-7.7211 Y14.2243
G01 X-7.7198 Y14.2316
G01 X-7.7196 Y14.3077
G01 X-7.5655 Y14.3077
G01 X-7.5655 Y14.1519
G01 X-7.9057 Y13.8118
G01 X-7.9134 Y13.8034
G01 X-7.9234 Y13.7895
G01 X-7.9282 Y13.7795
G01 X-7.9318 Y13.7734
G01 X-7.9346 Y13.7669
G01 X-7.9391 Y13.7520
G01 X-7.9406 Y13.7409
G01 X-7.9421 Y13.7331
G01 X-7.9425 Y13.7256
G01 X-7.9420 Y13.7104
G01 X-7.9399 Y13.7005
G01 X-7.9384 Y13.6903
G01 X-7.9333 Y13.6753
G01 X-7.9304 Y13.6687
G01 X-7.9263 Y13.6621
G01 X-7.9215 Y13.6528
G01 X-7.9126 Y13.6411
G01 X-7.9076 Y13.6355
G01 X-7.9012 Y13.6302
G01 X-7.8944 Y13.6235
G01 X-7.8905 Y13.6206
G01 X-7.8771 Y13.6121
G01 X-7.8567 Y13.6030
G01 X-7.8420 Y13.5991
G01 X-7.8371 Y13.5982
G01 X-7.8281 Y13.5977
G01 X-7.8178 Y13.5965
G01 X-7.7563 Y13.5965
G01 X-6.8035 Y12.6437
G01 X-6.8035 Y11.2963
G01 X-7.7563 Y10.3435
G01 X-9.1037 Y10.3435
G01 X-9.1231 Y10.3629
G01 X-9.1328 Y10.3714
G01 X-9.1421 Y10.3782
G01 X-9.1475 Y10.3814
G01 X-9.1574 Y10.3858
G01 X-9.1680 Y10.3912
G01 X-9.1801 Y10.3949
G01 X-9.1863 Y10.3962
G01 X-9.1963 Y10.3972
G01 X-9.2062 Y10.3986
G01 X-9.2113 Y10.3989
G01 X-15.3185 Y10.3989
G01 X-15.9070 Y10.6427
G01 X-19.2173 Y13.9530
G01 X-19.4611 Y14.5415
G01 X-19.4611 Y15.5928
G01 X-19.4614 Y15.5982
G01 X-19.4635 Y15.6172
G01 X-19.4658 Y15.6270
G01 X-19.4679 Y15.6329
G01 X-19.4768 Y15.6534
G01 X-19.4798 Y15.6590
G01 X-19.4849 Y15.6665
G01 X-19.5024 Y15.6860
G01 X-19.5068 Y15.6900
G01 X-19.5144 Y15.6956
G01 X-19.5347 Y15.7072
G01 X-19.5401 Y15.7098
G01 X-19.5515 Y15.7137
G01 X-19.5752 Y15.7181
G01 X-19.5800 Y15.7187
G01 X-22.2640 Y15.7189
G01 X-22.2857 Y15.7169
G01 X-22.2927 Y15.7156
G01 X-22.2983 Y15.7139
G01 X-22.3217 Y15.7046
G01 X-22.3281 Y15.7014
