(G-CODE GENERATED BY FLATCAM v8.994 - www.flatcam.org - Version Date: 2020/11/7)

(Name: copper_bottom.gbr_iso_combined_cnc)
(Type: G-code from Geometry)
(Units: MM)

(Created on Sunday, 24 October 2021 at 12:48)

(This preprocessor is the default preprocessor used by FlatCAM.)
(It is made to work with MACH3 compatible motion controllers.)

(TOOL DIAMETER: 0.1 mm)
(Feedrate_XY: 120.0 mm/min)
(Feedrate_Z: 60.0 mm/min)
(Feedrate rapids 1500.0 mm/min)

(Z_Cut: -0.0 mm)
(Z_Move: 2.0 mm)
(Z Start: None mm)
(Z End: 15.0 mm)
(X,Y End: None mm)
(Steps per circle: 64)
(Preprocessor Geometry: default)

(X range:  -98.9577 ...   -1.0423  mm)
(Y range:    1.0423 ...   78.9577  mm)

(Spindle Speed: 0.0 RPM)
G21
G90
G94

G01 F120.00

M5
G00 Z15.0000
G00 X0.0000 Y0.0000
T1
M6    
(MSG, Change to Tool Dia = 0.1000)
M0
G00 Z15.0000

M03
G01 F120.00
G00 X-56.0344 Y14.2847
G01 F60.00
G01 Z-0.0000
G01 F120.00
G01 X-42.2950 Y14.2847
G01 X-42.2950 Y13.9850
G01 X-42.2946 Y13.9789
G01 X-42.2928 Y13.9705
G01 X-42.2902 Y13.9636
G01 X-42.2859 Y13.9562
G01 X-42.2804 Y13.9496
G01 X-42.2738 Y13.9441
G01 X-42.2675 Y13.9403
G01 X-42.2607 Y13.9375
G01 X-42.2523 Y13.9355
G01 X-42.2450 Y13.9350
G01 X-39.7350 Y13.9350
G01 X-39.7252 Y13.9360
G01 X-39.7159 Y13.9388
G01 X-39.7072 Y13.9434
G01 X-39.7005 Y13.9488
G01 X-39.6948 Y13.9552
G01 X-39.6898 Y13.9636
G01 X-39.6865 Y13.9729
G01 X-39.6851 Y13.9813
G01 X-39.6850 Y14.5547
G01 X-24.7600 Y14.5547
G01 X-24.6940 Y14.5579
G01 X-24.6239 Y14.5684
G01 X-24.5611 Y14.5842
G01 X-24.4977 Y14.6068
G01 X-24.4369 Y14.6356
G01 X-24.3813 Y14.6689
G01 X-24.3252 Y14.7102
G01 X-24.2754 Y14.7554
G01 X-23.4554 Y15.5754
G01 X-23.4110 Y15.6243
G01 X-23.3702 Y15.6793
G01 X-23.3345 Y15.7391
G01 X-23.3060 Y15.8000
G01 X-23.2842 Y15.8611
G01 X-23.2684 Y15.9239
G01 X-23.2580 Y15.9928
G01 X-23.2547 Y16.0575
G01 X-23.2547 Y16.2823
G01 X-23.2470 Y16.2872
G01 X-23.1509 Y16.3585
G01 X-23.0605 Y16.4405
G01 X-22.9785 Y16.5309
G01 X-22.9072 Y16.6270
G01 X-22.9023 Y16.6347
G01 X-18.7182 Y16.6347
G01 X-18.5453 Y16.4618
G01 X-18.5453 Y14.8600
G01 X-18.5422 Y14.7953
G01 X-18.5321 Y14.7263
G01 X-18.5150 Y14.6587
G01 X-18.4932 Y14.5977
G01 X-18.4655 Y14.5391
G01 X-18.4298 Y14.4793
G01 X-18.3898 Y14.4252
G01 X-18.3446 Y14.3754
G01 X-15.4846 Y11.5154
G01 X-15.4348 Y11.4702
G01 X-15.3807 Y11.4302
G01 X-15.3231 Y11.3956
G01 X-15.2634 Y11.3673
G01 X-15.1989 Y11.3442
G01 X-15.1337 Y11.3279
G01 X-15.0672 Y11.3180
G01 X-15.0000 Y11.3147
G01 X-9.3182 Y11.3147
G01 X-8.8967 Y10.8932
G01 X-8.8921 Y10.8892
G01 X-8.8871 Y10.8857
G01 X-8.8816 Y10.8829
G01 X-8.8770 Y10.8811
G01 X-8.8687 Y10.8791
G01 X-8.8614 Y10.8786
G01 X-7.9974 Y10.8786
G01 X-7.9877 Y10.8798
G01 X-7.9795 Y10.8824
G01 X-7.9709 Y10.8870
G01 X-7.9642 Y10.8924
G01 X-7.3532 Y11.5033
G01 X-7.3477 Y11.5098
G01 X-7.3434 Y11.5173
G01 X-7.3408 Y11.5241
G01 X-7.3391 Y11.5313
G01 X-7.3386 Y11.5386
G01 X-7.3386 Y12.4014
G01 X-7.3396 Y12.4111
G01 X-7.3424 Y12.4205
G01 X-7.3470 Y12.4291
G01 X-7.3532 Y12.4367
G01 X-7.9633 Y13.0468
G01 X-7.9698 Y13.0523
G01 X-7.9762 Y13.0561
G01 X-7.9830 Y13.0589
G01 X-7.9913 Y13.0609
G01 X-7.9986 Y13.0614
G01 X-8.8614 Y13.0614
G01 X-8.8687 Y13.0609
G01 X-8.8759 Y13.0592
G01 X-8.8816 Y13.0571
G01 X-8.8871 Y13.0543
G01 X-8.8921 Y13.0508
G01 X-8.8967 Y13.0468
G01 X-9.2582 Y12.6853
G01 X-14.7161 Y12.6853
G01 X-17.1747 Y15.1439
G01 X-17.1747 Y16.4618
G01 X-16.7832 Y16.8533
G01 X-16.7792 Y16.8579
G01 X-16.7757 Y16.8629
G01 X-16.7729 Y16.8684
G01 X-16.7708 Y16.8741
G01 X-16.7691 Y16.8813
G01 X-16.7686 Y16.8886
G01 X-16.7687 Y17.7550
G01 X-16.7701 Y17.7635
G01 X-16.7729 Y17.7716
G01 X-16.7770 Y17.7791
G01 X-16.7832 Y17.7867
G01 X-17.3933 Y18.3968
G01 X-17.3998 Y18.4023
G01 X-17.4062 Y18.4061
G01 X-17.4130 Y18.4089
G01 X-17.4213 Y18.4109
G01 X-17.4286 Y18.4114
G01 X-18.2914 Y18.4114
G01 X-18.2987 Y18.4109
G01 X-18.3059 Y18.4092
G01 X-18.3116 Y18.4071
G01 X-18.3171 Y18.4043
G01 X-18.3221 Y18.4008
G01 X-18.3267 Y18.3968
G01 X-18.7182 Y18.0053
G01 X-22.9023 Y18.0053
G01 X-22.9072 Y18.0130
G01 X-22.9801 Y18.1109
G01 X-23.0605 Y18.1995
G01 X-23.1509 Y18.2815
G01 X-23.2490 Y18.3542
G01 X-23.3515 Y18.4157
G01 X-23.4663 Y18.4700
G01 X-23.5789 Y18.5102
G01 X-23.6973 Y18.5399
G01 X-23.8181 Y18.5578
G01 X-23.9375 Y18.5637
G01 X-24.0643 Y18.5575
G01 X-24.1827 Y18.5399
G01 X-24.3022 Y18.5099
G01 X-24.4182 Y18.4681
G01 X-24.5263 Y18.4169
G01 X-24.6289 Y18.3555
G01 X-24.7291 Y18.2815
G01 X-24.8195 Y18.1995
G01 X-24.9030 Y18.1071
G01 X-24.9742 Y18.0110
G01 X-25.0357 Y17.9085
G01 X-25.0891 Y17.7960
G01 X-25.1306 Y17.6799
G01 X-25.1599 Y17.5627
G01 X-25.1775 Y17.4443
G01 X-25.1838 Y17.3200
G01 X-25.1778 Y17.1981
G01 X-25.1603 Y17.0798
G01 X-25.1299 Y16.9578
G01 X-25.0891 Y16.8440
G01 X-25.0380 Y16.7359
G01 X-24.9735 Y16.6280
G01 X-24.9015 Y16.5309
G01 X-24.8195 Y16.4405
G01 X-24.7291 Y16.3585
G01 X-24.6611 Y16.3081
G01 X-25.0439 Y15.9253
G01 X-39.6850 Y15.9253
G01 X-39.6850 Y16.4962
G01 X-39.6854 Y16.5011
G01 X-39.6865 Y16.5071
G01 X-39.6884 Y16.5130
G01 X-39.6909 Y16.5186
G01 X-39.6941 Y16.5238
G01 X-39.6980 Y16.5286
G01 X-39.7023 Y16.5329
G01 X-39.7062 Y16.5359
G01 X-39.7125 Y16.5397
G01 X-39.7193 Y16.5425
G01 X-39.7277 Y16.5445
G01 X-39.7350 Y16.5450
G01 X-40.5724 Y16.5450
G01 X-40.4906 Y16.5743
G01 X-40.3738 Y16.6297
G01 X-40.2650 Y16.6949
G01 X-40.1631 Y16.7705
G01 X-40.0672 Y16.8572
G01 X-39.9820 Y16.9512
G01 X-39.9056 Y17.0540
G01 X-39.8811 Y17.0947
G01 X-34.2188 Y17.0947
G01 X-34.1528 Y17.0980
G01 X-34.0863 Y17.1079
G01 X-34.0211 Y17.1242
G01 X-33.9600 Y17.1460
G01 X-33.8969 Y17.1756
G01 X-33.8413 Y17.2089
G01 X-33.7834 Y17.2518
G01 X-33.7354 Y17.2954
G01 X-31.5154 Y19.5154
G01 X-31.4702 Y19.5652
G01 X-31.4316 Y19.6173
G01 X-31.3945 Y19.6791
G01 X-31.3660 Y19.7400
G01 X-31.3442 Y19.8011
G01 X-31.3284 Y19.8639
G01 X-31.3180 Y19.9328
G01 X-31.3147 Y19.9988
G01 X-31.3147 Y24.7161
G01 X-29.2361 Y26.7947
G01 X-24.9777 Y26.7947
G01 X-24.9728 Y26.7870
G01 X-24.9015 Y26.6909
G01 X-24.8177 Y26.5988
G01 X-24.7291 Y26.5185
G01 X-24.6330 Y26.4472
G01 X-24.5263 Y26.3831
G01 X-24.4160 Y26.3309
G01 X-24.2987 Y26.2891
G01 X-24.1827 Y26.2601
G01 X-24.0643 Y26.2425
G01 X-23.9400 Y26.2362
G01 X-23.8157 Y26.2425
G01 X-23.6973 Y26.2601
G01 X-23.5813 Y26.2891
G01 X-23.4640 Y26.3309
G01 X-23.3537 Y26.3831
G01 X-23.2470 Y26.4472
G01 X-23.1509 Y26.5185
G01 X-23.0623 Y26.5988
G01 X-22.9785 Y26.6909
G01 X-22.9072 Y26.7870
G01 X-22.9023 Y26.7947
G01 X-18.7182 Y26.7947
G01 X-18.3258 Y26.4024
G01 X-18.3181 Y26.3964
G01 X-18.3105 Y26.3924
G01 X-18.3011 Y26.3896
G01 X-18.2914 Y26.3886
G01 X-17.4286 Y26.3886
G01 X-17.4213 Y26.3891
G01 X-17.4141 Y26.3908
G01 X-17.4084 Y26.3929
G01 X-17.4029 Y26.3957
G01 X-17.3979 Y26.3992
G01 X-17.3933 Y26.4032
G01 X-17.0018 Y26.7947
G01 X-10.7639 Y26.7947
G01 X-9.6853 Y25.7161
G01 X-9.6853 Y24.7480
G01 X-9.6820 Y24.6808
G01 X-9.6721 Y24.6143
G01 X-9.6550 Y24.5467
G01 X-9.6332 Y24.4857
G01 X-9.6050 Y24.4260
G01 X-9.5691 Y24.3662
G01 X-9.5305 Y24.3142
G01 X-9.5145 Y24.2963
G01 X-9.5163 Y24.2825
G01 X-9.5214 Y24.1780
G01 X-9.5158 Y24.0686
G01 X-9.5004 Y23.9651
G01 X-9.4751 Y23.8635
G01 X-9.4388 Y23.7615
G01 X-9.3925 Y23.6635
G01 X-9.3375 Y23.5717
G01 X-9.2737 Y23.4856
G01 X-9.2009 Y23.4054
G01 X-9.1204 Y23.3328
G01 X-9.0363 Y23.2705
G01 X-8.9466 Y23.2167
G01 X-8.8477 Y23.1697
G01 X-8.7468 Y23.1336
G01 X-8.6429 Y23.1076
G01 X-8.5345 Y23.0917
G01 X-8.4300 Y23.0866
G01 X-8.3255 Y23.0917
G01 X-8.2195 Y23.1072
G01 X-8.1132 Y23.1336
G01 X-8.0123 Y23.1697
G01 X-7.9155 Y23.2155
G01 X-7.8216 Y23.2719
G01 X-7.7376 Y23.3343
G01 X-7.6600 Y23.4046
G01 X-7.5879 Y23.4838
G01 X-7.5225 Y23.5717
G01 X-7.4664 Y23.6657
G01 X-7.4217 Y23.7603
G01 X-7.3856 Y23.8612
G01 X-7.3596 Y23.9651
G01 X-7.3439 Y24.0710
G01 X-7.3386 Y24.1780
G01 X-7.3439 Y24.2850
G01 X-7.3596 Y24.3909
G01 X-7.3864 Y24.4971
G01 X-7.4217 Y24.5957
G01 X-7.4664 Y24.6903
G01 X-7.5225 Y24.7843
G01 X-7.5863 Y24.8704
G01 X-7.6566 Y24.9480
G01 X-7.7376 Y25.0217
G01 X-7.8257 Y25.0868
G01 X-7.9155 Y25.1405
G01 X-8.0123 Y25.1863
G01 X-8.1155 Y25.2231
G01 X-8.2171 Y25.2484
G01 X-8.3147 Y25.2630
G01 X-8.3147 Y26.0000
G01 X-8.3180 Y26.0672
G01 X-8.3279 Y26.1337
G01 X-8.3450 Y26.2013
G01 X-8.3668 Y26.2623
G01 X-8.3945 Y26.3209
G01 X-8.4295 Y26.3797
G01 X-8.4702 Y26.4348
G01 X-8.5154 Y26.4846
G01 X-9.9972 Y27.9663
G01 X-10.0452 Y28.0098
G01 X-10.0973 Y28.0484
G01 X-10.1569 Y28.0844
G01 X-10.2200 Y28.1140
G01 X-10.2811 Y28.1358
G01 X-10.3463 Y28.1521
G01 X-10.4128 Y28.1620
G01 X-10.4800 Y28.1653
G01 X-17.0018 Y28.1653
G01 X-17.3942 Y28.5576
G01 X-17.4019 Y28.5636
G01 X-17.4095 Y28.5676
G01 X-17.4189 Y28.5704
G01 X-17.4286 Y28.5714
G01 X-18.2914 Y28.5714
G01 X-18.2987 Y28.5709
G01 X-18.3059 Y28.5692
G01 X-18.3116 Y28.5671
G01 X-18.3171 Y28.5643
G01 X-18.3221 Y28.5608
G01 X-18.3267 Y28.5568
G01 X-18.7182 Y28.1653
G01 X-22.9023 Y28.1653
G01 X-22.9072 Y28.1730
G01 X-22.9785 Y28.2691
G01 X-23.0623 Y28.3612
G01 X-23.1509 Y28.4415
G01 X-23.2470 Y28.5128
G01 X-23.3537 Y28.5769
G01 X-23.4640 Y28.6291
G01 X-23.5813 Y28.6709
G01 X-23.6973 Y28.6999
G01 X-23.8157 Y28.7175
G01 X-23.9400 Y28.7238
G01 X-24.0643 Y28.7175
G01 X-24.1827 Y28.6999
G01 X-24.2987 Y28.6709
G01 X-24.4160 Y28.6291
G01 X-24.5263 Y28.5769
G01 X-24.6330 Y28.5128
G01 X-24.7291 Y28.4415
G01 X-24.8177 Y28.3612
G01 X-24.9015 Y28.2691
G01 X-24.9728 Y28.1730
G01 X-24.9777 Y28.1653
G01 X-29.5200 Y28.1653
G01 X-29.5896 Y28.1617
G01 X-29.6537 Y28.1521
G01 X-29.7189 Y28.1358
G01 X-29.7823 Y28.1132
G01 X-29.8409 Y28.0855
G01 X-29.9027 Y28.0484
G01 X-29.9548 Y28.0098
G01 X-30.0037 Y27.9654
G01 X-32.4846 Y25.4846
G01 X-32.5298 Y25.4348
G01 X-32.5684 Y25.3827
G01 X-32.6050 Y25.3220
G01 X-32.6340 Y25.2600
G01 X-32.6558 Y25.1989
G01 X-32.6716 Y25.1361
G01 X-32.6820 Y25.0672
G01 X-32.6853 Y25.0012
G01 X-32.6853 Y20.2839
G01 X-34.5039 Y18.4653
G01 X-39.8811 Y18.4653
G01 X-39.9056 Y18.5060
G01 X-39.9805 Y18.6069
G01 X-40.0664 Y18.7019
G01 X-40.1621 Y18.7888
G01 X-40.2640 Y18.8644
G01 X-40.3748 Y18.9309
G01 X-40.4895 Y18.9852
G01 X-40.6112 Y19.0288
G01 X-40.6955 Y19.0500
G01 X-40.6112 Y19.0712
G01 X-40.4895 Y19.1148
G01 X-40.3748 Y19.1691
G01 X-40.2640 Y19.2356
G01 X-40.1621 Y19.3112
G01 X-40.0672 Y19.3972
G01 X-39.9812 Y19.4921
G01 X-39.9043 Y19.5960
G01 X-39.8391 Y19.7048
G01 X-39.7843 Y19.8206
G01 X-39.7412 Y19.9412
G01 X-39.7099 Y20.0666
G01 X-39.6913 Y20.1921
G01 X-39.6850 Y20.3212
G01 X-39.6914 Y20.4491
G01 X-39.7099 Y20.5734
G01 X-39.7213 Y20.6195
G01 X-35.3454 Y24.9954
G01 X-35.3002 Y25.0452
G01 X-35.2602 Y25.0993
G01 X-35.2256 Y25.1569
G01 X-35.1960 Y25.2200
G01 X-35.1742 Y25.2811
G01 X-35.1579 Y25.3463
G01 X-35.1480 Y25.4128
G01 X-35.1447 Y25.4800
G01 X-35.1447 Y34.5118
G01 X-34.9718 Y34.6847
G01 X-27.9400 Y34.6847
G01 X-27.8728 Y34.6880
G01 X-27.8051 Y34.6981
G01 X-27.7411 Y34.7142
G01 X-27.6800 Y34.7360
G01 X-27.6169 Y34.7656
G01 X-27.5573 Y34.8016
G01 X-27.5052 Y34.8402
G01 X-27.4572 Y34.8837
G01 X-25.7119 Y36.6289
G01 X-25.6563 Y36.6151
G01 X-25.5282 Y36.5963
G01 X-25.4000 Y36.5900
G01 X-25.2718 Y36.5963
G01 X-25.1401 Y36.6159
G01 X-25.0168 Y36.6468
G01 X-24.8949 Y36.6905
G01 X-24.7778 Y36.7459
G01 X-24.6687 Y36.8111
G01 X-24.5617 Y36.8904
G01 X-24.4666 Y36.9766
G01 X-24.3804 Y37.0717
G01 X-24.3032 Y37.1756
G01 X-24.2736 Y37.2247
G01 X-6.0900 Y37.2247
G01 X-6.0228 Y37.2280
G01 X-5.9587 Y37.2374
G01 X-5.8887 Y37.2550
G01 X-5.8277 Y37.2768
G01 X-5.7669 Y37.3056
G01 X-5.7073 Y37.3416
G01 X-5.6552 Y37.3802
G01 X-5.6063 Y37.4246
G01 X-3.5154 Y39.5154
G01 X-3.4702 Y39.5652
G01 X-3.4316 Y39.6173
G01 X-3.3950 Y39.6780
G01 X-3.3660 Y39.7400
G01 X-3.3442 Y39.8011
G01 X-3.3284 Y39.8639
G01 X-3.3180 Y39.9328
G01 X-3.3147 Y40.0000
G01 X-3.3147 Y65.0000
G01 X-3.3183 Y65.0696
G01 X-3.3279 Y65.1337
G01 X-3.3439 Y65.1978
G01 X-3.3668 Y65.2623
G01 X-3.3968 Y65.3252
G01 X-3.4302 Y65.3807
G01 X-3.4687 Y65.4328
G01 X-3.5154 Y65.4846
G01 X-5.5163 Y67.4854
G01 X-5.5652 Y67.5298
G01 X-5.6193 Y67.5698
G01 X-5.6769 Y67.6044
G01 X-5.7355 Y67.6322
G01 X-5.8011 Y67.6558
G01 X-5.8663 Y67.6721
G01 X-5.9328 Y67.6820
G01 X-5.9988 Y67.6853
G01 X-8.7161 Y67.6853
G01 X-11.3176 Y70.2868
G01 X-11.2796 Y70.3214
G01 X-11.1993 Y70.4100
G01 X-11.1265 Y70.5080
G01 X-11.0631 Y70.6137
G01 X-11.0114 Y70.7229
G01 X-10.9698 Y70.8389
G01 X-10.9401 Y70.9573
G01 X-10.9222 Y71.0781
G01 X-10.9162 Y71.2000
G01 X-10.9222 Y71.3219
G01 X-10.9401 Y71.4427
G01 X-10.9698 Y71.5611
G01 X-11.0114 Y71.6771
G01 X-11.0631 Y71.7863
G01 X-11.1265 Y71.8920
G01 X-11.1993 Y71.9900
G01 X-11.2796 Y72.0786
G01 X-11.3147 Y72.1106
G01 X-11.3147 Y73.0012
G01 X-11.3180 Y73.0672
G01 X-11.3274 Y73.1313
G01 X-11.3442 Y73.1989
G01 X-11.3668 Y73.2623
G01 X-11.3968 Y73.3252
G01 X-11.4302 Y73.3807
G01 X-11.4687 Y73.4328
G01 X-11.5146 Y73.4837
G01 X-12.5154 Y74.4846
G01 X-12.5652 Y74.5298
G01 X-12.6182 Y74.5691
G01 X-12.6791 Y74.6055
G01 X-12.7377 Y74.6332
G01 X-12.8011 Y74.6558
G01 X-12.8663 Y74.6721
G01 X-12.9304 Y74.6817
G01 X-13.0000 Y74.6853
G01 X-28.8691 Y74.6853
G01 X-28.9225 Y74.7743
G01 X-28.9848 Y74.8584
G01 X-29.0583 Y74.9397
G01 X-29.1396 Y75.0132
G01 X-29.2237 Y75.0755
G01 X-29.3134 Y75.1293
G01 X-29.4123 Y75.1763
G01 X-29.5155 Y75.2131
G01 X-29.6171 Y75.2384
G01 X-29.7206 Y75.2538
G01 X-29.8300 Y75.2594
G01 X-29.9394 Y75.2538
G01 X-30.0429 Y75.2384
G01 X-30.1445 Y75.2131
G01 X-30.2477 Y75.1763
G01 X-30.3466 Y75.1293
G01 X-30.4363 Y75.0755
G01 X-30.5204 Y75.0132
G01 X-30.6017 Y74.9397
G01 X-30.6752 Y74.8584
G01 X-30.7375 Y74.7743
G01 X-30.7909 Y74.6853
G01 X-43.0012 Y74.6853
G01 X-43.0696 Y74.6817
G01 X-43.1337 Y74.6721
G01 X-43.1966 Y74.6565
G01 X-43.2623 Y74.6332
G01 X-43.3252 Y74.6032
G01 X-43.3807 Y74.5698
G01 X-43.4366 Y74.5282
G01 X-43.4846 Y74.4846
G01 X-43.6838 Y74.2854
G01 X-43.6890 Y74.2921
G01 X-43.7660 Y74.3770
G01 X-43.8547 Y74.4572
G01 X-43.9469 Y74.5254
G01 X-44.0452 Y74.5844
G01 X-44.1532 Y74.6357
G01 X-44.2635 Y74.6752
G01 X-44.3796 Y74.7041
G01 X-44.4930 Y74.7208
G01 X-44.6075 Y74.7265
G01 X-44.7270 Y74.7208
G01 X-44.8452 Y74.7031
G01 X-44.9565 Y74.6752
G01 X-45.0668 Y74.6357
G01 X-45.1726 Y74.5856
G01 X-45.2710 Y74.5267
G01 X-45.3672 Y74.4556
G01 X-45.4557 Y74.3752
G01 X-45.5326 Y74.2902
G01 X-45.6024 Y74.1961
G01 X-45.6637 Y74.0935
G01 X-45.7127 Y73.9898
G01 X-45.7522 Y73.8795
G01 X-45.7811 Y73.7634
G01 X-45.7978 Y73.6500
G01 X-45.8036 Y73.5342
G01 X-45.8036 Y71.2470
G01 X-45.7978 Y71.1300
G01 X-45.7801 Y71.0118
G01 X-45.7522 Y70.9005
G01 X-45.7136 Y70.7925
G01 X-45.6626 Y70.6844
G01 X-45.6010 Y70.5819
G01 X-45.5326 Y70.4898
G01 X-45.4557 Y70.4048
G01 X-45.3672 Y70.3244
G01 X-45.2710 Y70.2533
G01 X-45.1726 Y70.1944
G01 X-45.0690 Y70.1453
G01 X-44.9565 Y70.1048
G01 X-44.8404 Y70.0759
G01 X-44.7270 Y70.0592
G01 X-44.6125 Y70.0535
G01 X-44.4930 Y70.0592
G01 X-44.3748 Y70.0769
G01 X-44.2635 Y70.1048
G01 X-44.1555 Y70.1434
G01 X-44.0474 Y70.1944
G01 X-43.9459 Y70.2553
G01 X-43.8528 Y70.3244
G01 X-43.7660 Y70.4030
G01 X-43.6874 Y70.4898
G01 X-43.6176 Y70.5839
G01 X-43.5574 Y70.6844
G01 X-43.5073 Y70.7902
G01 X-43.4678 Y70.9005
G01 X-43.4396 Y71.0129
G01 X-43.4222 Y71.1300
G01 X-43.4164 Y71.2458
G01 X-43.4164 Y72.6144
G01 X-42.7161 Y73.3147
G01 X-30.5095 Y73.3147
G01 X-30.4363 Y73.2605
G01 X-30.3445 Y73.2055
G01 X-30.2477 Y73.1597
G01 X-30.1491 Y73.1244
G01 X-30.0405 Y73.0972
G01 X-29.9370 Y73.0819
G01 X-29.8300 Y73.0766
G01 X-29.7230 Y73.0819
G01 X-29.6195 Y73.0972
G01 X-29.5109 Y73.1244
G01 X-29.4123 Y73.1597
G01 X-29.3155 Y73.2055
G01 X-29.2237 Y73.2605
G01 X-29.1505 Y73.3147
G01 X-13.2839 Y73.3147
G01 X-12.6853 Y72.7161
G01 X-12.6853 Y72.3259
G01 X-12.7474 Y72.2963
G01 X-12.8500 Y72.2349
G01 X-12.9500 Y72.1607
G01 X-13.0395 Y72.0795
G01 X-13.1199 Y71.9909
G01 X-13.1949 Y71.8900
G01 X-13.2569 Y71.7863
G01 X-13.3081 Y71.6782
G01 X-13.3502 Y71.5611
G01 X-13.3803 Y71.4402
G01 X-13.3978 Y71.3219
G01 X-13.4038 Y71.2012
G01 X-13.3978 Y71.0781
G01 X-13.3794 Y70.9550
G01 X-13.3502 Y70.8389
G01 X-13.3100 Y70.7263
G01 X-13.2569 Y70.6137
G01 X-13.1928 Y70.5070
G01 X-13.1215 Y70.4109
G01 X-13.0412 Y70.3223
G01 X-12.9491 Y70.2385
G01 X-12.8530 Y70.1672
G01 X-12.8453 Y70.1623
G01 X-12.8453 Y65.2939
G01 X-14.3849 Y63.7542
G01 X-14.4731 Y63.7673
G01 X-14.5875 Y63.7729
G01 X-14.7069 Y63.7673
G01 X-14.8251 Y63.7495
G01 X-14.9363 Y63.7216
G01 X-15.0465 Y63.6822
G01 X-15.1545 Y63.6309
G01 X-15.2528 Y63.5719
G01 X-15.3468 Y63.5022
G01 X-15.4353 Y63.4218
G01 X-15.5122 Y63.3368
G01 X-15.5805 Y63.2448
G01 X-15.6421 Y63.1424
G01 X-15.6912 Y63.0388
G01 X-15.7323 Y62.9239
G01 X-15.7601 Y62.8127
G01 X-15.7773 Y62.6969
G01 X-15.7830 Y62.5800
G01 X-15.7773 Y62.4631
G01 X-15.7601 Y62.3473
G01 X-15.7316 Y62.2337
G01 X-15.6922 Y62.1235
G01 X-15.6432 Y62.0198
G01 X-15.5805 Y61.9152
G01 X-15.5122 Y61.8232
G01 X-15.4336 Y61.7364
G01 X-15.3468 Y61.6578
G01 X-15.2528 Y61.5881
G01 X-15.1524 Y61.5279
G01 X-15.0488 Y61.4788
G01 X-14.9363 Y61.4384
G01 X-14.8251 Y61.4105
G01 X-14.7045 Y61.3926
G01 X-14.5900 Y61.3870
G01 X-14.4731 Y61.3927
G01 X-14.3573 Y61.4099
G01 X-14.2437 Y61.4384
G01 X-14.1335 Y61.4778
G01 X-14.0276 Y61.5279
G01 X-13.9272 Y61.5881
G01 X-13.8351 Y61.6563
G01 X-13.7464 Y61.7364
G01 X-13.6663 Y61.8251
G01 X-13.5981 Y61.9172
G01 X-13.5391 Y62.0155
G01 X-13.4869 Y62.1257
G01 X-13.4484 Y62.2337
G01 X-13.4205 Y62.3449
G01 X-13.4027 Y62.4631
G01 X-13.3971 Y62.5825
G01 X-13.4027 Y62.6969
G01 X-13.4158 Y62.7851
G01 X-11.6754 Y64.5254
G01 X-11.6287 Y64.5772
G01 X-11.5902 Y64.6293
G01 X-11.5568 Y64.6848
G01 X-11.5268 Y64.7477
G01 X-11.5035 Y64.8134
G01 X-11.4879 Y64.8763
G01 X-11.4783 Y64.9404
G01 X-11.4747 Y65.0088
G01 X-11.4747 Y68.5055
G01 X-9.4846 Y66.5154
G01 X-9.4328 Y66.4687
G01 X-9.3807 Y66.4302
G01 X-9.3241 Y66.3962
G01 X-9.2623 Y66.3668
G01 X-9.1966 Y66.3435
G01 X-9.1337 Y66.3279
G01 X-9.0696 Y66.3183
G01 X-9.0012 Y66.3147
G01 X-6.2839 Y66.3147
G01 X-4.6853 Y64.7161
G01 X-4.6853 Y40.2839
G01 X-6.3739 Y38.5953
G01 X-24.2736 Y38.5953
G01 X-24.3032 Y38.6444
G01 X-24.3789 Y38.7464
G01 X-24.4675 Y38.8442
G01 X-24.5626 Y38.9304
G01 X-24.6646 Y39.0061
G01 X-24.7788 Y39.0747
G01 X-24.8949 Y39.1295
G01 X-25.0145 Y39.1724
G01 X-25.1425 Y39.2046
G01 X-25.2731 Y39.2238
G01 X-25.4000 Y39.2300
G01 X-25.5269 Y39.2238
G01 X-25.6575 Y39.2046
G01 X-25.7832 Y39.1732
G01 X-25.9051 Y39.1295
G01 X-26.0222 Y39.0741
G01 X-26.1334 Y39.0075
G01 X-26.2374 Y38.9304
G01 X-26.3334 Y38.8434
G01 X-26.4196 Y38.7483
G01 X-26.4975 Y38.6434
G01 X-26.5652 Y38.5301
G01 X-26.6195 Y38.4151
G01 X-26.6624 Y38.2955
G01 X-26.6944 Y38.1687
G01 X-26.7136 Y38.0394
G01 X-26.7200 Y37.9088
G01 X-26.7135 Y37.7794
G01 X-26.6949 Y37.6537
G01 X-26.6811 Y37.5981
G01 X-28.2239 Y36.0553
G01 X-34.9718 Y36.0553
G01 X-35.3642 Y36.4476
G01 X-35.3709 Y36.4530
G01 X-35.3773 Y36.4566
G01 X-35.3853 Y36.4596
G01 X-35.3925 Y36.4610
G01 X-35.3986 Y36.4614
G01 X-36.2650 Y36.4613
G01 X-36.2723 Y36.4602
G01 X-36.2794 Y36.4580
G01 X-36.2860 Y36.4549
G01 X-36.2921 Y36.4508
G01 X-36.2967 Y36.4468
G01 X-36.3482 Y36.3953
G01 X-39.9723 Y36.3953
G01 X-39.9772 Y36.4030
G01 X-40.0501 Y36.5009
G01 X-40.1305 Y36.5895
G01 X-40.2229 Y36.6730
G01 X-40.3190 Y36.7442
G01 X-40.4237 Y36.8069
G01 X-40.5340 Y36.8591
G01 X-40.6513 Y36.9009
G01 X-40.7673 Y36.9299
G01 X-40.8881 Y36.9478
G01 X-41.0100 Y36.9538
G01 X-41.1319 Y36.9478
G01 X-41.2527 Y36.9299
G01 X-41.3711 Y36.9002
G01 X-41.4860 Y36.8591
G01 X-41.5974 Y36.8063
G01 X-41.7010 Y36.7442
G01 X-41.7971 Y36.6730
G01 X-41.8895 Y36.5895
G01 X-41.9715 Y36.4991
G01 X-42.0428 Y36.4030
G01 X-42.1069 Y36.2963
G01 X-42.1591 Y36.1860
G01 X-42.1995 Y36.0734
G01 X-42.2299 Y35.9527
G01 X-42.2480 Y35.8295
G01 X-42.2538 Y35.7100
G01 X-42.2480 Y35.5905
G01 X-42.2299 Y35.4673
G01 X-42.1995 Y35.3466
G01 X-42.1591 Y35.2340
G01 X-42.1080 Y35.1259
G01 X-42.0428 Y35.0170
G01 X-41.9715 Y34.9209
G01 X-41.8912 Y34.8323
G01 X-41.7991 Y34.7485
G01 X-41.6989 Y34.6745
G01 X-41.5963 Y34.6131
G01 X-41.4871 Y34.5614
G01 X-41.3711 Y34.5198
G01 X-41.2550 Y34.4906
G01 X-41.1295 Y34.4720
G01 X-41.0100 Y34.4662
G01 X-40.8881 Y34.4722
G01 X-40.7673 Y34.4901
G01 X-40.6489 Y34.5198
G01 X-40.5340 Y34.5609
G01 X-40.4237 Y34.6131
G01 X-40.3190 Y34.6758
G01 X-40.2229 Y34.7470
G01 X-40.1305 Y34.8305
G01 X-40.0501 Y34.9191
G01 X-39.9772 Y35.0170
G01 X-39.9723 Y35.0247
G01 X-36.9214 Y35.0247
G01 X-36.9212 Y34.9337
G01 X-36.9199 Y34.9265
G01 X-36.9176 Y34.9195
G01 X-36.9143 Y34.9129
G01 X-36.9108 Y34.9079
G01 X-36.9068 Y34.9033
G01 X-36.5153 Y34.5118
G01 X-36.5153 Y25.7639
G01 X-40.6905 Y21.5887
G01 X-40.7366 Y21.6001
G01 X-40.8609 Y21.6186
G01 X-40.9912 Y21.6250
G01 X-41.1179 Y21.6187
G01 X-41.2422 Y21.6003
G01 X-41.3700 Y21.5684
G01 X-41.4894 Y21.5257
G01 X-41.6030 Y21.4720
G01 X-41.7150 Y21.4051
G01 X-41.8179 Y21.3288
G01 X-41.9110 Y21.2445
G01 X-41.9995 Y21.1469
G01 X-42.0764 Y21.0429
G01 X-42.1409 Y20.9352
G01 X-42.1947 Y20.8216
G01 X-42.2388 Y20.6988
G01 X-42.2699 Y20.5746
G01 X-42.2889 Y20.4455
G01 X-42.2950 Y20.3200
G01 X-42.2889 Y20.1945
G01 X-42.2699 Y20.0654
G01 X-42.2384 Y19.9400
G01 X-42.1947 Y19.8184
G01 X-42.1409 Y19.7048
G01 X-42.0764 Y19.5971
G01 X-41.9988 Y19.4921
G01 X-41.9119 Y19.3964
G01 X-41.8159 Y19.3097
G01 X-41.7150 Y19.2349
G01 X-41.6062 Y19.1697
G01 X-41.4883 Y19.1139
G01 X-41.3688 Y19.0712
G01 X-41.2845 Y19.0500
G01 X-41.3688 Y19.0288
G01 X-41.4905 Y18.9852
G01 X-41.6052 Y18.9309
G01 X-41.7160 Y18.8644
G01 X-41.8179 Y18.7888
G01 X-41.9136 Y18.7019
G01 X-41.9995 Y18.6069
G01 X-42.0744 Y18.5060
G01 X-42.0989 Y18.4653
G01 X-43.4961 Y18.4653
G01 X-44.3147 Y19.2839
G01 X-44.3147 Y32.1200
G01 X-44.3180 Y32.1872
G01 X-44.3284 Y32.2561
G01 X-44.3442 Y32.3189
G01 X-44.3660 Y32.3800
G01 X-44.3945 Y32.4409
G01 X-44.4302 Y32.5007
G01 X-44.4718 Y32.5566
G01 X-44.5154 Y32.6046
G01 X-44.5634 Y32.6482
G01 X-44.6193 Y32.6898
G01 X-44.6791 Y32.7255
G01 X-44.7377 Y32.7532
G01 X-44.7987 Y32.7750
G01 X-44.8663 Y32.7921
G01 X-44.9353 Y32.8022
G01 X-45.0000 Y32.8053
G01 X-50.4847 Y32.8053
G01 X-50.4847 Y34.6723
G01 X-50.4770 Y34.6772
G01 X-50.3809 Y34.7485
G01 X-50.2888 Y34.8323
G01 X-50.2085 Y34.9209
G01 X-50.1372 Y35.0170
G01 X-50.0720 Y35.1259
G01 X-50.0209 Y35.2340
G01 X-49.9805 Y35.3466
G01 X-49.9501 Y35.4673
G01 X-49.9322 Y35.5881
G01 X-49.9263 Y35.7075
G01 X-49.9325 Y35.8343
G01 X-49.9501 Y35.9527
G01 X-49.9798 Y36.0711
G01 X-50.0209 Y36.1860
G01 X-50.0720 Y36.2941
G01 X-50.1372 Y36.4030
G01 X-50.2085 Y36.4991
G01 X-50.2905 Y36.5895
G01 X-50.3809 Y36.6715
G01 X-50.4790 Y36.7442
G01 X-50.5837 Y36.8069
G01 X-50.6918 Y36.8581
G01 X-50.8113 Y36.9009
G01 X-50.9273 Y36.9299
G01 X-51.0481 Y36.9478
G01 X-51.1700 Y36.9538
G01 X-51.2919 Y36.9478
G01 X-51.4127 Y36.9299
G01 X-51.5287 Y36.9009
G01 X-51.6460 Y36.8591
G01 X-51.7541 Y36.8080
G01 X-51.8630 Y36.7428
G01 X-51.9591 Y36.6715
G01 X-52.0495 Y36.5895
G01 X-52.1315 Y36.4991
G01 X-52.2042 Y36.4010
G01 X-52.2669 Y36.2963
G01 X-52.3191 Y36.1860
G01 X-52.3602 Y36.0711
G01 X-52.3899 Y35.9527
G01 X-52.4080 Y35.8295
G01 X-52.4138 Y35.7100
G01 X-52.4078 Y35.5881
G01 X-52.3899 Y35.4673
G01 X-52.3609 Y35.3513
G01 X-52.3191 Y35.2340
G01 X-52.2669 Y35.1237
G01 X-52.2055 Y35.0211
G01 X-52.1315 Y34.9209
G01 X-52.0495 Y34.8305
G01 X-51.9609 Y34.7501
G01 X-51.8630 Y34.6772
G01 X-51.8553 Y34.6723
G01 X-51.8553 Y32.8053
G01 X-67.8800 Y32.8053
G01 X-67.9496 Y32.8017
G01 X-68.0137 Y32.7921
G01 X-68.0789 Y32.7758
G01 X-68.1423 Y32.7532
G01 X-68.2009 Y32.7255
G01 X-68.2618 Y32.6891
G01 X-68.3148 Y32.6498
G01 X-68.3646 Y32.6046
G01 X-71.4946 Y29.4746
G01 X-71.5398 Y29.4248
G01 X-71.5798 Y29.3707
G01 X-71.6144 Y29.3131
G01 X-71.6427 Y29.2534
G01 X-71.6658 Y29.1889
G01 X-71.6821 Y29.1237
G01 X-71.6920 Y29.0572
G01 X-71.6953 Y28.9912
G01 X-71.6953 Y27.4050
G01 X-71.7359 Y27.3748
G01 X-71.8172 Y27.3011
G01 X-71.8926 Y27.2181
G01 X-71.9602 Y27.1271
G01 X-72.0184 Y27.0298
G01 X-72.0666 Y26.9272
G01 X-72.1035 Y26.8239
G01 X-72.1303 Y26.7175
G01 X-72.1472 Y26.6042
G01 X-72.1527 Y26.4922
G01 X-72.1527 Y24.3078
G01 X-72.1469 Y24.1934
G01 X-72.1308 Y24.0849
G01 X-72.1035 Y23.9761
G01 X-72.0658 Y23.8705
G01 X-72.0184 Y23.7702
G01 X-71.9602 Y23.6729
G01 X-71.8926 Y23.5819
G01 X-71.8172 Y23.4989
G01 X-71.7359 Y23.4252
G01 X-71.6953 Y23.3950
G01 X-71.6953 Y23.2739
G01 X-73.2839 Y21.6853
G01 X-76.7161 Y21.6853
G01 X-78.5154 Y23.4846
G01 X-78.5634 Y23.5282
G01 X-78.6213 Y23.5711
G01 X-78.6769 Y23.6044
G01 X-78.7377 Y23.6332
G01 X-78.8011 Y23.6558
G01 X-78.8639 Y23.6716
G01 X-78.9328 Y23.6820
G01 X-79.0000 Y23.6853
G01 X-89.0025 Y23.6853
G01 X-89.0672 Y23.6820
G01 X-89.1313 Y23.6726
G01 X-89.2013 Y23.6550
G01 X-89.2623 Y23.6332
G01 X-89.3231 Y23.6044
G01 X-89.3807 Y23.5698
G01 X-89.4328 Y23.5313
G01 X-89.4863 Y23.4828
G01 X-89.5298 Y23.4348
G01 X-89.5698 Y23.3807
G01 X-89.6044 Y23.3231
G01 X-89.6322 Y23.2645
G01 X-89.6561 Y23.1978
G01 X-89.6721 Y23.1337
G01 X-89.6817 Y23.0696
G01 X-89.6853 Y23.0000
G01 X-89.6853 Y11.0000
G01 X-89.6817 Y10.9304
G01 X-89.6721 Y10.8663
G01 X-89.6561 Y10.8022
G01 X-89.6332 Y10.7377
G01 X-89.6032 Y10.6748
G01 X-89.5698 Y10.6193
G01 X-89.5313 Y10.5672
G01 X-89.4854 Y10.5163
G01 X-85.3546 Y6.3854
G01 X-85.3028 Y6.3387
G01 X-85.2507 Y6.3002
G01 X-85.1952 Y6.2668
G01 X-85.1323 Y6.2368
G01 X-85.0678 Y6.2139
G01 X-85.0037 Y6.1979
G01 X-84.9396 Y6.1883
G01 X-84.8700 Y6.1847
G01 X-27.4125 Y6.1847
G01 X-27.4125 Y5.6369
G01 X-27.4063 Y5.5124
G01 X-27.3881 Y5.3891
G01 X-27.3573 Y5.2658
G01 X-27.3149 Y5.1473
G01 X-27.2611 Y5.0335
G01 X-27.1957 Y4.9246
G01 X-27.1198 Y4.8226
G01 X-27.0369 Y4.7312
G01 X-26.9455 Y4.6483
G01 X-26.8425 Y4.5717
G01 X-26.7346 Y4.5070
G01 X-26.6208 Y4.4532
G01 X-26.4999 Y4.4102
G01 X-26.3802 Y4.3802
G01 X-26.2581 Y4.3621
G01 X-26.1312 Y4.3556
G01 X-26.0043 Y4.3618
G01 X-25.8822 Y4.3798
G01 X-25.7554 Y4.4116
G01 X-25.6392 Y4.4532
G01 X-25.5254 Y4.5070
G01 X-25.4175 Y4.5717
G01 X-25.3183 Y4.6452
G01 X-25.2214 Y4.7330
G01 X-25.1386 Y4.8245
G01 X-25.0636 Y4.9256
G01 X-24.9989 Y5.0335
G01 X-24.9461 Y5.1451
G01 X-24.9024 Y5.2670
G01 X-24.8721 Y5.3879
G01 X-24.8540 Y5.5100
G01 X-24.8475 Y5.6369
G01 X-24.8475 Y8.1019
G01 X-24.8540 Y8.2300
G01 X-24.8721 Y8.3521
G01 X-24.9027 Y8.4742
G01 X-24.9451 Y8.5927
G01 X-24.9978 Y8.7043
G01 X-25.0636 Y8.8144
G01 X-25.1386 Y8.9155
G01 X-25.2214 Y9.0070
G01 X-25.3183 Y9.0948
G01 X-25.4175 Y9.1683
G01 X-25.5233 Y9.2318
G01 X-25.6415 Y9.2877
G01 X-25.7577 Y9.3292
G01 X-25.8798 Y9.3598
G01 X-26.0043 Y9.3782
G01 X-26.1275 Y9.3844
G01 X-26.2557 Y9.3782
G01 X-26.3826 Y9.3592
G01 X-26.5023 Y9.3292
G01 X-26.6185 Y9.2877
G01 X-26.7346 Y9.2330
G01 X-26.8425 Y9.1683
G01 X-26.9455 Y9.0917
G01 X-27.0369 Y9.0088
G01 X-27.1198 Y8.9174
G01 X-27.1957 Y8.8154
G01 X-27.2611 Y8.7065
G01 X-27.3149 Y8.5927
G01 X-27.3573 Y8.4742
G01 X-27.3881 Y8.3509
G01 X-27.4063 Y8.2276
G01 X-27.4125 Y8.1031
G01 X-27.4125 Y7.5553
G01 X-84.5861 Y7.5553
G01 X-88.3147 Y11.2839
G01 X-88.3147 Y22.3147
G01 X-79.2839 Y22.3147
G01 X-77.4837 Y20.5146
G01 X-77.4328 Y20.4687
G01 X-77.3807 Y20.4302
G01 X-77.3252 Y20.3968
G01 X-77.2623 Y20.3668
G01 X-77.1989 Y20.3442
G01 X-77.1337 Y20.3279
G01 X-77.0696 Y20.3183
G01 X-77.0000 Y20.3147
G01 X-73.0000 Y20.3147
G01 X-72.9328 Y20.3180
G01 X-72.8651 Y20.3281
G01 X-72.8011 Y20.3442
G01 X-72.7400 Y20.3660
G01 X-72.6769 Y20.3956
G01 X-72.6173 Y20.4316
G01 X-72.5652 Y20.4702
G01 X-72.5163 Y20.5146
G01 X-70.5254 Y22.5054
G01 X-70.4802 Y22.5552
G01 X-70.4389 Y22.6113
G01 X-70.4056 Y22.6669
G01 X-70.3778 Y22.7255
G01 X-70.3542 Y22.7911
G01 X-70.3376 Y22.8575
G01 X-70.3280 Y22.9228
G01 X-70.3247 Y22.9888
G01 X-70.3247 Y23.3950
G01 X-70.2841 Y23.4252
G01 X-70.2011 Y23.5006
G01 X-70.1266 Y23.5828
G01 X-70.0605 Y23.6719
G01 X-70.0011 Y23.7713
G01 X-69.9542 Y23.8705
G01 X-69.9165 Y23.9761
G01 X-69.8888 Y24.0873
G01 X-69.8728 Y24.1958
G01 X-69.8673 Y24.3066
G01 X-69.8673 Y26.4922
G01 X-69.8728 Y26.6042
G01 X-69.8892 Y26.7151
G01 X-69.9165 Y26.8239
G01 X-69.9542 Y26.9295
G01 X-70.0028 Y27.0320
G01 X-70.0598 Y27.1271
G01 X-70.1274 Y27.2181
G01 X-70.2028 Y27.3011
G01 X-70.2841 Y27.3748
G01 X-70.3247 Y27.4050
G01 X-70.3247 Y28.7061
G01 X-67.5961 Y31.4347
G01 X-45.6853 Y31.4347
G01 X-45.6853 Y19.0000
G01 X-45.6817 Y18.9304
G01 X-45.6721 Y18.8663
G01 X-45.6561 Y18.8022
G01 X-45.6332 Y18.7377
G01 X-45.6032 Y18.6748
G01 X-45.5698 Y18.6193
G01 X-45.5313 Y18.5672
G01 X-45.4854 Y18.5163
G01 X-44.2637 Y17.2946
G01 X-44.2148 Y17.2502
G01 X-44.1627 Y17.2116
G01 X-44.1031 Y17.1756
G01 X-44.0423 Y17.1468
G01 X-43.9766 Y17.1235
G01 X-43.9137 Y17.1079
G01 X-43.8496 Y17.0983
G01 X-43.7825 Y17.0947
G01 X-42.0989 Y17.0947
G01 X-42.0744 Y17.0540
G01 X-41.9980 Y16.9512
G01 X-41.9128 Y16.8572
G01 X-41.8169 Y16.7705
G01 X-41.7150 Y16.6949
G01 X-41.6062 Y16.6297
G01 X-41.4894 Y16.5743
G01 X-41.4076 Y16.5450
G01 X-42.2462 Y16.5450
G01 X-42.2548 Y16.5440
G01 X-42.2641 Y16.5412
G01 X-42.2728 Y16.5366
G01 X-42.2804 Y16.5304
G01 X-42.2866 Y16.5228
G01 X-42.2912 Y16.5141
G01 X-42.2940 Y16.5048
G01 X-42.2950 Y16.4962
G01 X-42.2950 Y15.6553
G01 X-56.0344 Y15.6553
G01 X-56.0523 Y15.6849
G01 X-56.1259 Y15.7842
G01 X-56.2122 Y15.8795
G01 X-56.3048 Y15.9633
G01 X-56.4041 Y16.0370
G01 X-56.5132 Y16.1027
G01 X-56.6283 Y16.1572
G01 X-56.7493 Y16.2003
G01 X-56.8693 Y16.2303
G01 X-56.9916 Y16.2485
G01 X-57.1200 Y16.2550
G01 X-57.2460 Y16.2488
G01 X-57.3731 Y16.2298
G01 X-57.4930 Y16.1997
G01 X-57.6095 Y16.1581
G01 X-57.7257 Y16.1033
G01 X-57.8359 Y16.0370
G01 X-57.9352 Y15.9633
G01 X-58.0269 Y15.8803
G01 X-58.1133 Y15.7852
G01 X-58.1891 Y15.6829
G01 X-58.2533 Y15.5757
G01 X-58.3072 Y15.4617
G01 X-58.3497 Y15.3430
G01 X-58.3803 Y15.2207
G01 X-58.3988 Y15.0960
G01 X-58.4050 Y14.9700
G01 X-58.3988 Y14.8440
G01 X-58.3803 Y14.7193
G01 X-58.3497 Y14.5970
G01 X-58.3072 Y14.4783
G01 X-58.2533 Y14.3643
G01 X-58.1884 Y14.2561
G01 X-58.1133 Y14.1548
G01 X-58.0286 Y14.0614
G01 X-57.9352 Y13.9767
G01 X-57.8329 Y13.9009
G01 X-57.7257 Y13.8367
G01 X-57.6117 Y13.7828
G01 X-57.4930 Y13.7403
G01 X-57.3707 Y13.7097
G01 X-57.2460 Y13.6912
G01 X-57.1200 Y13.6850
G01 X-56.9940 Y13.6912
G01 X-56.8681 Y13.7099
G01 X-56.7470 Y13.7403
G01 X-56.6283 Y13.7828
G01 X-56.5143 Y13.8367
G01 X-56.4051 Y13.9023
G01 X-56.3048 Y13.9767
G01 X-56.2105 Y14.0622
G01 X-56.1259 Y14.1558
G01 X-56.0523 Y14.2551
G01 X-56.0344 Y14.2847
G00 Z2.0000
G00 X-76.5853 Y13.8844
G01 F60.00
G01 Z-0.0000
G01 F120.00
G01 X-76.5853 Y11.8988
G01 X-76.5820 Y11.8328
G01 X-76.5721 Y11.7663
G01 X-76.5558 Y11.7011
G01 X-76.5336 Y11.6389
G01 X-76.5044 Y11.5769
G01 X-76.4698 Y11.5193
G01 X-76.4298 Y11.4652
G01 X-76.3854 Y11.4163
G01 X-75.4837 Y10.5146
G01 X-75.4328 Y10.4687
G01 X-75.3807 Y10.4302
G01 X-75.3252 Y10.3968
G01 X-75.2623 Y10.3668
G01 X-75.1978 Y10.3439
G01 X-75.1337 Y10.3279
G01 X-75.0696 Y10.3183
G01 X-75.0000 Y10.3147
G01 X-64.0000 Y10.3147
G01 X-63.9340 Y10.3179
G01 X-63.8663 Y10.3279
G01 X-63.8034 Y10.3435
G01 X-63.7355 Y10.3678
G01 X-63.6769 Y10.3956
G01 X-63.6193 Y10.4302
G01 X-63.5652 Y10.4702
G01 X-63.5172 Y10.5137
G01 X-61.6354 Y12.3954
G01 X-61.5902 Y12.4452
G01 X-61.5495 Y12.5003
G01 X-61.5145 Y12.5591
G01 X-61.4868 Y12.6177
G01 X-61.4650 Y12.6787
G01 X-61.4479 Y12.7463
G01 X-61.4379 Y12.8140
G01 X-61.4347 Y12.8800
G01 X-61.4347 Y13.8844
G01 X-61.4051 Y13.9023
G01 X-61.3058 Y13.9759
G01 X-61.2105 Y14.0622
G01 X-61.1267 Y14.1548
G01 X-61.0530 Y14.2541
G01 X-60.9862 Y14.3653
G01 X-60.9328 Y14.4783
G01 X-60.8911 Y14.5947
G01 X-60.8597 Y14.7193
G01 X-60.8410 Y14.8465
G01 X-60.8350 Y14.9700
G01 X-60.8411 Y15.0947
G01 X-60.8602 Y15.2231
G01 X-60.8903 Y15.3430
G01 X-60.9328 Y15.4617
G01 X-60.9879 Y15.5779
G01 X-61.0516 Y15.6839
G01 X-61.1252 Y15.7833
G01 X-61.2131 Y15.8803
G01 X-61.3048 Y15.9633
G01 X-61.4041 Y16.0370
G01 X-61.5143 Y16.1033
G01 X-61.6305 Y16.1581
G01 X-61.7470 Y16.1997
G01 X-61.8669 Y16.2298
G01 X-61.9940 Y16.2488
G01 X-62.1225 Y16.2549
G01 X-62.2460 Y16.2488
G01 X-62.3707 Y16.2303
G01 X-62.4930 Y16.1997
G01 X-62.6095 Y16.1581
G01 X-62.7257 Y16.1033
G01 X-62.8359 Y16.0370
G01 X-62.9352 Y15.9633
G01 X-63.0286 Y15.8786
G01 X-63.1133 Y15.7852
G01 X-63.1884 Y15.6839
G01 X-63.2533 Y15.5757
G01 X-63.3081 Y15.4595
G01 X-63.3497 Y15.3430
G01 X-63.3798 Y15.2231
G01 X-63.3985 Y15.0984
G01 X-63.4050 Y14.9700
G01 X-63.3989 Y14.8453
G01 X-63.3803 Y14.7193
G01 X-63.3489 Y14.5947
G01 X-63.3072 Y14.4783
G01 X-63.2544 Y14.3664
G01 X-63.1891 Y14.2571
G01 X-63.1133 Y14.1548
G01 X-63.0278 Y14.0605
G01 X-62.9342 Y13.9759
G01 X-62.8349 Y13.9023
G01 X-62.8053 Y13.8844
G01 X-62.8053 Y13.1639
G01 X-64.2839 Y11.6853
G01 X-74.7161 Y11.6853
G01 X-75.2147 Y12.1839
G01 X-75.2147 Y13.8844
G01 X-75.1851 Y13.9023
G01 X-75.0839 Y13.9775
G01 X-74.9914 Y14.0614
G01 X-74.9075 Y14.1539
G01 X-74.8302 Y14.2582
G01 X-74.7667 Y14.3643
G01 X-74.7133 Y14.4771
G01 X-74.6697 Y14.5993
G01 X-74.6397 Y14.7193
G01 X-74.6212 Y14.8440
G01 X-74.6151 Y14.9725
G01 X-74.6212 Y15.0960
G01 X-74.6397 Y15.2207
G01 X-74.6703 Y15.3430
G01 X-74.7119 Y15.4595
G01 X-74.7667 Y15.5757
G01 X-74.8330 Y15.6859
G01 X-74.9067 Y15.7852
G01 X-74.9914 Y15.8786
G01 X-75.0848 Y15.9633
G01 X-75.1841 Y16.0370
G01 X-75.2943 Y16.1033
G01 X-75.4083 Y16.1572
G01 X-75.5247 Y16.1989
G01 X-75.6505 Y16.2305
G01 X-75.7740 Y16.2488
G01 X-75.9000 Y16.2550
G01 X-76.0260 Y16.2488
G01 X-76.1483 Y16.2307
G01 X-76.2753 Y16.1989
G01 X-76.3917 Y16.1572
G01 X-76.5057 Y16.1033
G01 X-76.6139 Y16.0384
G01 X-76.7152 Y15.9633
G01 X-76.8086 Y15.8786
G01 X-76.8917 Y15.7871
G01 X-76.9698 Y15.6818
G01 X-77.0333 Y15.5757
G01 X-77.0876 Y15.4606
G01 X-77.1297 Y15.3430
G01 X-77.1603 Y15.2207
G01 X-77.1788 Y15.0960
G01 X-77.1849 Y14.9725
G01 X-77.1785 Y14.8416
G01 X-77.1603 Y14.7193
G01 X-77.1293 Y14.5958
G01 X-77.0872 Y14.4783
G01 X-77.0333 Y14.3643
G01 X-76.9684 Y14.2561
G01 X-76.8941 Y14.1558
G01 X-76.8086 Y14.0614
G01 X-76.7161 Y13.9775
G01 X-76.6149 Y13.9023
G01 X-76.5853 Y13.8844
G00 Z2.0000
G00 X-77.5169 Y13.4669
G01 F60.00
G01 Z-0.0000
G01 F120.00
G01 X-77.5125 Y13.4583
G01 X-77.5046 Y13.4357
G01 X-77.5021 Y13.4221
G01 X-77.5011 Y13.4060
G01 X-77.5011 Y11.5815
G01 X-77.2573 Y10.9930
G01 X-75.9070 Y9.6427
G01 X-75.3185 Y9.3989
G01 X-63.6815 Y9.3989
G01 X-63.0930 Y9.6427
G01 X-60.7627 Y11.9730
G01 X-60.5189 Y12.5615
G01 X-60.5189 Y13.4060
G01 X-60.5186 Y13.4111
G01 X-60.5160 Y13.4321
G01 X-60.5124 Y13.4461
G01 X-60.5102 Y13.4516
G01 X-60.4996 Y13.4732
G01 X-60.4930 Y13.4827
G01 X-60.4829 Y13.4943
G01 X-60.2540 Y13.7232
G01 X-59.9189 Y14.5321
G01 X-59.9189 Y15.4079
G01 X-60.2540 Y16.2168
G01 X-60.8732 Y16.8360
G01 X-61.6821 Y17.1711
G01 X-62.5579 Y17.1711
G01 X-63.3668 Y16.8360
G01 X-63.9860 Y16.2168
G01 X-64.3211 Y15.4079
G01 X-64.3211 Y14.5321
G01 X-63.9860 Y13.7232
G01 X-63.8527 Y13.5900
G01 X-63.8466 Y13.5833
G01 X-63.8377 Y13.5716
G01 X-63.8299 Y13.5587
G01 X-63.8256 Y13.5497
G01 X-63.8206 Y13.5349
G01 X-63.8175 Y13.5210
G01 X-63.8161 Y13.5103
G01 X-63.8160 Y13.4958
G01 X-63.8180 Y13.4773
G01 X-63.8200 Y13.4684
G01 X-63.8241 Y13.4558
G01 X-63.8312 Y13.4405
G01 X-63.8362 Y13.4320
G01 X-63.8440 Y13.4213
G01 X-63.8527 Y13.4115
G01 X-64.6262 Y12.6380
G01 X-64.6306 Y12.6342
G01 X-64.6380 Y12.6288
G01 X-64.6470 Y12.6213
G01 X-64.6574 Y12.6152
G01 X-64.6632 Y12.6125
G01 X-64.6736 Y12.6091
G01 X-64.6824 Y12.6057
G01 X-64.6881 Y12.6041
G01 X-64.6994 Y12.6021
G01 X-64.7154 Y12.6011
G01 X-74.1728 Y12.6011
G01 X-74.1824 Y12.6015
G01 X-74.2085 Y12.6063
G01 X-74.2199 Y12.6102
G01 X-74.2253 Y12.6128
G01 X-74.2446 Y12.6238
G01 X-74.2550 Y12.6315
G01 X-74.2584 Y12.6349
G01 X-74.2657 Y12.6434
G01 X-74.2743 Y12.6525
G01 X-74.2815 Y12.6632
G01 X-74.2930 Y12.6894
G01 X-74.2955 Y12.6981
G01 X-74.2967 Y12.7040
G01 X-74.2989 Y12.7272
G01 X-74.2989 Y13.4060
G01 X-74.2985 Y13.4123
G01 X-74.2953 Y13.4357
G01 X-74.2912 Y13.4494
G01 X-74.2858 Y13.4600
G01 X-74.2808 Y13.4710
G01 X-74.2730 Y13.4827
G01 X-74.2638 Y13.4933
G01 X-74.0340 Y13.7232
G01 X-73.6989 Y14.5321
G01 X-73.6989 Y15.4079
G01 X-74.0340 Y16.2168
G01 X-74.6532 Y16.8360
G01 X-75.4621 Y17.1711
G01 X-76.3379 Y17.1711
G01 X-77.1468 Y16.8360
G01 X-77.7660 Y16.2168
G01 X-78.1011 Y15.4079
G01 X-78.1011 Y14.5321
G01 X-77.7660 Y13.7232
G01 X-77.5372 Y13.4944
G01 X-77.5218 Y13.4751
G01 X-77.5169 Y13.4669
G00 Z2.0000
G00 X-87.3988 Y21.2760
G01 F60.00
G01 Z-0.0000
G01 F120.00
G01 X-87.3989 Y11.7154
G01 X-87.3979 Y11.6994
G01 X-87.3957 Y11.6870
G01 X-87.3875 Y11.6632
G01 X-87.3813 Y11.6512
G01 X-87.3772 Y11.6450
G01 X-87.3712 Y11.6380
G01 X-87.3651 Y11.6297
G01 X-87.3620 Y11.6262
G01 X-84.2438 Y8.5080
G01 X-84.2312 Y8.4970
G01 X-84.2228 Y8.4911
G01 X-84.2184 Y8.4886
G01 X-84.2085 Y8.4842
G01 X-84.1968 Y8.4784
G01 X-84.1858 Y8.4751
G01 X-84.1796 Y8.4738
G01 X-84.1696 Y8.4728
G01 X-84.1597 Y8.4714
G01 X-84.1546 Y8.4711
G01 X-28.4390 Y8.4711
G01 X-28.4187 Y8.4731
G01 X-28.4097 Y8.4749
G01 X-28.3827 Y8.4854
G01 X-28.3732 Y8.4905
G01 X-28.3694 Y8.4933
G01 X-28.3509 Y8.5090
G01 X-28.3446 Y8.5152
G01 X-28.3400 Y8.5213
G01 X-28.3255 Y8.5454
G01 X-27.9933 Y9.3470
G01 X-27.3751 Y9.9652
G01 X-26.5672 Y10.2999
G01 X-25.6928 Y10.2999
G01 X-24.8849 Y9.9652
G01 X-24.2667 Y9.3470
G01 X-23.9320 Y8.5391
G01 X-23.9320 Y5.2009
G01 X-24.1083 Y4.7754
G01 X-24.1103 Y4.7698
G01 X-24.1156 Y4.7506
G01 X-24.1175 Y4.7359
G01 X-24.1177 Y4.7297
G01 X-24.1169 Y4.7211
G01 X-24.1170 Y4.7138
G01 X-24.1165 Y4.7088
G01 X-24.1127 Y4.6918
G01 X-24.1084 Y4.6813
G01 X-24.1058 Y4.6739
G01 X-24.1027 Y4.6673
G01 X-24.0947 Y4.6543
G01 X-24.0877 Y4.6466
G01 X-24.0820 Y4.6392
G01 X-24.0768 Y4.6342
G01 X-24.0659 Y4.6253
G01 X-24.0476 Y4.6142
G01 X-24.0342 Y4.6084
G01 X-24.0273 Y4.6063
G01 X-24.0192 Y4.6049
G01 X-24.0087 Y4.6022
G01 X-23.9930 Y4.6011
G01 X-22.0690 Y4.6011
G01 X-22.0573 Y4.6016
G01 X-22.0395 Y4.6046
G01 X-22.0300 Y4.6080
G01 X-22.0205 Y4.6109
G01 X-22.0047 Y4.6187
G01 X-22.0006 Y4.6213
G01 X-21.9939 Y4.6268
G01 X-21.9877 Y4.6310
G01 X-21.9830 Y4.6351
G01 X-21.9717 Y4.6470
G01 X-21.9659 Y4.6559
G01 X-21.9610 Y4.6624
G01 X-21.9427 Y4.6459
G01 X-21.8405 Y4.5704
G01 X-21.7346 Y4.5070
G01 X-21.6185 Y4.4523
G01 X-21.5023 Y4.4108
G01 X-21.3802 Y4.3802
G01 X-21.2557 Y4.3618
G01 X-21.1288 Y4.3556
G01 X-21.0043 Y4.3618
G01 X-20.8798 Y4.3802
G01 X-20.7577 Y4.4108
G01 X-20.6415 Y4.4523
G01 X-20.5254 Y4.5070
G01 X-20.4195 Y4.5704
G01 X-20.3173 Y4.6459
G01 X-20.2989 Y4.6625
G01 X-20.2942 Y4.6548
G01 X-20.2899 Y4.6497
G01 X-20.2861 Y4.6445
G01 X-20.2829 Y4.6409
G01 X-20.2757 Y4.6348
G01 X-20.2680 Y4.6274
G01 X-20.2527 Y4.6173
G01 X-20.2481 Y4.6150
G01 X-20.2422 Y4.6127
G01 X-20.2344 Y4.6088
G01 X-20.2276 Y4.6066
G01 X-20.2128 Y4.6030
G01 X-20.1910 Y4.6011
G01 X-18.2660 Y4.6011
G01 X-18.2413 Y4.6040
G01 X-18.2281 Y4.6077
G01 X-18.2211 Y4.6104
G01 X-18.2146 Y4.6139
G01 X-18.2045 Y4.6184
G01 X-18.1920 Y4.6268
G01 X-18.1873 Y4.6307
G01 X-18.1812 Y4.6370
G01 X-18.1729 Y4.6447
G01 X-18.1637 Y4.6566
G01 X-18.1604 Y4.6620
G01 X-18.1569 Y4.6696
G01 X-18.1534 Y4.6757
G01 X-18.1513 Y4.6802
G01 X-18.1469 Y4.6929
G01 X-18.1457 Y4.6975
G01 X-18.1444 Y4.7082
G01 X-18.1425 Y4.7191
G01 X-18.1423 Y4.7331
G01 X-18.1429 Y4.7403
G01 X-18.1470 Y4.7616
G01 X-18.1517 Y4.7754
G01 X-18.3280 Y5.2009
G01 X-18.3280 Y8.5391
G01 X-17.9933 Y9.3470
G01 X-17.3751 Y9.9652
G01 X-16.5672 Y10.2999
G01 X-15.7134 Y10.2999
G01 X-15.6969 Y10.3010
G01 X-15.6872 Y10.3026
G01 X-15.6824 Y10.3038
G01 X-15.6565 Y10.3135
G01 X-15.6483 Y10.3180
G01 X-15.6443 Y10.3206
G01 X-15.6238 Y10.3373
G01 X-15.6174 Y10.3441
G01 X-15.6143 Y10.3481
G01 X-15.6081 Y10.3583
G01 X-15.6021 Y10.3671
G01 X-15.5997 Y10.3715
G01 X-15.5947 Y10.3836
G01 X-15.5884 Y10.4091
G01 X-15.5874 Y10.4227
G01 X-15.5886 Y10.4356
G01 X-15.5891 Y10.4460
G01 X-15.5898 Y10.4508
G01 X-15.5915 Y10.4583
G01 X-15.5938 Y10.4654
G01 X-15.5982 Y10.4749
G01 X-15.6030 Y10.4868
G01 X-15.6101 Y10.4983
G01 X-15.6273 Y10.5180
G01 X-15.6309 Y10.5214
G01 X-15.6376 Y10.5267
G01 X-15.6427 Y10.5301
G01 X-15.6639 Y10.5420
G01 X-15.9070 Y10.6427
G01 X-19.2173 Y13.9530
G01 X-19.4611 Y14.5415
G01 X-19.4611 Y15.5928
G01 X-19.4614 Y15.5982
G01 X-19.4635 Y15.6172
G01 X-19.4658 Y15.6270
G01 X-19.4679 Y15.6329
G01 X-19.4768 Y15.6534
G01 X-19.4798 Y15.6590
G01 X-19.4849 Y15.6665
G01 X-19.5024 Y15.6860
G01 X-19.5068 Y15.6900
G01 X-19.5144 Y15.6956
G01 X-19.5347 Y15.7072
G01 X-19.5401 Y15.7098
G01 X-19.5515 Y15.7137
G01 X-19.5752 Y15.7181
G01 X-19.5800 Y15.7187
G01 X-22.2640 Y15.7189
G01 X-22.2857 Y15.7169
G01 X-22.2927 Y15.7156
G01 X-22.2983 Y15.7139
G01 X-22.3217 Y15.7046
G01 X-22.3281 Y15.7014
G01 X-22.3341 Y15.6974
G01 X-22.3543 Y15.6804
G01 X-22.3578 Y15.6771
G01 X-22.3615 Y15.6728
G01 X-22.3644 Y15.6687
G01 X-22.3794 Y15.6434
G01 X-22.5827 Y15.1530
G01 X-23.8530 Y13.8827
G01 X-24.4415 Y13.6389
G01 X-38.7498 Y13.6389
G01 X-38.7701 Y13.6369
G01 X-38.7771 Y13.6356
G01 X-38.7827 Y13.6339
G01 X-38.8073 Y13.6241
G01 X-38.8135 Y13.6208
G01 X-38.8185 Y13.6174
G01 X-38.8387 Y13.6004
G01 X-38.8422 Y13.5971
G01 X-38.8459 Y13.5928
G01 X-38.8488 Y13.5887
G01 X-38.8638 Y13.5634
G01 X-38.9160 Y13.4377
G01 X-39.1877 Y13.1660
G01 X-39.5428 Y13.0189
G01 X-42.4372 Y13.0189
G01 X-42.7923 Y13.1660
G01 X-42.9582 Y13.3320
G01 X-42.9699 Y13.3422
G01 X-42.9825 Y13.3508
G01 X-42.9934 Y13.3558
G01 X-43.0016 Y13.3601
G01 X-43.0072 Y13.3624
G01 X-43.0213 Y13.3661
G01 X-43.0324 Y13.3672
G01 X-43.0423 Y13.3686
G01 X-43.0474 Y13.3689
G01 X-55.5582 Y13.3689
G01 X-55.5721 Y13.3679
G01 X-55.5834 Y13.3659
G01 X-55.5891 Y13.3643
G01 X-55.5979 Y13.3609
G01 X-55.6083 Y13.3575
G01 X-55.6129 Y13.3554
G01 X-55.6230 Y13.3497
G01 X-55.6334 Y13.3413
G01 X-55.6418 Y13.3351
G01 X-55.8732 Y13.1040
G01 X-56.6821 Y12.7689
G01 X-57.5579 Y12.7689
G01 X-58.3668 Y13.1040
G01 X-58.9860 Y13.7232
G01 X-59.3211 Y14.5321
G01 X-59.3211 Y15.4079
G01 X-58.9860 Y16.2168
G01 X-58.3668 Y16.8360
G01 X-57.5579 Y17.1711
G01 X-56.6821 Y17.1711
G01 X-55.8732 Y16.8360
G01 X-55.6453 Y16.6080
G01 X-55.6347 Y16.5987
G01 X-55.6253 Y16.5918
G01 X-55.6210 Y16.5892
G01 X-55.5972 Y16.5780
G01 X-55.5821 Y16.5740
G01 X-55.5585 Y16.5712
G01 X-45.1398 Y16.5711
G01 X-45.1281 Y16.5716
G01 X-45.1103 Y16.5746
G01 X-45.1009 Y16.5780
G01 X-45.0911 Y16.5809
G01 X-45.0755 Y16.5887
G01 X-45.0714 Y16.5913
G01 X-45.0647 Y16.5968
G01 X-45.0585 Y16.6010
G01 X-45.0538 Y16.6051
G01 X-45.0425 Y16.6170
G01 X-45.0367 Y16.6259
G01 X-45.0317 Y16.6325
G01 X-45.0286 Y16.6379
G01 X-45.0223 Y16.6514
G01 X-45.0161 Y16.6726
G01 X-45.0138 Y16.6914
G01 X-45.0148 Y16.7135
G01 X-45.0185 Y16.7318
G01 X-45.0264 Y16.7525
G01 X-45.0359 Y16.7686
G01 X-45.0432 Y16.7771
G01 X-45.0488 Y16.7844
G01 X-46.3573 Y18.0930
G01 X-46.6011 Y18.6815
G01 X-46.6011 Y30.3928
G01 X-46.6032 Y30.4149
G01 X-46.6045 Y30.4219
G01 X-46.6074 Y30.4318
G01 X-46.6163 Y30.4523
G01 X-46.6191 Y30.4579
G01 X-46.6249 Y30.4665
G01 X-46.6416 Y30.4851
G01 X-46.6468 Y30.4900
G01 X-46.6544 Y30.4956
G01 X-46.6790 Y30.5093
G01 X-46.6866 Y30.5123
G01 X-46.6915 Y30.5137
G01 X-46.7164 Y30.5183
G01 X-46.7272 Y30.5189
G01 X-67.1646 Y30.5189
G01 X-67.1806 Y30.5179
G01 X-67.1919 Y30.5159
G01 X-67.1976 Y30.5143
G01 X-67.2064 Y30.5109
G01 X-67.2180 Y30.5070
G01 X-67.2278 Y30.5019
G01 X-67.2330 Y30.4987
G01 X-67.2420 Y30.4912
G01 X-67.2494 Y30.4858
G01 X-67.2538 Y30.4820
G01 X-69.3720 Y28.3638
G01 X-69.3822 Y28.3521
G01 X-69.3896 Y28.3417
G01 X-69.4002 Y28.3201
G01 X-69.4031 Y28.3123
G01 X-69.4060 Y28.3009
G01 X-69.4072 Y28.2896
G01 X-69.4086 Y28.2797
G01 X-69.4089 Y28.2746
G01 X-69.4089 Y27.8542
G01 X-69.4078 Y27.8379
G01 X-69.4054 Y27.8244
G01 X-69.4008 Y27.8123
G01 X-69.3980 Y27.8033
G01 X-69.3950 Y27.7967
G01 X-69.3886 Y27.7856
G01 X-69.3812 Y27.7768
G01 X-69.3751 Y27.7685
G01 X-69.2651 Y27.6581
G01 X-69.1783 Y27.4488
G01 X-69.1690 Y27.4321
G01 X-69.1663 Y27.4280
G01 X-69.1561 Y27.4155
G01 X-69.1493 Y27.4095
G01 X-69.1959 Y27.3748
G01 X-69.2772 Y27.3011
G01 X-69.3526 Y27.2181
G01 X-69.4202 Y27.1271
G01 X-69.4772 Y27.0320
G01 X-69.5258 Y26.9295
G01 X-69.5635 Y26.8239
G01 X-69.5908 Y26.7151
G01 X-69.6069 Y26.6066
G01 X-69.6127 Y26.4922
G01 X-69.6127 Y24.3078
G01 X-69.6074 Y24.1982
G01 X-69.5908 Y24.0849
G01 X-69.5635 Y23.9761
G01 X-69.5258 Y23.8705
G01 X-69.4772 Y23.7680
G01 X-69.4202 Y23.6729
G01 X-69.3526 Y23.5819
G01 X-69.2772 Y23.4989
G01 X-69.1959 Y23.4252
G01 X-69.1498 Y23.3908
G01 X-69.1599 Y23.3802
G01 X-69.1655 Y23.3718
G01 X-69.1703 Y23.3659
G01 X-69.1734 Y23.3608
G01 X-69.1791 Y23.3493
G01 X-69.2651 Y23.1419
G01 X-69.3738 Y23.0330
G01 X-69.3830 Y23.0224
G01 X-69.3896 Y23.0129
G01 X-69.3920 Y23.0085
G01 X-69.3958 Y22.9998
G01 X-69.4016 Y22.9883
G01 X-69.4058 Y22.9731
G01 X-69.4089 Y22.9471
G01 X-69.4089 Y22.6715
G01 X-69.6527 Y22.0830
G01 X-72.0930 Y19.6427
G01 X-72.6815 Y19.3989
G01 X-77.3185 Y19.3989
G01 X-77.9070 Y19.6427
G01 X-79.6262 Y21.3620
G01 X-79.6388 Y21.3730
G01 X-79.6472 Y21.3789
G01 X-79.6516 Y21.3814
G01 X-79.6735 Y21.3918
G01 X-79.6845 Y21.3950
G01 X-79.6905 Y21.3962
G01 X-79.7004 Y21.3972
G01 X-79.7103 Y21.3986
G01 X-79.7154 Y21.3989
G01 X-87.2741 Y21.3989
G01 X-87.2960 Y21.3967
G01 X-87.3019 Y21.3955
G01 X-87.3118 Y21.3926
G01 X-87.3323 Y21.3837
G01 X-87.3379 Y21.3809
G01 X-87.3465 Y21.3751
G01 X-87.3660 Y21.3576
G01 X-87.3700 Y21.3532
G01 X-87.3756 Y21.3456
G01 X-87.3872 Y21.3253
G01 X-87.3898 Y21.3199
G01 X-87.3927 Y21.3122
G01 X-87.3939 Y21.3073
G01 X-87.3958 Y21.2961
G01 X-87.3981 Y21.2848
G01 X-87.3988 Y21.2760
G00 Z2.0000
G00 X-92.6853 Y9.9975
G01 F60.00
G01 Z-0.0000
G01 F120.00
G01 X-92.6820 Y9.9328
G01 X-92.6721 Y9.8663
G01 X-92.6558 Y9.8011
G01 X-92.6332 Y9.7377
G01 X-92.6044 Y9.6769
G01 X-92.5698 Y9.6193
G01 X-92.5298 Y9.5652
G01 X-92.4846 Y9.5154
G01 X-85.4837 Y2.5146
G01 X-85.4348 Y2.4702
G01 X-85.3807 Y2.4302
G01 X-85.3231 Y2.3956
G01 X-85.2645 Y2.3678
G01 X-85.1989 Y2.3442
G01 X-85.1361 Y2.3284
G01 X-85.0647 Y2.3178
G01 X-85.0000 Y2.3147
G01 X-16.9975 Y2.3147
G01 X-16.9328 Y2.3180
G01 X-16.8663 Y2.3279
G01 X-16.8011 Y2.3442
G01 X-16.7400 Y2.3660
G01 X-16.6748 Y2.3968
G01 X-16.6193 Y2.4302
G01 X-16.5652 Y2.4702
G01 X-16.5154 Y2.5154
G01 X-15.6454 Y3.3854
G01 X-15.6002 Y3.4352
G01 X-15.5602 Y3.4893
G01 X-15.5256 Y3.5469
G01 X-15.4960 Y3.6100
G01 X-15.4742 Y3.6711
G01 X-15.4584 Y3.7339
G01 X-15.4480 Y3.8028
G01 X-15.4447 Y3.8700
G01 X-15.4447 Y4.5553
G01 X-15.4165 Y4.5724
G01 X-15.3173 Y4.6459
G01 X-15.2240 Y4.7304
G01 X-15.1386 Y4.8245
G01 X-15.0623 Y4.9276
G01 X-14.9989 Y5.0335
G01 X-14.9461 Y5.1451
G01 X-14.9035 Y5.2635
G01 X-14.8721 Y5.3879
G01 X-14.8535 Y5.5148
G01 X-14.8475 Y5.6381
G01 X-14.8475 Y8.1031
G01 X-14.8537 Y8.2276
G01 X-14.8717 Y8.3497
G01 X-14.9031 Y8.4754
G01 X-14.9451 Y8.5927
G01 X-14.9978 Y8.7043
G01 X-15.0650 Y8.8164
G01 X-15.1386 Y8.9155
G01 X-15.2231 Y9.0088
G01 X-15.3164 Y9.0933
G01 X-15.4155 Y9.1669
G01 X-15.5276 Y9.2341
G01 X-15.6392 Y9.2868
G01 X-15.7577 Y9.3292
G01 X-15.8798 Y9.3598
G01 X-16.0019 Y9.3779
G01 X-16.1312 Y9.3844
G01 X-16.2557 Y9.3782
G01 X-16.3802 Y9.3598
G01 X-16.5023 Y9.3292
G01 X-16.6185 Y9.2877
G01 X-16.7367 Y9.2318
G01 X-16.8425 Y9.1683
G01 X-16.9436 Y9.0933
G01 X-17.0369 Y9.0088
G01 X-17.1214 Y8.9155
G01 X-17.1964 Y8.8144
G01 X-17.2599 Y8.7086
G01 X-17.3158 Y8.5904
G01 X-17.3573 Y8.4742
G01 X-17.3879 Y8.3521
G01 X-17.4063 Y8.2276
G01 X-17.4125 Y8.1019
G01 X-17.4125 Y5.6381
G01 X-17.4063 Y5.5124
G01 X-17.3883 Y5.3903
G01 X-17.3573 Y5.2658
G01 X-17.3149 Y5.1473
G01 X-17.2611 Y5.0335
G01 X-17.1957 Y4.9246
G01 X-17.1214 Y4.8245
G01 X-17.0360 Y4.7304
G01 X-16.9427 Y4.6459
G01 X-16.8435 Y4.5724
G01 X-16.8153 Y4.5553
G01 X-16.8153 Y4.1539
G01 X-17.2839 Y3.6853
G01 X-84.7161 Y3.6853
G01 X-91.3147 Y10.2839
G01 X-91.3147 Y24.7161
G01 X-89.7161 Y26.3147
G01 X-78.2839 Y26.3147
G01 X-76.8837 Y24.9146
G01 X-76.8348 Y24.8702
G01 X-76.7807 Y24.8302
G01 X-76.7231 Y24.7956
G01 X-76.6634 Y24.7673
G01 X-76.5989 Y24.7442
G01 X-76.5337 Y24.7279
G01 X-76.4672 Y24.7180
G01 X-76.4012 Y24.7147
G01 X-74.6927 Y24.7147
G01 X-74.6927 Y24.3066
G01 X-74.6872 Y24.1958
G01 X-74.6705 Y24.0837
G01 X-74.6428 Y23.9737
G01 X-74.6058 Y23.8705
G01 X-74.5589 Y23.7713
G01 X-74.5002 Y23.6729
G01 X-74.4318 Y23.5810
G01 X-74.3580 Y23.4998
G01 X-74.2768 Y23.4260
G01 X-74.1849 Y23.3576
G01 X-74.0865 Y23.2989
G01 X-73.9873 Y23.2520
G01 X-73.8841 Y23.2150
G01 X-73.7729 Y23.1870
G01 X-73.6596 Y23.1704
G01 X-73.5500 Y23.1651
G01 X-73.4404 Y23.1704
G01 X-73.3283 Y23.1868
G01 X-73.2159 Y23.2150
G01 X-73.1127 Y23.2520
G01 X-73.0113 Y23.3000
G01 X-72.9131 Y23.3591
G01 X-72.8250 Y23.4244
G01 X-72.7437 Y23.4981
G01 X-72.6666 Y23.5828
G01 X-72.5985 Y23.6750
G01 X-72.5422 Y23.7691
G01 X-72.4952 Y23.8682
G01 X-72.4561 Y23.9773
G01 X-72.4292 Y24.0849
G01 X-72.4131 Y24.1934
G01 X-72.4073 Y24.3066
G01 X-72.4073 Y26.4934
G01 X-72.4128 Y26.6042
G01 X-72.4292 Y26.7151
G01 X-72.4565 Y26.8239
G01 X-72.4942 Y26.9295
G01 X-72.5422 Y27.0309
G01 X-72.5998 Y27.1271
G01 X-72.6666 Y27.2172
G01 X-72.7403 Y27.2985
G01 X-72.8250 Y27.3756
G01 X-72.9131 Y27.4409
G01 X-73.0135 Y27.5011
G01 X-73.1127 Y27.5480
G01 X-73.2183 Y27.5857
G01 X-73.3271 Y27.6130
G01 X-73.4404 Y27.6296
G01 X-73.5525 Y27.6349
G01 X-73.6620 Y27.6294
G01 X-73.7705 Y27.6134
G01 X-73.8817 Y27.5857
G01 X-73.9873 Y27.5480
G01 X-74.0887 Y27.5000
G01 X-74.1869 Y27.4409
G01 X-74.2750 Y27.3756
G01 X-74.3563 Y27.3019
G01 X-74.4334 Y27.2172
G01 X-74.5002 Y27.1271
G01 X-74.5589 Y27.0287
G01 X-74.6058 Y26.9295
G01 X-74.6428 Y26.8263
G01 X-74.6705 Y26.7163
G01 X-74.6872 Y26.6042
G01 X-74.6927 Y26.4934
G01 X-74.6927 Y26.0853
G01 X-76.1161 Y26.0853
G01 X-77.5154 Y27.4846
G01 X-77.5643 Y27.5290
G01 X-77.6213 Y27.5711
G01 X-77.6769 Y27.6044
G01 X-77.7377 Y27.6332
G01 X-77.8011 Y27.6558
G01 X-77.8639 Y27.6716
G01 X-77.9328 Y27.6820
G01 X-78.0000 Y27.6853
G01 X-90.0012 Y27.6853
G01 X-90.0672 Y27.6820
G01 X-90.1337 Y27.6721
G01 X-90.1989 Y27.6558
G01 X-90.2623 Y27.6332
G01 X-90.3231 Y27.6044
G01 X-90.3807 Y27.5698
G01 X-90.4348 Y27.5298
G01 X-90.4828 Y27.4863
G01 X-92.4863 Y25.4828
G01 X-92.5298 Y25.4348
G01 X-92.5698 Y25.3807
G01 X-92.6044 Y25.3231
G01 X-92.6322 Y25.2645
G01 X-92.6565 Y25.1966
G01 X-92.6721 Y25.1337
G01 X-92.6819 Y25.0684
G01 X-92.6853 Y25.0000
G01 X-92.6853 Y9.9975
G00 Z2.0000
G00 X-98.9552 Y8.3594
G01 F60.00
G01 Z-0.0000
G01 F120.00
G01 X-98.9527 Y8.3503
G01 X-98.9445 Y8.3290
G01 X-98.9419 Y8.3233
G01 X-98.9362 Y8.3144
G01 X-98.9208 Y8.2958
G01 X-98.9155 Y8.2904
G01 X-98.9086 Y8.2849
G01 X-98.8869 Y8.2714
G01 X-98.8789 Y8.2677
G01 X-98.8717 Y8.2653
G01 X-98.8491 Y8.2599
G01 X-98.8430 Y8.2589
G01 X-98.8333 Y8.2585
G01 X-98.8087 Y8.2608
G01 X-98.7989 Y8.2627
G01 X-98.7920 Y8.2650
G01 X-98.7691 Y8.2753
G01 X-98.7610 Y8.2800
G01 X-98.7553 Y8.2845
G01 X-98.7385 Y8.2999
G01 X-98.7338 Y8.3049
G01 X-98.4325 Y8.6753
G01 X-97.3136 Y9.4651
G01 X-96.0231 Y9.9237
G01 X-94.6568 Y10.0171
G01 X-93.7529 Y9.8293
G01 X-93.7367 Y9.8271
G01 X-93.7270 Y9.8267
G01 X-93.7209 Y9.8270
G01 X-93.7092 Y9.8289
G01 X-93.6987 Y9.8302
G01 X-93.6939 Y9.8312
G01 X-93.6812 Y9.8355
G01 X-93.6706 Y9.8412
G01 X-93.6611 Y9.8457
G01 X-93.6569 Y9.8482
G01 X-93.6496 Y9.8534
G01 X-93.6459 Y9.8565
G01 X-93.6378 Y9.8651
G01 X-93.6303 Y9.8724
G01 X-93.6271 Y9.8761
G01 X-93.6220 Y9.8833
G01 X-93.6196 Y9.8873
G01 X-93.6084 Y9.9104
G01 X-93.6054 Y9.9202
G01 X-93.6043 Y9.9251
G01 X-93.6031 Y9.9368
G01 X-93.6014 Y9.9469
G01 X-93.6011 Y9.9528
G01 X-93.6011 Y25.3185
G01 X-93.3573 Y25.9070
G01 X-91.5375 Y27.7267
G01 X-91.5298 Y27.7351
G01 X-91.5212 Y27.7469
G01 X-91.5180 Y27.7523
G01 X-91.5150 Y27.7590
G01 X-91.5104 Y27.7672
G01 X-91.5082 Y27.7728
G01 X-91.5041 Y27.7865
G01 X-91.5026 Y27.7976
G01 X-91.5010 Y27.8066
G01 X-91.5007 Y27.8129
G01 X-91.5012 Y27.8281
G01 X-91.5033 Y27.8380
G01 X-91.5043 Y27.8457
G01 X-91.5062 Y27.8530
G01 X-91.5114 Y27.8668
G01 X-91.5169 Y27.8764
G01 X-91.5201 Y27.8830
G01 X-91.5235 Y27.8883
G01 X-91.5331 Y27.9005
G01 X-91.5507 Y27.9165
G01 X-91.5628 Y27.9245
G01 X-91.5684 Y27.9276
G01 X-91.5754 Y27.9303
G01 X-91.5831 Y27.9342
G01 X-91.5900 Y27.9365
G01 X-91.6049 Y27.9401
G01 X-91.6151 Y27.9408
G01 X-91.6241 Y27.9419
G01 X-94.6991 Y27.9420
G01 X-95.5070 Y28.2767
G01 X-96.1252 Y28.8949
G01 X-96.4599 Y29.7028
G01 X-96.4599 Y30.5772
G01 X-96.1252 Y31.3851
G01 X-95.5070 Y32.0033
G01 X-94.6991 Y32.3380
G01 X-91.3609 Y32.3380
G01 X-90.5530 Y32.0033
G01 X-90.3258 Y31.7762
G01 X-90.3145 Y31.7666
G01 X-90.3035 Y31.7592
G01 X-90.2925 Y31.7542
G01 X-90.2819 Y31.7488
G01 X-90.2775 Y31.7472
G01 X-90.2670 Y31.7444
G01 X-90.2436 Y31.7414
G01 X-90.2385 Y31.7411
G01 X-88.5754 Y31.7411
G01 X-88.5582 Y31.7423
G01 X-88.5493 Y31.7438
G01 X-88.5436 Y31.7453
G01 X-88.5336 Y31.7491
G01 X-88.5220 Y31.7530
G01 X-88.5112 Y31.7587
G01 X-88.5050 Y31.7628
G01 X-88.4980 Y31.7688
G01 X-88.4897 Y31.7749
G01 X-88.4862 Y31.7780
G01 X-86.5080 Y33.7562
G01 X-86.4978 Y33.7679
G01 X-86.4911 Y33.7772
G01 X-86.4880 Y33.7827
G01 X-86.4842 Y33.7915
G01 X-86.4798 Y33.7999
G01 X-86.4769 Y33.8077
G01 X-86.4740 Y33.8191
G01 X-86.4728 Y33.8304
G01 X-86.4714 Y33.8403
G01 X-86.4711 Y33.8454
G01 X-86.4711 Y43.7809
G01 X-86.4721 Y43.7959
G01 X-86.4741 Y43.8072
G01 X-86.4757 Y43.8129
G01 X-86.4791 Y43.8217
G01 X-86.4825 Y43.8321
G01 X-86.4846 Y43.8367
G01 X-86.4903 Y43.8468
G01 X-86.5057 Y43.8665
G01 X-86.8775 Y44.2385
G01 X-86.8775 Y45.9015
G01 X-85.8097 Y46.9692
G01 X-85.8061 Y46.9733
G01 X-85.7932 Y46.9897
G01 X-85.3358 Y46.5324
G01 X-85.3281 Y46.5264
G01 X-85.3194 Y46.5220
G01 X-85.3099 Y46.5193
G01 X-85.3014 Y46.5186
G01 X-84.4386 Y46.5186
G01 X-84.4301 Y46.5193
G01 X-84.4218 Y46.5215
G01 X-84.4162 Y46.5239
G01 X-84.4119 Y46.5264
G01 X-84.4079 Y46.5292
G01 X-84.4033 Y46.5332
G01 X-83.9462 Y46.9903
G01 X-83.9373 Y46.9771
G01 X-83.9303 Y46.9692
G01 X-83.6661 Y46.7053
G01 X-83.6568 Y46.6973
G01 X-83.6470 Y46.6904
G01 X-83.6426 Y46.6880
G01 X-83.6338 Y46.6842
G01 X-83.6221 Y46.6784
G01 X-83.6107 Y46.6750
G01 X-83.6059 Y46.6739
G01 X-83.5948 Y46.6728
G01 X-83.5849 Y46.6714
G01 X-83.5798 Y46.6711
G01 X-53.6454 Y46.6711
G01 X-53.6294 Y46.6721
G01 X-53.6193 Y46.6738
G01 X-53.6136 Y46.6753
G01 X-53.6036 Y46.6791
G01 X-53.5944 Y46.6821
G01 X-53.5874 Y46.6852
G01 X-53.5801 Y46.6893
G01 X-53.5760 Y46.6920
G01 X-53.5680 Y46.6988
G01 X-53.5597 Y46.7049
G01 X-53.5562 Y46.7080
G01 X-51.7580 Y48.5062
G01 X-51.7470 Y48.5188
G01 X-51.7392 Y48.5305
G01 X-51.7288 Y48.5520
G01 X-51.7247 Y48.5654
G01 X-51.7238 Y48.5704
G01 X-51.7228 Y48.5804
G01 X-51.7215 Y48.5890
G01 X-51.7211 Y48.5954
G01 X-51.7211 Y50.5878
G01 X-51.7221 Y50.6038
G01 X-51.7238 Y50.6139
G01 X-51.7257 Y50.6208
G01 X-51.7291 Y50.6296
G01 X-51.7321 Y50.6388
G01 X-51.7346 Y50.6446
G01 X-51.7411 Y50.6557
G01 X-51.7564 Y50.6753
G01 X-52.0029 Y50.9218
G01 X-52.3411 Y51.7382
G01 X-52.3411 Y52.6218
G01 X-52.0029 Y53.4382
G01 X-51.3782 Y54.0629
G01 X-50.5618 Y54.4011
G01 X-49.6782 Y54.4011
G01 X-49.3544 Y54.2669
G01 X-49.3497 Y54.2652
G01 X-49.3328 Y54.2605
G01 X-49.3253 Y54.2592
G01 X-49.3146 Y54.2580
G01 X-49.3096 Y54.2579
G01 X-49.3008 Y54.2587
G01 X-49.2896 Y54.2591
G01 X-49.2763 Y54.2617
G01 X-49.2691 Y54.2638
G01 X-49.2613 Y54.2673
G01 X-49.2509 Y54.2711
G01 X-49.2376 Y54.2788
G01 X-49.2327 Y54.2823
G01 X-49.2266 Y54.2880
G01 X-49.2198 Y54.2932
G01 X-49.2146 Y54.2984
G01 X-49.2056 Y54.3092
G01 X-49.2001 Y54.3187
G01 X-49.1953 Y54.3259
G01 X-49.1926 Y54.3313
G01 X-49.1873 Y54.3446
G01 X-49.1860 Y54.3495
G01 X-49.1849 Y54.3564
G01 X-49.1827 Y54.3644
G01 X-49.1819 Y54.3694
G01 X-49.1811 Y54.3839
G01 X-49.1811 Y54.7385
G01 X-48.9373 Y55.3270
G01 X-44.4550 Y59.8093
G01 X-43.8665 Y60.0531
G01 X-31.1191 Y60.0531
G01 X-31.1041 Y60.0541
G01 X-31.0928 Y60.0561
G01 X-31.0871 Y60.0577
G01 X-31.0783 Y60.0611
G01 X-31.0679 Y60.0645
G01 X-31.0633 Y60.0666
G01 X-31.0532 Y60.0723
G01 X-31.0335 Y60.0877
G01 X-30.6615 Y60.4595
G01 X-28.9985 Y60.4595
G01 X-27.8225 Y59.2835
G01 X-27.8225 Y59.2259
G01 X-27.8201 Y59.2028
G01 X-27.8181 Y59.1942
G01 X-27.8162 Y59.1882
G01 X-27.8068 Y59.1666
G01 X-27.8016 Y59.1576
G01 X-27.7971 Y59.1516
G01 X-27.7893 Y59.1434
G01 X-27.7812 Y59.1340
G01 X-27.7732 Y59.1272
G01 X-27.7672 Y59.1232
G01 X-27.7468 Y59.1117
G01 X-27.7370 Y59.1077
G01 X-27.7309 Y59.1061
G01 X-27.7048 Y59.1014
G01 X-27.6964 Y59.1011
G01 X-21.1004 Y59.1012
G01 X-21.0878 Y59.1021
G01 X-21.0754 Y59.1043
G01 X-21.0504 Y59.1130
G01 X-21.0458 Y59.1152
G01 X-21.0359 Y59.1211
G01 X-21.0163 Y59.1364
G01 X-20.5436 Y59.6091
G01 X-19.2043 Y59.6091
G01 X-19.1774 Y59.5635
G01 X-19.1508 Y59.5210
G01 X-19.1238 Y59.4801
G01 X-19.0952 Y59.4390
G01 X-19.0618 Y59.3935
G01 X-19.0318 Y59.3549
G01 X-19.0006 Y59.3166
G01 X-18.9673 Y59.2777
G01 X-18.9354 Y59.2424
G01 X-18.9011 Y59.2061
G01 X-18.8667 Y59.1714
G01 X-18.8303 Y59.1364
G01 X-18.7937 Y59.1030
G01 X-18.7574 Y59.0714
G01 X-18.7256 Y59.0449
G01 X-18.6860 Y59.0134
G01 X-18.6480 Y58.9846
G01 X-18.6064 Y58.9547
G01 X-18.5659 Y58.9271
G01 X-18.5184 Y58.8965
G01 X-18.4754 Y58.8703
G01 X-18.4338 Y58.8463
G01 X-18.3887 Y58.8217
G01 X-18.3459 Y58.7999
G01 X-18.3087 Y58.7818
G01 X-18.2560 Y58.7578
G01 X-18.2111 Y58.7388
G01 X-18.1642 Y58.7202
G01 X-18.1192 Y58.7037
G01 X-18.0801 Y58.6902
G01 X-18.0313 Y58.6748
G01 X-17.9768 Y58.6589
G01 X-17.9298 Y58.6467
G01 X-17.8805 Y58.6351
G01 X-17.8401 Y58.6265
G01 X-17.8077 Y58.6204
G01 X-17.5609 Y58.3736
G01 X-17.5609 Y56.6264
G01 X-18.7964 Y55.3909
G01 X-20.5436 Y55.3909
G01 X-21.0166 Y55.8638
G01 X-21.0272 Y55.8730
G01 X-21.0367 Y55.8796
G01 X-21.0411 Y55.8820
G01 X-21.0499 Y55.8858
G01 X-21.0605 Y55.8912
G01 X-21.0661 Y55.8931
G01 X-21.0763 Y55.8958
G01 X-21.1012 Y55.8988
G01 X-26.2741 Y55.8989
G01 X-26.2972 Y55.8965
G01 X-26.3082 Y55.8938
G01 X-26.3334 Y55.8832
G01 X-26.3379 Y55.8809
G01 X-26.3455 Y55.8759
G01 X-26.3660 Y55.8576
G01 X-26.3735 Y55.8486
G01 X-26.3768 Y55.8436
G01 X-26.3877 Y55.8243
G01 X-26.3903 Y55.8188
G01 X-26.3930 Y55.8110
G01 X-26.3981 Y55.7848
G01 X-26.3989 Y55.7728
G01 X-26.3989 Y53.2302
G01 X-26.3979 Y53.2141
G01 X-26.3959 Y53.2028
G01 X-26.3943 Y53.1971
G01 X-26.3909 Y53.1883
G01 X-26.3870 Y53.1767
G01 X-26.3848 Y53.1721
G01 X-26.3789 Y53.1622
G01 X-26.3713 Y53.1528
G01 X-26.3658 Y53.1453
G01 X-26.3620 Y53.1409
G01 X-25.9325 Y52.7115
G01 X-25.9324 Y52.1868
G01 X-25.9313 Y52.1715
G01 X-25.9297 Y52.1624
G01 X-25.9284 Y52.1574
G01 X-25.9201 Y52.1345
G01 X-25.9149 Y52.1248
G01 X-25.9116 Y52.1196
G01 X-25.9048 Y52.1116
G01 X-25.8987 Y52.1033
G01 X-25.8956 Y52.0998
G01 X-24.0427 Y50.2470
G01 X-23.7989 Y49.6585
G01 X-23.7989 Y44.6035
G01 X-23.7980 Y44.5886
G01 X-23.7962 Y44.5773
G01 X-23.7951 Y44.5727
G01 X-23.7909 Y44.5616
G01 X-23.7879 Y44.5524
G01 X-23.7860 Y44.5477
G01 X-23.7789 Y44.5355
G01 X-23.7628 Y44.5151
G01 X-23.1639 Y43.9162
G01 X-23.1639 Y42.0638
G01 X-24.4738 Y40.7539
G01 X-26.3262 Y40.7539
G01 X-27.6361 Y42.0638
G01 X-27.6361 Y43.9162
G01 X-27.0371 Y44.5152
G01 X-27.0270 Y44.5268
G01 X-27.0204 Y44.5363
G01 X-27.0093 Y44.5590
G01 X-27.0072 Y44.5645
G01 X-27.0042 Y44.5762
G01 X-27.0014 Y44.5984
G01 X-27.0011 Y44.6035
G01 X-27.0011 Y48.6246
G01 X-27.0021 Y48.6406
G01 X-27.0038 Y48.6507
G01 X-27.0053 Y48.6564
G01 X-27.0091 Y48.6664
G01 X-27.0121 Y48.6756
G01 X-27.0152 Y48.6826
G01 X-27.0193 Y48.6899
G01 X-27.0220 Y48.6940
G01 X-27.0288 Y48.7020
G01 X-27.0349 Y48.7103
G01 X-27.0380 Y48.7138
G01 X-28.1598 Y49.8356
G01 X-28.1734 Y49.8473
G01 X-28.1808 Y49.8525
G01 X-28.1852 Y49.8550
G01 X-28.2083 Y49.8658
G01 X-28.2229 Y49.8697
G01 X-28.2464 Y49.8724
G01 X-28.7715 Y49.8725
G01 X-29.1217 Y50.2227
G01 X-29.1392 Y50.2368
G01 X-29.1481 Y50.2425
G01 X-29.1535 Y50.2452
G01 X-29.1777 Y50.2545
G01 X-29.1906 Y50.2571
G01 X-29.2138 Y50.2584
G01 X-29.2212 Y50.2583
G01 X-29.2318 Y50.2568
G01 X-29.2437 Y50.2532
G01 X-29.2557 Y50.2501
G01 X-29.2658 Y50.2457
G01 X-29.2712 Y50.2427
G01 X-29.2927 Y50.2279
G01 X-29.2992 Y50.2219
G01 X-29.6485 Y49.8725
G01 X-31.3115 Y49.8725
G01 X-31.8009 Y50.3620
G01 X-31.8142 Y50.3734
G01 X-31.8219 Y50.3789
G01 X-31.8263 Y50.3814
G01 X-31.8362 Y50.3858
G01 X-31.8457 Y50.3907
G01 X-31.8524 Y50.3931
G01 X-31.8641 Y50.3961
G01 X-31.8889 Y50.3989
G01 X-32.2846 Y50.3989
G01 X-32.3018 Y50.3977
G01 X-32.3119 Y50.3959
G01 X-32.3176 Y50.3943
G01 X-32.3264 Y50.3909
G01 X-32.3380 Y50.3870
G01 X-32.3488 Y50.3813
G01 X-32.3550 Y50.3772
G01 X-32.3620 Y50.3712
G01 X-32.3703 Y50.3651
G01 X-32.3738 Y50.3620
G01 X-34.1920 Y48.5438
G01 X-34.2014 Y48.5331
G01 X-34.2082 Y48.5238
G01 X-34.2108 Y48.5195
G01 X-34.2220 Y48.4957
G01 X-34.2260 Y48.4809
G01 X-34.2289 Y48.4559
G01 X-34.2289 Y46.8202
G01 X-34.2280 Y46.8053
G01 X-34.2262 Y46.7940
G01 X-34.2251 Y46.7894
G01 X-34.2209 Y46.7783
G01 X-34.2179 Y46.7691
G01 X-34.2160 Y46.7644
G01 X-34.2089 Y46.7522
G01 X-34.1936 Y46.7326
G01 X-33.8225 Y46.3615
G01 X-33.8225 Y44.6985
G01 X-34.9985 Y43.5225
G01 X-36.6615 Y43.5225
G01 X-37.8375 Y44.6985
G01 X-37.8375 Y46.3615
G01 X-37.4671 Y46.7319
G01 X-37.4573 Y46.7432
G01 X-37.4492 Y46.7552
G01 X-37.4384 Y46.7779
G01 X-37.4342 Y46.7929
G01 X-37.4314 Y46.8151
G01 X-37.4311 Y46.8202
G01 X-37.4311 Y49.4885
G01 X-37.1873 Y50.0770
G01 X-33.9070 Y53.3573
G01 X-33.3185 Y53.6011
G01 X-31.6502 Y53.6011
G01 X-31.6341 Y53.6021
G01 X-31.6240 Y53.6038
G01 X-31.6171 Y53.6057
G01 X-31.6083 Y53.6091
G01 X-31.5991 Y53.6121
G01 X-31.5933 Y53.6146
G01 X-31.5822 Y53.6211
G01 X-31.5626 Y53.6364
G01 X-31.3115 Y53.8875
G01 X-29.7259 Y53.8875
G01 X-29.7028 Y53.8899
G01 X-29.6906 Y53.8930
G01 X-29.6643 Y53.9043
G01 X-29.6565 Y53.9091
G01 X-29.6507 Y53.9137
G01 X-29.6434 Y53.9207
G01 X-29.6349 Y53.9280
G01 X-29.6300 Y53.9332
G01 X-29.6238 Y53.9418
G01 X-29.6117 Y53.9632
G01 X-29.6077 Y53.9730
G01 X-29.6061 Y53.9791
G01 X-29.6017 Y54.0028
G01 X-29.6011 Y54.0124
G01 X-29.6011 Y55.9822
G01 X-29.6036 Y56.0071
G01 X-29.6060 Y56.0164
G01 X-29.6154 Y56.0400
G01 X-29.6180 Y56.0454
G01 X-29.6233 Y56.0532
G01 X-29.6396 Y56.0725
G01 X-29.6438 Y56.0768
G01 X-29.6513 Y56.0826
G01 X-29.6768 Y56.0979
G01 X-29.7850 Y56.1427
G01 X-30.0498 Y56.4076
G01 X-30.0624 Y56.4186
G01 X-30.0730 Y56.4258
G01 X-30.0946 Y56.4363
G01 X-30.1013 Y56.4387
G01 X-30.1127 Y56.4416
G01 X-30.1377 Y56.4445
G01 X-30.6615 Y56.4445
G01 X-31.0329 Y56.8158
G01 X-31.0432 Y56.8247
G01 X-31.0530 Y56.8316
G01 X-31.0574 Y56.8340
G01 X-31.0662 Y56.8378
G01 X-31.0768 Y56.8432
G01 X-31.0824 Y56.8451
G01 X-31.0929 Y56.8478
G01 X-31.1189 Y56.8509
G01 X-42.8326 Y56.8509
G01 X-42.8498 Y56.8497
G01 X-42.8633 Y56.8471
G01 X-42.8744 Y56.8429
G01 X-42.8836 Y56.8399
G01 X-42.8883 Y56.8380
G01 X-42.9010 Y56.8307
G01 X-42.9100 Y56.8232
G01 X-42.9174 Y56.8178
G01 X-42.9218 Y56.8140
G01 X-45.9109 Y53.8245
G01 X-45.9239 Y53.8083
G01 X-45.9298 Y53.7986
G01 X-45.9403 Y53.7724
G01 X-45.9431 Y53.7603
G01 X-45.9448 Y53.7335
G01 X-45.9447 Y53.7287
G01 X-45.9438 Y53.7205
G01 X-45.9428 Y53.7156
G01 X-45.9395 Y53.7047
G01 X-45.9367 Y53.6938
G01 X-45.9351 Y53.6893
G01 X-45.9322 Y53.6830
G01 X-45.9292 Y53.6776
G01 X-45.9226 Y53.6682
G01 X-45.9170 Y53.6595
G01 X-45.9114 Y53.6526
G01 X-45.7439 Y53.4850
G01 X-46.2962 Y53.4850
G01 X-46.3011 Y53.4846
G01 X-46.3071 Y53.4835
G01 X-46.3164 Y53.4802
G01 X-46.3207 Y53.4779
G01 X-46.3258 Y53.4744
G01 X-46.3304 Y53.4704
G01 X-46.3337 Y53.4667
G01 X-46.3385 Y53.4596
G01 X-46.3416 Y53.4530
G01 X-46.3440 Y53.4448
G01 X-46.3450 Y53.4362
G01 X-46.3450 Y52.5976
G01 X-46.3743 Y52.6794
G01 X-46.4297 Y52.7962
G01 X-46.4949 Y52.9050
G01 X-46.5705 Y53.0069
G01 X-46.6572 Y53.1028
G01 X-46.7512 Y53.1880
G01 X-46.8540 Y53.2644
G01 X-46.8947 Y53.2889
G01 X-46.8947 Y54.1361
G01 X-43.2641 Y57.7667
G01 X-30.6882 Y57.7667
G01 X-30.2967 Y57.3752
G01 X-30.2902 Y57.3697
G01 X-30.2827 Y57.3654
G01 X-30.2782 Y57.3635
G01 X-30.2723 Y57.3618
G01 X-30.2663 Y57.3608
G01 X-30.2614 Y57.3606
G01 X-29.7078 Y57.3606
G01 X-29.3608 Y57.0137
G01 X-29.3128 Y56.9702
G01 X-29.2607 Y56.9316
G01 X-29.2011 Y56.8956
G01 X-29.1403 Y56.8668
G01 X-29.0793 Y56.8450
G01 X-29.0093 Y56.8274
G01 X-28.9452 Y56.8180
G01 X-28.8805 Y56.8147
G01 X-28.6853 Y56.8147
G01 X-28.6853 Y52.6782
G01 X-29.0176 Y52.3458
G01 X-29.0216 Y52.3411
G01 X-29.0249 Y52.3360
G01 X-29.0276 Y52.3305
G01 X-29.0296 Y52.3247
G01 X-29.0309 Y52.3187
G01 X-29.0314 Y52.3114
G01 X-29.0314 Y51.4486
G01 X-29.0310 Y51.4425
G01 X-29.0299 Y51.4365
G01 X-29.0280 Y51.4306
G01 X-29.0249 Y51.4240
G01 X-29.0208 Y51.4179
G01 X-29.0168 Y51.4133
G01 X-28.4067 Y50.8032
G01 X-28.4011 Y50.7984
G01 X-28.3949 Y50.7945
G01 X-28.3894 Y50.7920
G01 X-28.3835 Y50.7901
G01 X-28.3775 Y50.7890
G01 X-28.3714 Y50.7886
G01 X-27.8178 Y50.7886
G01 X-26.0853 Y49.0561
G01 X-26.0853 Y44.1714
G01 X-26.7054 Y43.5514
G01 X-26.7094 Y43.5468
G01 X-26.7122 Y43.5428
G01 X-26.7152 Y43.5374
G01 X-26.7171 Y43.5329
G01 X-26.7193 Y43.5246
G01 X-26.7200 Y43.5161
G01 X-26.7200 Y42.4639
G01 X-26.7193 Y42.4554
G01 X-26.7175 Y42.4483
G01 X-26.7147 Y42.4415
G01 X-26.7109 Y42.4352
G01 X-26.7054 Y42.4286
G01 X-25.9614 Y41.6846
G01 X-25.9538 Y41.6784
G01 X-25.9452 Y41.6738
G01 X-25.9358 Y41.6710
G01 X-25.9261 Y41.6700
G01 X-24.8739 Y41.6700
G01 X-24.8654 Y41.6707
G01 X-24.8583 Y41.6725
G01 X-24.8515 Y41.6753
G01 X-24.8452 Y41.6791
G01 X-24.8386 Y41.6846
G01 X-24.0946 Y42.4286
G01 X-24.0884 Y42.4362
G01 X-24.0838 Y42.4448
G01 X-24.0810 Y42.4542
G01 X-24.0800 Y42.4627
G01 X-24.0800 Y43.5161
G01 X-24.0807 Y43.5246
G01 X-24.0829 Y43.5329
G01 X-24.0853 Y43.5385
G01 X-24.0878 Y43.5428
G01 X-24.0906 Y43.5468
G01 X-24.0946 Y43.5514
G01 X-24.7147 Y44.1714
G01 X-24.7147 Y49.3400
G01 X-24.7180 Y49.4072
G01 X-24.7276 Y49.4725
G01 X-24.7450 Y49.5413
G01 X-24.7668 Y49.6023
G01 X-24.7956 Y49.6631
G01 X-24.8316 Y49.7227
G01 X-24.8702 Y49.7748
G01 X-24.9137 Y49.8228
G01 X-26.8486 Y51.7578
G01 X-26.8486 Y52.3114
G01 X-26.8490 Y52.3175
G01 X-26.8498 Y52.3223
G01 X-26.8529 Y52.3316
G01 X-26.8577 Y52.3402
G01 X-26.8632 Y52.3467
G01 X-27.3147 Y52.7982
G01 X-27.3147 Y56.8147
G01 X-20.6718 Y56.8147
G01 X-20.1788 Y56.3216
G01 X-20.1742 Y56.3176
G01 X-20.1702 Y56.3148
G01 X-20.1648 Y56.3118
G01 X-20.1591 Y56.3095
G01 X-20.1508 Y56.3075
G01 X-20.1434 Y56.3070
G01 X-19.1966 Y56.3070
G01 X-19.1917 Y56.3072
G01 X-19.1856 Y56.3082
G01 X-19.1786 Y56.3104
G01 X-19.1730 Y56.3129
G01 X-19.1668 Y56.3168
G01 X-19.1612 Y56.3216
G01 X-18.4916 Y56.9912
G01 X-18.4854 Y56.9988
G01 X-18.4808 Y57.0074
G01 X-18.4780 Y57.0168
G01 X-18.4770 Y57.0266
G01 X-18.4770 Y57.9734
G01 X-18.4780 Y57.9832
G01 X-18.4808 Y57.9926
G01 X-18.4854 Y58.0012
G01 X-18.4916 Y58.0088
G01 X-19.1621 Y58.6792
G01 X-19.1688 Y58.6846
G01 X-19.1774 Y58.6892
G01 X-19.1868 Y58.6920
G01 X-19.1966 Y58.6930
G01 X-20.1434 Y58.6930
G01 X-20.1508 Y58.6925
G01 X-20.1591 Y58.6905
G01 X-20.1648 Y58.6882
G01 X-20.1702 Y58.6852
G01 X-20.1752 Y58.6816
G01 X-20.1788 Y58.6784
G01 X-20.6718 Y58.1853
G01 X-28.5941 Y58.1853
G01 X-28.7386 Y58.3298
G01 X-28.7386 Y58.8846
G01 X-28.7393 Y58.8919
G01 X-28.7408 Y58.8979
G01 X-28.7429 Y58.9036
G01 X-28.7457 Y58.9091
G01 X-28.7492 Y58.9141
G01 X-28.7532 Y58.9187
G01 X-29.3642 Y59.5296
G01 X-29.3719 Y59.5356
G01 X-29.3795 Y59.5396
G01 X-29.3877 Y59.5422
G01 X-29.3974 Y59.5434
G01 X-30.2614 Y59.5434
G01 X-30.2687 Y59.5429
G01 X-30.2759 Y59.5412
G01 X-30.2816 Y59.5391
G01 X-30.2871 Y59.5363
G01 X-30.2921 Y59.5328
G01 X-30.2967 Y59.5288
G01 X-30.6882 Y59.1373
G01 X-43.5480 Y59.1373
G01 X-43.6176 Y59.1337
G01 X-43.6817 Y59.1241
G01 X-43.7469 Y59.1078
G01 X-43.8103 Y59.0852
G01 X-43.8689 Y59.0575
G01 X-43.9307 Y59.0204
G01 X-43.9828 Y58.9818
G01 X-44.0317 Y58.9374
G01 X-48.0646 Y54.9046
G01 X-48.1105 Y54.8538
G01 X-48.1498 Y54.8007
G01 X-48.1832 Y54.7452
G01 X-48.2132 Y54.6823
G01 X-48.2358 Y54.6189
G01 X-48.2516 Y54.5561
G01 X-48.2620 Y54.4872
G01 X-48.2653 Y54.4200
G01 X-48.2653 Y53.2889
G01 X-48.3060 Y53.2644
G01 X-48.4069 Y53.1895
G01 X-48.5019 Y53.1036
G01 X-48.5888 Y53.0079
G01 X-48.6644 Y52.9060
G01 X-48.7309 Y52.7952
G01 X-48.7852 Y52.6805
G01 X-48.8288 Y52.5588
G01 X-48.8500 Y52.4745
G01 X-48.8712 Y52.5588
G01 X-48.9139 Y52.6783
G01 X-48.9697 Y52.7962
G01 X-49.0349 Y52.9050
G01 X-49.1097 Y53.0059
G01 X-49.1981 Y53.1036
G01 X-49.2921 Y53.1888
G01 X-49.3930 Y53.2637
G01 X-49.5048 Y53.3309
G01 X-49.6206 Y53.3857
G01 X-49.7388 Y53.4280
G01 X-49.8666 Y53.4601
G01 X-49.9921 Y53.4787
G01 X-50.1175 Y53.4849
G01 X-50.2479 Y53.4787
G01 X-50.3770 Y53.4594
G01 X-50.4988 Y53.4288
G01 X-50.6194 Y53.3857
G01 X-50.7373 Y53.3297
G01 X-50.8450 Y53.2651
G01 X-50.9479 Y53.1888
G01 X-51.0445 Y53.1010
G01 X-51.1288 Y53.0079
G01 X-51.2044 Y52.9060
G01 X-51.2709 Y52.7952
G01 X-51.3247 Y52.6816
G01 X-51.3695 Y52.5565
G01 X-51.3999 Y52.4346
G01 X-51.4187 Y52.3079
G01 X-51.4250 Y52.1800
G01 X-51.4188 Y52.0533
G01 X-51.3999 Y51.9254
G01 X-51.3680 Y51.7988
G01 X-51.3257 Y51.6806
G01 X-51.2720 Y51.5670
G01 X-51.2057 Y51.4560
G01 X-51.1288 Y51.3521
G01 X-51.0419 Y51.2564
G01 X-50.9469 Y51.1705
G01 X-50.8460 Y51.0956
G01 X-50.8053 Y51.0711
G01 X-50.8053 Y48.1639
G01 X-53.2139 Y45.7553
G01 X-84.0118 Y45.7553
G01 X-84.4033 Y46.1468
G01 X-84.4079 Y46.1508
G01 X-84.4129 Y46.1543
G01 X-84.4184 Y46.1571
G01 X-84.4241 Y46.1592
G01 X-84.4313 Y46.1609
G01 X-84.4386 Y46.1614
G01 X-85.3014 Y46.1614
G01 X-85.3075 Y46.1610
G01 X-85.3135 Y46.1599
G01 X-85.3194 Y46.1580
G01 X-85.3260 Y46.1549
G01 X-85.3321 Y46.1508
G01 X-85.3367 Y46.1468
G01 X-85.9476 Y45.5358
G01 X-85.9530 Y45.5291
G01 X-85.9576 Y45.5205
G01 X-85.9604 Y45.5111
G01 X-85.9614 Y45.5026
G01 X-85.9614 Y44.6386
G01 X-85.9609 Y44.6313
G01 X-85.9592 Y44.6241
G01 X-85.9571 Y44.6184
G01 X-85.9543 Y44.6129
G01 X-85.9508 Y44.6079
G01 X-85.9468 Y44.6033
G01 X-85.5553 Y44.2118
G01 X-85.5553 Y33.4139
G01 X-88.1439 Y30.8253
G01 X-90.7153 Y30.8253
G01 X-90.7324 Y30.8535
G01 X-90.8059 Y30.9527
G01 X-90.8904 Y31.0460
G01 X-90.9845 Y31.1314
G01 X-91.0866 Y31.2070
G01 X-91.1957 Y31.2722
G01 X-91.3073 Y31.3249
G01 X-91.4235 Y31.3665
G01 X-91.5479 Y31.3979
G01 X-91.6724 Y31.4163
G01 X-91.7981 Y31.4225
G01 X-94.2619 Y31.4225
G01 X-94.3852 Y31.4165
G01 X-94.5145 Y31.3973
G01 X-94.6342 Y31.3673
G01 X-94.7527 Y31.3249
G01 X-94.8665 Y31.2711
G01 X-94.9724 Y31.2077
G01 X-95.0774 Y31.1298
G01 X-95.1688 Y31.0469
G01 X-95.2533 Y30.9536
G01 X-95.3283 Y30.8525
G01 X-95.3918 Y30.7467
G01 X-95.4477 Y30.6285
G01 X-95.4892 Y30.5123
G01 X-95.5200 Y30.3890
G01 X-95.5382 Y30.2657
G01 X-95.5444 Y30.1400
G01 X-95.5382 Y30.0143
G01 X-95.5192 Y29.8874
G01 X-95.4892 Y29.7677
G01 X-95.4458 Y29.6470
G01 X-95.3918 Y29.5333
G01 X-95.3283 Y29.4275
G01 X-95.2548 Y29.3283
G01 X-95.1688 Y29.2331
G01 X-95.0755 Y29.1486
G01 X-94.9744 Y29.0736
G01 X-94.8665 Y29.0089
G01 X-94.7527 Y28.9551
G01 X-94.6342 Y28.9127
G01 X-94.5121 Y28.8821
G01 X-94.3888 Y28.8638
G01 X-94.2619 Y28.8575
G01 X-91.7981 Y28.8575
G01 X-91.6724 Y28.8637
G01 X-91.5503 Y28.8817
G01 X-91.4258 Y28.9127
G01 X-91.3073 Y28.9551
G01 X-91.1935 Y29.0089
G01 X-91.0846 Y29.0743
G01 X-90.9845 Y29.1486
G01 X-90.8904 Y29.2340
G01 X-90.8059 Y29.3273
G01 X-90.7324 Y29.4265
G01 X-90.7153 Y29.4547
G01 X-87.8600 Y29.4547
G01 X-87.7928 Y29.4580
G01 X-87.7263 Y29.4679
G01 X-87.6611 Y29.4842
G01 X-87.6000 Y29.5060
G01 X-87.5369 Y29.5356
G01 X-87.4773 Y29.5716
G01 X-87.4252 Y29.6102
G01 X-87.3763 Y29.6546
G01 X-84.3854 Y32.6454
G01 X-84.3402 Y32.6952
G01 X-84.3002 Y32.7493
G01 X-84.2668 Y32.8048
G01 X-84.2360 Y32.8700
G01 X-84.2142 Y32.9311
G01 X-84.1979 Y32.9963
G01 X-84.1880 Y33.0628
G01 X-84.1847 Y33.1288
G01 X-84.1847 Y44.2118
G01 X-84.0118 Y44.3847
G01 X-52.9300 Y44.3847
G01 X-52.8628 Y44.3880
G01 X-52.7963 Y44.3979
G01 X-52.7311 Y44.4142
G01 X-52.6700 Y44.4360
G01 X-52.6069 Y44.4656
G01 X-52.5473 Y44.5016
G01 X-52.4952 Y44.5402
G01 X-52.4463 Y44.5846
G01 X-49.6354 Y47.3954
G01 X-49.5887 Y47.4472
G01 X-49.5502 Y47.4993
G01 X-49.5156 Y47.5569
G01 X-49.4868 Y47.6177
G01 X-49.4635 Y47.6834
G01 X-49.4479 Y47.7463
G01 X-49.4383 Y47.8104
G01 X-49.4347 Y47.8788
G01 X-49.4347 Y51.0711
G01 X-49.3940 Y51.0956
G01 X-49.2931 Y51.1705
G01 X-49.1981 Y51.2564
G01 X-49.1112 Y51.3521
G01 X-49.0356 Y51.4540
G01 X-48.9691 Y51.5648
G01 X-48.9148 Y51.6795
G01 X-48.8712 Y51.8012
G01 X-48.8500 Y51.8855
G01 X-48.8288 Y51.8012
G01 X-48.7852 Y51.6795
G01 X-48.7309 Y51.5648
G01 X-48.6657 Y51.4560
G01 X-48.5872 Y51.3503
G01 X-48.5028 Y51.2572
G01 X-48.4088 Y51.1720
G01 X-48.3029 Y51.0936
G01 X-48.1952 Y51.0291
G01 X-48.0794 Y50.9743
G01 X-47.9588 Y50.9312
G01 X-47.8370 Y50.9006
G01 X-47.7055 Y50.8811
G01 X-47.5800 Y50.8750
G01 X-47.4521 Y50.8813
G01 X-47.3254 Y50.9001
G01 X-47.2035 Y50.9305
G01 X-47.0784 Y50.9753
G01 X-46.9648 Y51.0291
G01 X-46.8560 Y51.0943
G01 X-46.7503 Y51.1728
G01 X-46.6572 Y51.2572
G01 X-46.5705 Y51.3531
G01 X-46.4949 Y51.4550
G01 X-46.4297 Y51.5638
G01 X-46.3743 Y51.6806
G01 X-46.3450 Y51.7624
G01 X-46.3450 Y50.9250
G01 X-46.3445 Y50.9177
G01 X-46.3428 Y50.9105
G01 X-46.3402 Y50.9036
G01 X-46.3366 Y50.8972
G01 X-46.3329 Y50.8923
G01 X-46.3286 Y50.8880
G01 X-46.3238 Y50.8841
G01 X-46.3196 Y50.8815
G01 X-46.3153 Y50.8793
G01 X-46.3095 Y50.8772
G01 X-46.3036 Y50.8757
G01 X-46.2975 Y50.8751
G01 X-45.7440 Y50.8750
G01 X-46.3218 Y50.2971
G01 X-47.1382 Y49.9589
G01 X-48.0218 Y49.9589
G01 X-48.3456 Y50.0931
G01 X-48.3503 Y50.0948
G01 X-48.3684 Y50.0998
G01 X-48.3842 Y50.1019
G01 X-48.3916 Y50.1020
G01 X-48.3992 Y50.1013
G01 X-48.4068 Y50.1012
G01 X-48.4116 Y50.1008
G01 X-48.4285 Y50.0970
G01 X-48.4387 Y50.0927
G01 X-48.4491 Y50.0889
G01 X-48.4613 Y50.0819
G01 X-48.4673 Y50.0777
G01 X-48.4838 Y50.0634
G01 X-48.4922 Y50.0536
G01 X-48.4957 Y50.0488
G01 X-48.4999 Y50.0413
G01 X-48.5058 Y50.0319
G01 X-48.5115 Y50.0189
G01 X-48.5134 Y50.0130
G01 X-48.5151 Y50.0036
G01 X-48.5176 Y49.9944
G01 X-48.5182 Y49.9893
G01 X-48.5189 Y49.9774
G01 X-48.5189 Y47.5615
G01 X-48.7627 Y46.9730
G01 X-52.0230 Y43.7127
G01 X-52.6115 Y43.4689
G01 X-83.1428 Y43.4689
G01 X-83.1660 Y43.4667
G01 X-83.1770 Y43.4642
G01 X-83.1829 Y43.4621
G01 X-83.2068 Y43.4515
G01 X-83.2175 Y43.4443
G01 X-83.2266 Y43.4357
G01 X-83.2351 Y43.4284
G01 X-83.2400 Y43.4232
G01 X-83.2468 Y43.4136
G01 X-83.2583 Y43.3932
G01 X-83.2627 Y43.3822
G01 X-83.2639 Y43.3773
G01 X-83.2658 Y43.3661
G01 X-83.2681 Y43.3549
G01 X-83.2687 Y43.3502
G01 X-83.2689 Y43.3428
G01 X-83.2689 Y32.8115
G01 X-83.5127 Y32.2230
G01 X-86.9194 Y28.8164
G01 X-86.9271 Y28.8080
G01 X-86.9364 Y28.7952
G01 X-86.9395 Y28.7897
G01 X-86.9419 Y28.7841
G01 X-86.9455 Y28.7780
G01 X-86.9479 Y28.7726
G01 X-86.9528 Y28.7566
G01 X-86.9543 Y28.7455
G01 X-86.9558 Y28.7377
G01 X-86.9562 Y28.7315
G01 X-86.9558 Y28.7162
G01 X-86.9518 Y28.6937
G01 X-86.9455 Y28.6763
G01 X-86.9341 Y28.6558
G01 X-86.9253 Y28.6445
G01 X-86.9204 Y28.6392
G01 X-86.9149 Y28.6348
G01 X-86.9072 Y28.6274
G01 X-86.8952 Y28.6193
G01 X-86.8897 Y28.6161
G01 X-86.8815 Y28.6128
G01 X-86.8738 Y28.6089
G01 X-86.8681 Y28.6069
G01 X-86.8532 Y28.6032
G01 X-86.8302 Y28.6011
G01 X-77.6815 Y28.6011
G01 X-77.0930 Y28.3573
G01 X-75.7718 Y27.0362
G01 X-75.7612 Y27.0270
G01 X-75.7495 Y27.0192
G01 X-75.7385 Y27.0142
G01 X-75.7279 Y27.0088
G01 X-75.7235 Y27.0072
G01 X-75.7133 Y27.0044
G01 X-75.6910 Y27.0015
G01 X-75.6846 Y27.0011
G01 X-75.6487 Y27.0012
G01 X-75.6296 Y27.0031
G01 X-75.6229 Y27.0043
G01 X-75.6171 Y27.0061
G01 X-75.5927 Y27.0157
G01 X-75.5855 Y27.0196
G01 X-75.5804 Y27.0233
G01 X-75.5611 Y27.0396
G01 X-75.5547 Y27.0462
G01 X-75.5510 Y27.0513
G01 X-75.5362 Y27.0758
G01 X-75.2949 Y27.6581
G01 X-74.7159 Y28.2371
G01 X-73.9595 Y28.5505
G01 X-73.1405 Y28.5505
G01 X-72.7844 Y28.4029
G01 X-72.7797 Y28.4012
G01 X-72.7616 Y28.3962
G01 X-72.7458 Y28.3941
G01 X-72.7396 Y28.3939
G01 X-72.7308 Y28.3947
G01 X-72.7196 Y28.3951
G01 X-72.7027 Y28.3986
G01 X-72.6979 Y28.4003
G01 X-72.6913 Y28.4033
G01 X-72.6832 Y28.4060
G01 X-72.6764 Y28.4095
G01 X-72.6646 Y28.4168
G01 X-72.6566 Y28.4240
G01 X-72.6479 Y28.4309
G01 X-72.6356 Y28.4452
G01 X-72.6301 Y28.4547
G01 X-72.6253 Y28.4619
G01 X-72.6226 Y28.4673
G01 X-72.6181 Y28.4783
G01 X-72.6163 Y28.4842
G01 X-72.6149 Y28.4924
G01 X-72.6122 Y28.5029
G01 X-72.6112 Y28.5173
G01 X-72.6111 Y29.3085
G01 X-72.3673 Y29.8970
G01 X-68.7870 Y33.4773
G01 X-68.1985 Y33.7211
G01 X-52.8972 Y33.7211
G01 X-52.8751 Y33.7232
G01 X-52.8693 Y33.7242
G01 X-52.8582 Y33.7274
G01 X-52.8377 Y33.7363
G01 X-52.8321 Y33.7391
G01 X-52.8225 Y33.7457
G01 X-52.8134 Y33.7543
G01 X-52.8049 Y33.7616
G01 X-52.8015 Y33.7650
G01 X-52.7938 Y33.7754
G01 X-52.7828 Y33.7947
G01 X-52.7802 Y33.8001
G01 X-52.7763 Y33.8115
G01 X-52.7742 Y33.8239
G01 X-52.7721 Y33.8340
G01 X-52.7713 Y33.8400
G01 X-52.7711 Y33.8472
G01 X-52.7711 Y34.2043
G01 X-52.7721 Y34.2204
G01 X-52.7749 Y34.2351
G01 X-52.7791 Y34.2462
G01 X-52.7825 Y34.2566
G01 X-52.7882 Y34.2678
G01 X-52.7921 Y34.2739
G01 X-52.8063 Y34.2916
G01 X-53.0010 Y34.4865
G01 X-53.3299 Y35.2803
G01 X-53.3299 Y36.1397
G01 X-53.0010 Y36.9335
G01 X-52.3935 Y37.5410
G01 X-51.5997 Y37.8699
G01 X-50.7403 Y37.8699
G01 X-49.9465 Y37.5410
G01 X-49.3390 Y36.9335
G01 X-49.0101 Y36.1397
G01 X-49.0101 Y35.2803
G01 X-49.3390 Y34.4865
G01 X-49.5335 Y34.2918
G01 X-49.5430 Y34.2808
G01 X-49.5497 Y34.2711
G01 X-49.5602 Y34.2499
G01 X-49.5624 Y34.2444
G01 X-49.5661 Y34.2304
G01 X-49.5689 Y34.2056
G01 X-49.5687 Y33.8432
G01 X-49.5665 Y33.8228
G01 X-49.5642 Y33.8130
G01 X-49.5621 Y33.8071
G01 X-49.5521 Y33.7843
G01 X-49.5451 Y33.7735
G01 X-49.5292 Y33.7558
G01 X-49.5241 Y33.7507
G01 X-49.5167 Y33.7451
G01 X-49.4932 Y33.7317
G01 X-49.4822 Y33.7273
G01 X-49.4773 Y33.7261
G01 X-49.4661 Y33.7242
G01 X-49.4548 Y33.7219
G01 X-49.4428 Y33.7211
G01 X-44.6815 Y33.7211
G01 X-44.0930 Y33.4773
G01 X-43.6427 Y33.0270
G01 X-43.3989 Y32.4385
G01 X-43.3989 Y20.9424
G01 X-43.3977 Y20.9257
G01 X-43.3959 Y20.9150
G01 X-43.3943 Y20.9091
G01 X-43.3904 Y20.8994
G01 X-43.3866 Y20.8883
G01 X-43.3844 Y20.8837
G01 X-43.3789 Y20.8743
G01 X-43.3623 Y20.8537
G01 X-43.3547 Y20.8464
G01 X-43.3507 Y20.8433
G01 X-43.3407 Y20.8372
G01 X-43.3322 Y20.8313
G01 X-43.3258 Y20.8279
G01 X-43.3151 Y20.8237
G01 X-43.3036 Y20.8210
G01 X-43.2945 Y20.8184
G01 X-43.2885 Y20.8172
G01 X-43.2807 Y20.8165
G01 X-43.2734 Y20.8164
G01 X-43.2632 Y20.8175
G01 X-43.2527 Y20.8180
G01 X-43.2453 Y20.8193
G01 X-43.2345 Y20.8223
G01 X-43.2239 Y20.8271
G01 X-43.2142 Y20.8309
G01 X-43.2089 Y20.8336
G01 X-43.1985 Y20.8406
G01 X-43.1898 Y20.8486
G01 X-43.1817 Y20.8554
G01 X-43.1782 Y20.8589
G01 X-43.1700 Y20.8695
G01 X-43.1586 Y20.8893
G01 X-43.1563 Y20.8941
G01 X-42.8729 Y21.5782
G01 X-42.2482 Y22.2029
G01 X-41.4318 Y22.5411
G01 X-41.0854 Y22.5411
G01 X-41.0706 Y22.5420
G01 X-41.0593 Y22.5438
G01 X-41.0547 Y22.5449
G01 X-41.0309 Y22.5535
G01 X-41.0180 Y22.5606
G01 X-41.0080 Y22.5688
G01 X-40.9997 Y22.5749
G01 X-37.4680 Y26.1062
G01 X-37.4578 Y26.1179
G01 X-37.4504 Y26.1283
G01 X-37.4480 Y26.1327
G01 X-37.4442 Y26.1415
G01 X-37.4388 Y26.1521
G01 X-37.4369 Y26.1577
G01 X-37.4342 Y26.1679
G01 X-37.4312 Y26.1928
G01 X-37.4311 Y33.9828
G01 X-37.4314 Y33.9882
G01 X-37.4337 Y34.0084
G01 X-37.4358 Y34.0170
G01 X-37.4379 Y34.0229
G01 X-37.4473 Y34.0446
G01 X-37.4534 Y34.0545
G01 X-37.4565 Y34.0584
G01 X-37.4643 Y34.0666
G01 X-37.4724 Y34.0760
G01 X-37.4814 Y34.0835
G01 X-37.4864 Y34.0868
G01 X-37.5057 Y34.0977
G01 X-37.5155 Y34.1019
G01 X-37.5239 Y34.1042
G01 X-37.5339 Y34.1058
G01 X-37.5452 Y34.1081
G01 X-37.5512 Y34.1088
G01 X-39.5043 Y34.1089
G01 X-39.5216 Y34.1077
G01 X-39.5351 Y34.1051
G01 X-39.5462 Y34.1009
G01 X-39.5554 Y34.0979
G01 X-39.5601 Y34.0960
G01 X-39.5729 Y34.0886
G01 X-39.5817 Y34.0812
G01 X-39.5909 Y34.0744
G01 X-39.7865 Y33.8790
G01 X-40.5803 Y33.5501
G01 X-41.4397 Y33.5501
G01 X-42.2335 Y33.8790
G01 X-42.8410 Y34.4865
G01 X-43.1699 Y35.2803
G01 X-43.1699 Y36.1397
G01 X-42.8410 Y36.9335
G01 X-42.2335 Y37.5410
G01 X-41.4397 Y37.8699
G01 X-40.5803 Y37.8699
G01 X-39.7865 Y37.5410
G01 X-39.5934 Y37.3480
G01 X-39.5818 Y37.3377
G01 X-39.5691 Y37.3291
G01 X-39.5455 Y37.3180
G01 X-39.5316 Y37.3142
G01 X-39.5082 Y37.3112
G01 X-36.7791 Y37.3111
G01 X-36.7641 Y37.3121
G01 X-36.7505 Y37.3146
G01 X-36.7279 Y37.3225
G01 X-36.7166 Y37.3283
G01 X-36.7104 Y37.3323
G01 X-36.6928 Y37.3463
G01 X-36.6615 Y37.3775
G01 X-34.9985 Y37.3775
G01 X-34.6274 Y37.0064
G01 X-34.6168 Y36.9973
G01 X-34.6070 Y36.9904
G01 X-34.6026 Y36.9880
G01 X-34.5938 Y36.9842
G01 X-34.5832 Y36.9788
G01 X-34.5776 Y36.9769
G01 X-34.5671 Y36.9742
G01 X-34.5424 Y36.9712
G01 X-28.6554 Y36.9711
G01 X-28.6406 Y36.9720
G01 X-28.6293 Y36.9738
G01 X-28.6247 Y36.9749
G01 X-28.6136 Y36.9791
G01 X-28.6044 Y36.9821
G01 X-28.5997 Y36.9840
G01 X-28.5870 Y36.9913
G01 X-28.5671 Y37.0072
G01 X-27.6730 Y37.9012
G01 X-27.6628 Y37.9129
G01 X-27.6554 Y37.9233
G01 X-27.6447 Y37.9450
G01 X-27.6420 Y37.9521
G01 X-27.6389 Y37.9643
G01 X-27.6362 Y37.9878
G01 X-27.6361 Y38.3548
G01 X-27.2956 Y39.1767
G01 X-26.6667 Y39.8056
G01 X-25.8448 Y40.1461
G01 X-24.9552 Y40.1461
G01 X-24.1333 Y39.8056
G01 X-23.8758 Y39.5480
G01 X-23.8651 Y39.5386
G01 X-23.8558 Y39.5318
G01 X-23.8515 Y39.5292
G01 X-23.8277 Y39.5180
G01 X-23.8126 Y39.5140
G01 X-23.7878 Y39.5111
G01 X-6.8043 Y39.5111
G01 X-6.7894 Y39.5121
G01 X-6.7781 Y39.5141
G01 X-6.7724 Y39.5157
G01 X-6.7636 Y39.5191
G01 X-6.7520 Y39.5230
G01 X-6.7422 Y39.5281
G01 X-6.7370 Y39.5313
G01 X-6.7280 Y39.5388
G01 X-6.7206 Y39.5442
G01 X-6.7162 Y39.5480
G01 X-5.6380 Y40.6262
G01 X-5.6270 Y40.6388
G01 X-5.6192 Y40.6505
G01 X-5.6084 Y40.6732
G01 X-5.6042 Y40.6879
G01 X-5.6014 Y40.7103
G01 X-5.6011 Y40.7154
G01 X-5.6011 Y55.7514
G01 X-5.6017 Y55.7644
G01 X-5.6037 Y55.7771
G01 X-5.6048 Y55.7817
G01 X-5.6080 Y55.7903
G01 X-5.6097 Y55.7966
G01 X-5.6114 Y55.8013
G01 X-5.6181 Y55.8146
G01 X-5.6213 Y55.8198
G01 X-5.6267 Y55.8263
G01 X-5.6331 Y55.8354
G01 X-5.6470 Y55.8487
G01 X-5.6559 Y55.8545
G01 X-5.6646 Y55.8608
G01 X-5.6779 Y55.8675
G01 X-5.6826 Y55.8694
G01 X-5.6923 Y55.8718
G01 X-5.7026 Y55.8751
G01 X-5.7214 Y55.8774
G01 X-5.7447 Y55.8763
G01 X-5.7594 Y55.8733
G01 X-5.7653 Y55.8715
G01 X-5.7720 Y55.8685
G01 X-5.7802 Y55.8658
G01 X-5.7867 Y55.8625
G01 X-5.7996 Y55.8546
G01 X-5.8071 Y55.8480
G01 X-5.8134 Y55.8433
G01 X-5.9019 Y55.7551
G01 X-6.6583 Y55.4417
G01 X-7.9018 Y55.4417
G01 X-7.9181 Y55.4406
G01 X-7.9321 Y55.4380
G01 X-7.9436 Y55.4337
G01 X-7.9538 Y55.4304
G01 X-7.9653 Y55.4246
G01 X-7.9713 Y55.4207
G01 X-7.9792 Y55.4140
G01 X-7.9893 Y55.4064
G01 X-8.2530 Y55.1427
G01 X-8.8415 Y54.8989
G01 X-13.9085 Y54.8989
G01 X-14.4970 Y55.1427
G01 X-14.7092 Y55.3549
G01 X-14.7208 Y55.3650
G01 X-14.7303 Y55.3716
G01 X-14.7520 Y55.3823
G01 X-14.7579 Y55.3846
G01 X-14.7713 Y55.3881
G01 X-14.7824 Y55.3892
G01 X-14.7923 Y55.3906
G01 X-14.7974 Y55.3909
G01 X-15.4636 Y55.3909
G01 X-16.6991 Y56.6264
G01 X-16.6991 Y58.3736
G01 X-16.2743 Y58.7984
G01 X-16.2222 Y58.8079
G01 X-16.0488 Y58.8352
G01 X-15.8750 Y58.8584
G01 X-15.7006 Y58.8773
G01 X-15.5257 Y58.8921
G01 X-15.3507 Y58.9026
G01 X-15.1754 Y58.9089
G01 X-15.0000 Y58.9110
G01 X-14.8246 Y58.9089
G01 X-14.6493 Y58.9026
G01 X-14.4743 Y58.8921
G01 X-14.2994 Y58.8773
G01 X-14.1250 Y58.8584
G01 X-13.9512 Y58.8352
G01 X-13.7778 Y58.8079
G01 X-13.6052 Y58.7765
G01 X-13.4335 Y58.7409
G01 X-13.2626 Y58.7011
G01 X-13.0364 Y58.6429
G01 X-12.9904 Y58.6322
G01 X-12.9370 Y58.6211
G01 X-12.8837 Y58.6112
G01 X-12.8226 Y58.6017
G01 X-12.7680 Y58.5945
G01 X-12.7216 Y58.5894
G01 X-12.6943 Y58.5870
G01 X-12.4809 Y58.3736
G01 X-12.4809 Y58.2259
G01 X-12.4785 Y58.2028
G01 X-12.4754 Y58.1906
G01 X-12.4657 Y58.1677
G01 X-12.4622 Y58.1610
G01 X-12.4563 Y58.1525
G01 X-12.4477 Y58.1434
G01 X-12.4396 Y58.1340
G01 X-12.4316 Y58.1272
G01 X-12.4256 Y58.1232
G01 X-12.4052 Y58.1117
G01 X-12.3930 Y58.1070
G01 X-12.3668 Y58.1019
G01 X-12.3548 Y58.1011
G01 X-11.3154 Y58.1011
G01 X-11.2936 Y58.1031
G01 X-11.2845 Y58.1049
G01 X-11.2578 Y58.1153
G01 X-11.2492 Y58.1198
G01 X-11.2434 Y58.1241
G01 X-11.2251 Y58.1396
G01 X-11.2208 Y58.1438
G01 X-11.2150 Y58.1513
G01 X-11.2013 Y58.1738
G01 X-11.1988 Y58.1790
G01 X-10.9971 Y58.6659
G01 X-10.6707 Y58.9923
G01 X-9.9972 Y59.1747
G01 X-9.9762 Y59.1559
G01 X-9.8860 Y59.0892
G01 X-9.7909 Y59.0322
G01 X-9.6906 Y58.9847
G01 X-9.5816 Y58.9458
G01 X-9.4751 Y58.9192
G01 X-9.3630 Y58.9027
G01 X-9.2522 Y58.8973
G01 X-7.0678 Y58.8973
G01 X-6.9558 Y58.9028
G01 X-6.8449 Y58.9192
G01 X-6.7337 Y58.9472
G01 X-6.6305 Y58.9842
G01 X-6.5313 Y59.0311
G01 X-6.4329 Y59.0898
G01 X-6.3428 Y59.1566
G01 X-6.2581 Y59.2337
G01 X-6.1844 Y59.3150
G01 X-6.1191 Y59.4031
G01 X-6.0600 Y59.5013
G01 X-6.0112 Y59.6050
G01 X-5.9743 Y59.7083
G01 X-5.9475 Y59.8147
G01 X-5.9306 Y59.9280
G01 X-5.9251 Y60.0425
G01 X-5.9306 Y60.1520
G01 X-5.9466 Y60.2605
G01 X-5.9743 Y60.3717
G01 X-6.0130 Y60.4796
G01 X-6.0600 Y60.5787
G01 X-6.1163 Y60.6728
G01 X-6.1837 Y60.7640
G01 X-6.2598 Y60.8480
G01 X-6.3428 Y60.9234
G01 X-6.4329 Y60.9902
G01 X-6.5291 Y61.0478
G01 X-6.6305 Y61.0958
G01 X-6.7361 Y61.1335
G01 X-6.8449 Y61.1608
G01 X-6.9546 Y61.1771
G01 X-7.0678 Y61.1827
G01 X-9.2522 Y61.1827
G01 X-9.3642 Y61.1772
G01 X-9.4763 Y61.1605
G01 X-9.5839 Y61.1335
G01 X-9.6895 Y61.0958
G01 X-9.7909 Y61.0478
G01 X-9.8860 Y60.9908
G01 X-9.9772 Y60.9234
G01 X-10.0594 Y60.8489
G01 X-10.1348 Y60.7659
G01 X-10.1692 Y60.7198
G01 X-10.1796 Y60.7297
G01 X-10.1882 Y60.7355
G01 X-10.1941 Y60.7403
G01 X-10.1992 Y60.7434
G01 X-10.2107 Y60.7491
G01 X-10.3058 Y60.7885
G01 X-10.3264 Y60.7948
G01 X-10.3333 Y60.7961
G01 X-10.3381 Y60.7965
G01 X-10.3643 Y60.7969
G01 X-10.3729 Y60.7961
G01 X-10.3789 Y60.7946
G01 X-10.4037 Y60.7867
G01 X-10.4106 Y60.7836
G01 X-10.4175 Y60.7794
G01 X-10.4371 Y60.7650
G01 X-10.4421 Y60.7607
G01 X-11.4889 Y59.7138
G01 X-12.1609 Y59.3259
G01 X-12.2022 Y59.3172
G01 X-12.2390 Y59.3105
G01 X-12.2760 Y59.3047
G01 X-12.3134 Y59.2997
G01 X-12.3503 Y59.2957
G01 X-12.3877 Y59.2926
G01 X-12.4251 Y59.2903
G01 X-12.4625 Y59.2890
G01 X-12.5000 Y59.2885
G01 X-12.5375 Y59.2890
G01 X-12.5749 Y59.2903
G01 X-12.6123 Y59.2926
G01 X-12.6497 Y59.2957
G01 X-12.6866 Y59.2997
G01 X-12.7240 Y59.3047
G01 X-12.7610 Y59.3105
G01 X-12.7978 Y59.3172
G01 X-12.8346 Y59.3248
G01 X-12.8709 Y59.3333
G01 X-13.0971 Y59.3915
G01 X-13.2774 Y59.4335
G01 X-13.4660 Y59.4726
G01 X-13.6626 Y59.5084
G01 X-13.8526 Y59.5383
G01 X-14.0436 Y59.5636
G01 X-14.2348 Y59.5842
G01 X-14.4272 Y59.6004
G01 X-14.6189 Y59.6119
G01 X-14.8119 Y59.6187
G01 X-15.0036 Y59.6209
G01 X-15.1881 Y59.6187
G01 X-15.3811 Y59.6119
G01 X-15.5807 Y59.5998
G01 X-15.7729 Y59.5835
G01 X-15.9645 Y59.5626
G01 X-16.1474 Y59.5383
G01 X-16.2651 Y59.5198
G01 X-16.6011 Y59.7138
G01 X-17.9881 Y61.1009
G01 X-18.0063 Y61.1158
G01 X-18.0169 Y61.1223
G01 X-18.0433 Y61.1330
G01 X-18.0554 Y61.1358
G01 X-18.0811 Y61.1374
G01 X-18.0885 Y61.1373
G01 X-18.0993 Y61.1357
G01 X-18.1111 Y61.1322
G01 X-18.1219 Y61.1294
G01 X-18.1285 Y61.1269
G01 X-18.1374 Y61.1224
G01 X-18.1476 Y61.1152
G01 X-18.1571 Y61.1090
G01 X-18.1618 Y61.1053
G01 X-18.7964 Y60.4709
G01 X-20.5436 Y60.4709
G01 X-21.7791 Y61.7064
G01 X-21.7791 Y63.4536
G01 X-20.5436 Y64.6891
G01 X-18.7964 Y64.6891
G01 X-17.9952 Y63.8878
G01 X-17.9826 Y63.8768
G01 X-17.9720 Y63.8696
G01 X-17.9504 Y63.8591
G01 X-17.9437 Y63.8567
G01 X-17.9323 Y63.8538
G01 X-17.9073 Y63.8509
G01 X-17.4172 Y63.8509
G01 X-16.9501 Y63.6574
G01 X-16.7134 Y63.4206
G01 X-16.7086 Y63.4164
G01 X-16.6952 Y63.4058
G01 X-16.6890 Y63.4017
G01 X-16.6764 Y63.3951
G01 X-16.6663 Y63.3918
G01 X-16.6575 Y63.3883
G01 X-16.6516 Y63.3868
G01 X-16.6376 Y63.3845
G01 X-16.6265 Y63.3845
G01 X-16.6180 Y63.3840
G01 X-16.6107 Y63.3845
G01 X-16.5966 Y63.3868
G01 X-16.5863 Y63.3904
G01 X-16.5783 Y63.3925
G01 X-16.5716 Y63.3952
G01 X-16.5587 Y63.4021
G01 X-16.5503 Y63.4086
G01 X-16.5414 Y63.4147
G01 X-16.5310 Y63.4249
G01 X-16.5263 Y63.4304
G01 X-16.5217 Y63.4377
G01 X-16.5152 Y63.4465
G01 X-16.5077 Y63.4616
G01 X-16.3780 Y63.7747
G01 X-15.7847 Y64.3680
G01 X-15.0096 Y64.6891
G01 X-14.7940 Y64.6892
G01 X-14.7802 Y64.6903
G01 X-14.7667 Y64.6929
G01 X-14.7440 Y64.7010
G01 X-14.7310 Y64.7079
G01 X-14.7270 Y64.7108
G01 X-14.7200 Y64.7168
G01 X-14.7126 Y64.7222
G01 X-14.7082 Y64.7260
G01 X-13.7980 Y65.6362
G01 X-13.7855 Y65.6509
G01 X-13.7786 Y65.6616
G01 X-13.7742 Y65.6715
G01 X-13.7698 Y65.6799
G01 X-13.7676 Y65.6854
G01 X-13.7640 Y65.6991
G01 X-13.7628 Y65.7104
G01 X-13.7614 Y65.7203
G01 X-13.7611 Y65.7254
G01 X-13.7612 Y69.6977
G01 X-13.7621 Y69.7104
G01 X-13.7641 Y69.7217
G01 X-13.7657 Y69.7274
G01 X-13.7691 Y69.7362
G01 X-13.7725 Y69.7466
G01 X-13.7752 Y69.7524
G01 X-13.7807 Y69.7619
G01 X-13.7888 Y69.7717
G01 X-13.7949 Y69.7800
G01 X-13.9910 Y69.9765
G01 X-14.3199 Y70.7703
G01 X-14.3199 Y71.6297
G01 X-14.0734 Y72.2246
G01 X-14.0714 Y72.2302
G01 X-14.0664 Y72.2482
G01 X-14.0642 Y72.2641
G01 X-14.0640 Y72.2703
G01 X-14.0648 Y72.2789
G01 X-14.0650 Y72.2900
G01 X-14.0680 Y72.3047
G01 X-14.0697 Y72.3105
G01 X-14.0733 Y72.3187
G01 X-14.0768 Y72.3284
G01 X-14.0837 Y72.3406
G01 X-14.0878 Y72.3466
G01 X-14.0940 Y72.3534
G01 X-14.0989 Y72.3598
G01 X-14.1040 Y72.3650
G01 X-14.1148 Y72.3740
G01 X-14.1351 Y72.3864
G01 X-14.1475 Y72.3916
G01 X-14.1521 Y72.3931
G01 X-14.1625 Y72.3951
G01 X-14.1705 Y72.3973
G01 X-14.1780 Y72.3983
G01 X-14.1900 Y72.3989
G01 X-20.2911 Y72.3989
G01 X-20.2959 Y72.3987
G01 X-20.3134 Y72.3967
G01 X-20.3205 Y72.3952
G01 X-20.3349 Y72.3906
G01 X-20.3549 Y72.3810
G01 X-20.3692 Y72.3710
G01 X-20.3863 Y72.3543
G01 X-20.3966 Y72.3402
G01 X-20.4014 Y72.3304
G01 X-20.4049 Y72.3243
G01 X-20.4070 Y72.3198
G01 X-20.4114 Y72.3071
G01 X-20.4126 Y72.3025
G01 X-20.4159 Y72.2797
G01 X-20.4157 Y72.2621
G01 X-20.4116 Y72.2395
G01 X-20.4066 Y72.2246
G01 X-20.1601 Y71.6297
G01 X-20.1601 Y70.7703
G01 X-20.4890 Y69.9765
G01 X-21.0965 Y69.3690
G01 X-21.8903 Y69.0401
G01 X-22.1634 Y69.0401
G01 X-22.1782 Y69.0392
G01 X-22.1895 Y69.0374
G01 X-22.1941 Y69.0363
G01 X-22.2179 Y69.0277
G01 X-22.2308 Y69.0206
G01 X-22.2408 Y69.0124
G01 X-22.2482 Y69.0070
G01 X-22.2526 Y69.0032
G01 X-25.6130 Y65.6427
G01 X-26.2015 Y65.3989
G01 X-48.3185 Y65.3989
G01 X-48.9070 Y65.6427
G01 X-51.0473 Y67.7830
G01 X-51.2911 Y68.3715
G01 X-51.2911 Y69.8131
G01 X-51.2921 Y69.8292
G01 X-51.2946 Y69.8428
G01 X-51.2991 Y69.8550
G01 X-51.3021 Y69.8642
G01 X-51.3052 Y69.8712
G01 X-51.3111 Y69.8811
G01 X-51.3187 Y69.8905
G01 X-51.3257 Y69.8998
G01 X-51.4780 Y70.0523
G01 X-51.7519 Y70.7135
G01 X-51.7609 Y70.7302
G01 X-51.7655 Y70.7372
G01 X-51.7687 Y70.7409
G01 X-51.7869 Y70.7596
G01 X-51.7925 Y70.7643
G01 X-51.7976 Y70.7676
G01 X-51.8207 Y70.7797
G01 X-51.8252 Y70.7817
G01 X-51.8358 Y70.7846
G01 X-51.8604 Y70.7884
G01 X-51.8674 Y70.7889
G01 X-62.0226 Y70.7889
G01 X-62.0444 Y70.7869
G01 X-62.0547 Y70.7847
G01 X-62.0803 Y70.7746
G01 X-62.0877 Y70.7708
G01 X-62.0936 Y70.7667
G01 X-62.1120 Y70.7512
G01 X-62.1164 Y70.7471
G01 X-62.1216 Y70.7408
G01 X-62.1378 Y70.7142
G01 X-62.4120 Y70.0523
G01 X-62.5620 Y69.9024
G01 X-62.5722 Y69.8907
G01 X-62.5808 Y69.8781
G01 X-62.5920 Y69.8543
G01 X-62.5958 Y69.8404
G01 X-62.5988 Y69.8169
G01 X-62.5989 Y62.9154
G01 X-62.5979 Y62.8994
G01 X-62.5959 Y62.8881
G01 X-62.5943 Y62.8824
G01 X-62.5909 Y62.8736
G01 X-62.5879 Y62.8644
G01 X-62.5854 Y62.8586
G01 X-62.5787 Y62.8470
G01 X-62.5712 Y62.8380
G01 X-62.5643 Y62.8288
G01 X-62.3728 Y62.6371
G01 X-62.3612 Y62.6270
G01 X-62.3517 Y62.6204
G01 X-62.3473 Y62.6180
G01 X-62.3385 Y62.6142
G01 X-62.3279 Y62.6088
G01 X-62.3223 Y62.6069
G01 X-62.3109 Y62.6040
G01 X-62.2996 Y62.6028
G01 X-62.2897 Y62.6014
G01 X-62.2846 Y62.6011
G01 X-61.5602 Y62.6011
G01 X-61.5441 Y62.6021
G01 X-61.5305 Y62.6046
G01 X-61.5183 Y62.6091
G01 X-61.5091 Y62.6121
G01 X-61.5021 Y62.6152
G01 X-61.4911 Y62.6218
G01 X-61.4828 Y62.6287
G01 X-61.4726 Y62.6364
G01 X-61.2497 Y62.8592
G01 X-61.2461 Y62.8633
G01 X-61.2332 Y62.8797
G01 X-60.7758 Y62.4224
G01 X-60.7681 Y62.4164
G01 X-60.7594 Y62.4120
G01 X-60.7499 Y62.4093
G01 X-60.7414 Y62.4086
G01 X-59.8786 Y62.4086
G01 X-59.8701 Y62.4093
G01 X-59.8618 Y62.4115
G01 X-59.8562 Y62.4139
G01 X-59.8519 Y62.4164
G01 X-59.8469 Y62.4200
G01 X-59.8433 Y62.4232
G01 X-59.3862 Y62.8803
G01 X-59.3776 Y62.8675
G01 X-59.3703 Y62.8592
G01 X-58.3025 Y61.7915
G01 X-58.3025 Y60.1285
G01 X-59.4785 Y58.9525
G01 X-61.1415 Y58.9525
G01 X-61.5529 Y59.3638
G01 X-61.5635 Y59.3730
G01 X-61.5730 Y59.3796
G01 X-61.5774 Y59.3820
G01 X-61.5862 Y59.3858
G01 X-61.5968 Y59.3912
G01 X-61.6024 Y59.3931
G01 X-61.6129 Y59.3958
G01 X-61.6351 Y59.3986
G01 X-61.6402 Y59.3989
G01 X-63.3185 Y59.3989
G01 X-63.9070 Y59.6427
G01 X-65.5573 Y61.2930
G01 X-65.8011 Y61.8815
G01 X-65.8011 Y66.2741
G01 X-65.8035 Y66.2972
G01 X-65.8062 Y66.3082
G01 X-65.8168 Y66.3334
G01 X-65.8227 Y66.3435
G01 X-65.8273 Y66.3493
G01 X-65.8343 Y66.3566
G01 X-65.8416 Y66.3651
G01 X-65.8459 Y66.3693
G01 X-65.8554 Y66.3762
G01 X-65.8779 Y66.3888
G01 X-65.8866 Y66.3923
G01 X-65.8927 Y66.3939
G01 X-65.9164 Y66.3983
G01 X-65.9272 Y66.3989
G01 X-75.6384 Y66.3989
G01 X-75.7456 Y66.4433
G01 X-75.7671 Y66.4497
G01 X-75.7729 Y66.4508
G01 X-75.7828 Y66.4520
G01 X-75.7911 Y66.4524
G01 X-75.7992 Y66.4515
G01 X-75.8063 Y66.4516
G01 X-75.8113 Y66.4511
G01 X-75.8293 Y66.4470
G01 X-75.8384 Y66.4431
G01 X-75.8490 Y66.4393
G01 X-75.8645 Y66.4301
G01 X-75.8682 Y66.4272
G01 X-75.8735 Y66.4223
G01 X-75.8818 Y66.4156
G01 X-75.8932 Y66.4025
G01 X-75.9058 Y66.3822
G01 X-75.9124 Y66.3665
G01 X-75.9140 Y66.3607
G01 X-75.9151 Y66.3539
G01 X-75.9177 Y66.3440
G01 X-75.9183 Y66.3393
G01 X-75.9189 Y66.3263
G01 X-75.9189 Y55.1615
G01 X-76.1627 Y54.5730
G01 X-81.0930 Y49.6427
G01 X-81.6815 Y49.3989
G01 X-89.4740 Y49.3989
G01 X-89.4794 Y49.3986
G01 X-89.4996 Y49.3963
G01 X-89.5082 Y49.3942
G01 X-89.5130 Y49.3926
G01 X-89.5335 Y49.3837
G01 X-89.5391 Y49.3809
G01 X-89.5487 Y49.3743
G01 X-89.5578 Y49.3657
G01 X-89.5663 Y49.3584
G01 X-89.5697 Y49.3550
G01 X-89.5774 Y49.3446
G01 X-89.5884 Y49.3253
G01 X-89.5910 Y49.3199
G01 X-89.5949 Y49.3085
G01 X-89.5998 Y49.2812
G01 X-89.6001 Y49.2728
G01 X-89.6001 Y48.4028
G01 X-89.9348 Y47.5949
G01 X-90.5530 Y46.9767
G01 X-91.3609 Y46.6420
G01 X-94.6991 Y46.6420
G01 X-95.5070 Y46.9767
G01 X-96.1252 Y47.5949
G01 X-96.4599 Y48.4028
G01 X-96.4599 Y49.2772
G01 X-96.1252 Y50.0851
G01 X-95.5070 Y50.7033
G01 X-94.6991 Y51.0380
G01 X-93.1485 Y51.0380
G01 X-93.1325 Y51.0390
G01 X-93.1212 Y51.0410
G01 X-93.1155 Y51.0426
G01 X-93.1067 Y51.0460
G01 X-93.0951 Y51.0499
G01 X-93.0853 Y51.0550
G01 X-93.0801 Y51.0582
G01 X-93.0711 Y51.0657
G01 X-93.0637 Y51.0711
G01 X-93.0593 Y51.0749
G01 X-91.7770 Y52.3573
G01 X-91.1885 Y52.6011
G01 X-82.7154 Y52.6011
G01 X-82.6982 Y52.6023
G01 X-82.6893 Y52.6038
G01 X-82.6836 Y52.6053
G01 X-82.6736 Y52.6091
G01 X-82.6620 Y52.6130
G01 X-82.6512 Y52.6187
G01 X-82.6450 Y52.6228
G01 X-82.6380 Y52.6288
G01 X-82.6297 Y52.6349
G01 X-82.6262 Y52.6380
G01 X-79.1580 Y56.1062
G01 X-79.1478 Y56.1179
G01 X-79.1404 Y56.1283
G01 X-79.1298 Y56.1499
G01 X-79.1272 Y56.1565
G01 X-79.1240 Y56.1691
G01 X-79.1228 Y56.1804
G01 X-79.1214 Y56.1903
G01 X-79.1211 Y56.1954
G01 X-79.1212 Y68.6965
G01 X-79.1221 Y68.7104
G01 X-79.1241 Y68.7217
G01 X-79.1257 Y68.7274
G01 X-79.1291 Y68.7362
G01 X-79.1325 Y68.7466
G01 X-79.1352 Y68.7524
G01 X-79.1407 Y68.7619
G01 X-79.1488 Y68.7717
G01 X-79.1549 Y68.7800
G01 X-79.3510 Y68.9765
G01 X-79.6799 Y69.7703
G01 X-79.6799 Y70.6297
G01 X-79.3510 Y71.4235
G01 X-78.7435 Y72.0310
G01 X-78.4399 Y72.1568
G01 X-78.4252 Y72.1642
G01 X-78.4166 Y72.1699
G01 X-78.4126 Y72.1730
G01 X-78.3945 Y72.1897
G01 X-78.3858 Y72.2010
G01 X-78.3798 Y72.2123
G01 X-78.3745 Y72.2212
G01 X-78.3715 Y72.2281
G01 X-78.3681 Y72.2389
G01 X-78.3663 Y72.2503
G01 X-78.3639 Y72.2617
G01 X-78.3633 Y72.2739
G01 X-78.3639 Y72.2815
G01 X-78.3655 Y72.2908
G01 X-78.3668 Y72.3013
G01 X-78.3678 Y72.3061
G01 X-78.3721 Y72.3188
G01 X-78.3778 Y72.3294
G01 X-78.3823 Y72.3389
G01 X-78.3855 Y72.3442
G01 X-78.3931 Y72.3540
G01 X-78.4099 Y72.3705
G01 X-78.4189 Y72.3773
G01 X-78.4250 Y72.3810
G01 X-78.4470 Y72.3916
G01 X-78.4614 Y72.3956
G01 X-78.4842 Y72.3986
G01 X-78.4894 Y72.3989
G01 X-85.2846 Y72.3989
G01 X-85.3006 Y72.3979
G01 X-85.3119 Y72.3959
G01 X-85.3176 Y72.3943
G01 X-85.3391 Y72.3865
G01 X-85.3488 Y72.3813
G01 X-85.3530 Y72.3787
G01 X-85.3620 Y72.3712
G01 X-85.3694 Y72.3658
G01 X-85.3738 Y72.3620
G01 X-85.9924 Y71.7434
G01 X-86.0071 Y71.7252
G01 X-86.0133 Y71.7150
G01 X-86.0234 Y71.6897
G01 X-86.0248 Y71.6851
G01 X-86.0264 Y71.6769
G01 X-86.0281 Y71.6478
G01 X-86.0273 Y71.6385
G01 X-86.0261 Y71.6323
G01 X-86.0228 Y71.6214
G01 X-86.0199 Y71.6103
G01 X-86.0172 Y71.6033
G01 X-86.0124 Y71.5942
G01 X-85.9995 Y71.5751
G01 X-85.9915 Y71.5659
G01 X-85.8490 Y71.4235
G01 X-85.5201 Y70.6297
G01 X-85.5201 Y69.7703
G01 X-85.8490 Y68.9765
G01 X-86.4565 Y68.3690
G01 X-87.2503 Y68.0401
G01 X-88.1097 Y68.0401
G01 X-88.9035 Y68.3690
G01 X-89.0469 Y68.5124
G01 X-89.0652 Y68.5272
G01 X-89.0770 Y68.5341
G01 X-89.0998 Y68.5431
G01 X-89.1058 Y68.5449
G01 X-89.1170 Y68.5468
G01 X-89.1413 Y68.5481
G01 X-89.1518 Y68.5473
G01 X-89.1580 Y68.5461
G01 X-89.1812 Y68.5395
G01 X-89.1908 Y68.5354
G01 X-89.1961 Y68.5324
G01 X-89.2153 Y68.5194
G01 X-89.2244 Y68.5115
G01 X-91.3920 Y66.3438
G01 X-91.4021 Y66.3322
G01 X-91.4096 Y66.3217
G01 X-91.4120 Y66.3172
G01 X-91.4213 Y66.2976
G01 X-91.4230 Y66.2929
G01 X-91.4258 Y66.2819
G01 X-91.4286 Y66.2597
G01 X-91.4289 Y66.2546
G01 X-91.4289 Y65.5790
G01 X-91.4269 Y65.5587
G01 X-91.4247 Y65.5486
G01 X-91.4141 Y65.5215
G01 X-91.4108 Y65.5153
G01 X-91.4067 Y65.5094
G01 X-91.3902 Y65.4900
G01 X-91.3838 Y65.4837
G01 X-91.3776 Y65.4793
G01 X-91.3568 Y65.4668
G01 X-91.3522 Y65.4644
G01 X-90.5530 Y65.1333
G01 X-90.3268 Y64.9071
G01 X-90.3155 Y64.8973
G01 X-90.3057 Y64.8904
G01 X-90.2830 Y64.8793
G01 X-90.2775 Y64.8772
G01 X-90.2658 Y64.8742
G01 X-90.2436 Y64.8714
G01 X-90.2385 Y64.8711
G01 X-86.7815 Y64.8711
G01 X-86.1930 Y64.6273
G01 X-84.6502 Y63.0844
G01 X-84.6385 Y63.0742
G01 X-84.6292 Y63.0675
G01 X-84.6237 Y63.0644
G01 X-84.6149 Y63.0606
G01 X-84.6065 Y63.0562
G01 X-84.5999 Y63.0536
G01 X-84.5873 Y63.0504
G01 X-84.5623 Y63.0475
G01 X-84.0385 Y63.0475
G01 X-82.8625 Y61.8715
G01 X-82.8625 Y60.2085
G01 X-83.9303 Y59.1408
G01 X-83.9339 Y59.1367
G01 X-83.9468 Y59.1203
G01 X-84.4033 Y59.5768
G01 X-84.4069 Y59.5800
G01 X-84.4119 Y59.5836
G01 X-84.4173 Y59.5866
G01 X-84.4218 Y59.5885
G01 X-84.4301 Y59.5907
G01 X-84.4386 Y59.5914
G01 X-85.3014 Y59.5914
G01 X-85.3111 Y59.5904
G01 X-85.3194 Y59.5880
G01 X-85.3281 Y59.5836
G01 X-85.3358 Y59.5776
G01 X-85.7938 Y59.1197
G01 X-85.8024 Y59.1325
G01 X-85.8097 Y59.1408
G01 X-86.8775 Y60.2085
G01 X-86.8775 Y60.7321
G01 X-86.8787 Y60.7482
G01 X-86.8813 Y60.7617
G01 X-86.8894 Y60.7844
G01 X-86.8957 Y60.7963
G01 X-86.8992 Y60.8014
G01 X-86.9052 Y60.8084
G01 X-86.9113 Y60.8167
G01 X-86.9144 Y60.8202
G01 X-87.7262 Y61.6320
G01 X-87.7379 Y61.6422
G01 X-87.7483 Y61.6496
G01 X-87.7699 Y61.6602
G01 X-87.7765 Y61.6628
G01 X-87.7891 Y61.6660
G01 X-87.8004 Y61.6672
G01 X-87.8103 Y61.6686
G01 X-87.8154 Y61.6689
G01 X-90.2385 Y61.6689
G01 X-90.2570 Y61.6675
G01 X-90.2659 Y61.6659
G01 X-90.2704 Y61.6647
G01 X-90.2804 Y61.6609
G01 X-90.2896 Y61.6579
G01 X-90.2943 Y61.6560
G01 X-90.3065 Y61.6489
G01 X-90.3159 Y61.6413
G01 X-90.3252 Y61.6343
G01 X-90.5530 Y61.4067
G01 X-91.3609 Y61.0720
G01 X-94.6991 Y61.0720
G01 X-95.5070 Y61.4067
G01 X-96.1252 Y62.0249
G01 X-96.4599 Y62.8328
G01 X-96.4599 Y63.7072
G01 X-96.1252 Y64.5151
G01 X-95.5070 Y65.1333
G01 X-94.7065 Y65.4650
G01 X-94.6897 Y65.4740
G01 X-94.6828 Y65.4786
G01 X-94.6793 Y65.4816
G01 X-94.6604 Y65.4999
G01 X-94.6558 Y65.5054
G01 X-94.6524 Y65.5106
G01 X-94.6388 Y65.5372
G01 X-94.6371 Y65.5419
G01 X-94.6354 Y65.5489
G01 X-94.6316 Y65.5734
G01 X-94.6311 Y65.5804
G01 X-94.6311 Y67.2885
G01 X-94.3873 Y67.8770
G01 X-90.7070 Y71.5573
G01 X-90.1185 Y71.8011
G01 X-89.4045 Y71.8012
G01 X-89.3840 Y71.8033
G01 X-89.3742 Y71.8055
G01 X-89.3682 Y71.8074
G01 X-89.3466 Y71.8168
G01 X-89.3410 Y71.8198
G01 X-89.3335 Y71.8249
G01 X-89.3140 Y71.8424
G01 X-89.3100 Y71.8468
G01 X-89.3044 Y71.8544
G01 X-89.2928 Y71.8747
G01 X-89.2902 Y71.8801
G01 X-89.2873 Y71.8878
G01 X-89.2861 Y71.8927
G01 X-89.2842 Y71.9039
G01 X-89.2819 Y71.9152
G01 X-89.2812 Y71.9212
G01 X-89.2811 Y72.6385
G01 X-89.0373 Y73.2270
G01 X-86.9070 Y75.3573
G01 X-86.3185 Y75.6011
G01 X-70.5715 Y75.6011
G01 X-70.2320 Y75.4605
G01 X-70.2182 Y75.4559
G01 X-70.2062 Y75.4532
G01 X-70.2011 Y75.4526
G01 X-70.1916 Y75.4524
G01 X-70.1797 Y75.4515
G01 X-70.1735 Y75.4519
G01 X-70.1626 Y75.4535
G01 X-70.1378 Y75.4606
G01 X-69.6996 Y75.6421
G01 X-68.8604 Y75.6421
G01 X-68.0853 Y75.3210
G01 X-67.4920 Y74.7277
G01 X-67.4229 Y74.5609
G01 X-67.4118 Y74.5410
G01 X-67.4006 Y74.5270
G01 X-67.4051 Y74.5240
G01 X-67.4972 Y74.4556
G01 X-67.5840 Y74.3770
G01 X-67.6626 Y74.2902
G01 X-67.7324 Y74.1961
G01 X-67.7926 Y74.0956
G01 X-67.8427 Y73.9898
G01 X-67.8822 Y73.8795
G01 X-67.9111 Y73.7634
G01 X-67.9278 Y73.6500
G01 X-67.9336 Y73.5330
G01 X-67.9336 Y71.2470
G01 X-67.9275 Y71.1276
G01 X-67.9106 Y71.0141
G01 X-67.8822 Y70.9005
G01 X-67.8427 Y70.7902
G01 X-67.7926 Y70.6844
G01 X-67.7324 Y70.5839
G01 X-67.6626 Y70.4898
G01 X-67.5840 Y70.4030
G01 X-67.4991 Y70.3260
G01 X-67.4010 Y70.2533
G01 X-67.3026 Y70.1944
G01 X-67.1945 Y70.1434
G01 X-67.0865 Y70.1048
G01 X-66.9729 Y70.0764
G01 X-66.8570 Y70.0592
G01 X-66.7400 Y70.0534
G01 X-66.6230 Y70.0592
G01 X-66.5071 Y70.0764
G01 X-66.3935 Y70.1048
G01 X-66.2855 Y70.1434
G01 X-66.1774 Y70.1944
G01 X-66.0790 Y70.2533
G01 X-65.9809 Y70.3260
G01 X-65.8960 Y70.4030
G01 X-65.8174 Y70.4898
G01 X-65.7476 Y70.5839
G01 X-65.6874 Y70.6844
G01 X-65.6373 Y70.7902
G01 X-65.5978 Y70.9005
G01 X-65.5694 Y71.0141
G01 X-65.5525 Y71.1276
G01 X-65.5464 Y71.2470
G01 X-65.5464 Y73.5330
G01 X-65.5522 Y73.6500
G01 X-65.5689 Y73.7634
