%
(Header)
(Generated by gcodetools from Inkscape.)
(Using default header. To add your own header create file "header" in the output dir.)
M3
(Header end.)
G21 (All units in mm)

(Start cutting path id: path2441)
(Change tool to Cylindrical cutter)

G00 Z5.000000
G00 X244.528079 Y229.272131

G01 Z-0.500000 F200.0(Penetrate)
G03 X245.497426 Y228.014625 Z-0.500000 I2.211202 J0.702140 F400.000000
G03 X247.048420 Y227.674958 Z-0.500000 I1.241850 J1.959639
G03 X248.454621 Y228.412219 Z-0.500000 I-0.309140 J2.299311
G03 X249.057407 Y229.881098 Z-0.500000 I-1.715339 J1.562049
G03 X248.574452 Y231.393614 Z-0.500000 I-2.318123 J0.093173
G03 X247.231956 Y232.241352 Z-0.500000 I-1.835173 J-1.419346
G03 X245.658705 Y232.027257 Z-0.500000 I-0.492679 J-2.267077
G03 X244.591564 Y230.851603 Z-0.500000 I1.080573 J-2.052986
G00 Z5.000000

(End cutting path id: path2441)


(Start cutting path id: path593)
(Change tool to Cylindrical cutter)

G00 Z5.000000
G00 X244.579279 Y229.254269

G01 Z-0.500000 F200.0(Penetrate)
G01 X241.539279 Y229.254269 Z-0.500000 F400.000000
G01 X241.379279 Y229.254269 Z-0.500000
G00 Z5.000000

(End cutting path id: path593)


(Start cutting path id: path605)
(Change tool to Cylindrical cutter)

G00 Z5.000000
G00 X241.059279 Y229.414269

G01 Z-0.500000 F200.0(Penetrate)
G01 X240.899279 Y229.414269 Z-0.500000 F400.000000
G01 X238.019279 Y232.454269 Z-0.500000
G01 X234.339279 Y232.454269 Z-0.500000
G01 X234.339279 Y224.934269 Z-0.500000
G00 Z5.000000

(End cutting path id: path605)


(Start cutting path id: path607)
(Change tool to Cylindrical cutter)

G00 Z5.000000
G00 X232.419279 Y224.934269

G01 Z-0.500000 F200.0(Penetrate)
G01 X232.419279 Y229.094269 Z-0.500000 F400.000000
G01 X232.419279 Y229.254269 Z-0.500000
G01 X232.419279 Y229.414269 Z-0.500000
G01 X232.419279 Y232.134269 Z-0.500000
G01 X228.739279 Y232.134269 Z-0.500000
G01 X226.499279 Y229.894269 Z-0.500000
G01 X226.339279 Y229.734269 Z-0.500000
G00 Z5.000000

(End cutting path id: path607)


(Start cutting path id: path613)
(Change tool to Cylindrical cutter)

G00 Z5.000000
G00 X226.019279 Y229.574269

G01 Z-0.500000 F200.0(Penetrate)
G01 X225.859279 Y229.574269 Z-0.500000 F400.000000
G00 Z5.000000

(End cutting path id: path613)


(Start cutting path id: path619)
(Change tool to Cylindrical cutter)

G00 Z5.000000
G00 X225.859279 Y229.574269

G01 Z-0.500000 F200.0(Penetrate)
G01 X174.659279 Y229.574269 Z-0.500000 F400.000000
G01 X174.659279 Y199.014269 Z-0.500000
G00 Z5.000000

(End cutting path id: path619)


(Start cutting path id: path625)
(Change tool to Cylindrical cutter)

G00 Z5.000000
G00 X174.499279 Y198.534269

G01 Z-0.500000 F200.0(Penetrate)
G01 X174.339279 Y198.374269 Z-0.500000 F400.000000
G01 X155.779279 Y179.814269 Z-0.500000
G01 X155.779279 Y174.214269 Z-0.500000
G01 X148.739279 Y174.214269 Z-0.500000
G01 X148.739279 Y181.094269 Z-0.500000
G01 X154.499279 Y181.094269 Z-0.500000
G01 X172.739279 Y199.494269 Z-0.500000
G01 X172.739279 Y229.574269 Z-0.500000
G01 X142.819279 Y229.574269 Z-0.500000
G01 X142.659279 Y229.574269 Z-0.500000
G00 Z5.000000

(End cutting path id: path625)


(Start cutting path id: path631)
(Change tool to Cylindrical cutter)

G00 Z5.000000
G00 X142.019279 Y230.054269

G01 Z-0.500000 F200.0(Penetrate)
G01 X141.859279 Y230.054269 Z-0.500000 F400.000000
G01 X141.699279 Y230.054269 Z-0.500000
G01 X111.779279 Y200.294269 Z-0.500000
G01 X111.779279 Y200.134269 Z-0.500000
G00 Z5.000000

(End cutting path id: path631)


(Start cutting path id: path637)
(Change tool to Cylindrical cutter)

G00 Z5.000000
G00 X111.299279 Y199.974269

G01 Z-0.500000 F200.0(Penetrate)
G01 X111.139279 Y199.974269 Z-0.500000 F400.000000
G00 Z5.000000

(End cutting path id: path637)


(Start cutting path id: path643)
(Change tool to Cylindrical cutter)

G00 Z5.000000
G00 X111.139279 Y199.974269

G01 Z-0.500000 F200.0(Penetrate)
G01 X66.019279 Y199.974269 Z-0.500000 F400.000000
G01 X66.019279 Y199.814269 Z-0.500000
G01 X64.579279 Y198.374269 Z-0.500000
G01 X62.499279 Y198.374269 Z-0.500000
G01 X61.539279 Y199.334269 Z-0.500000
G01 X59.939279 Y199.334269 Z-0.500000
G01 X48.899279 Y188.294269 Z-0.500000
G01 X48.739279 Y188.294269 Z-0.500000
G00 Z5.000000

(End cutting path id: path643)


(Start cutting path id: path647)
(Change tool to Cylindrical cutter)

G00 Z5.000000
G00 X48.317492 Y188.145190

G01 Z-0.500000 F200.0(Penetrate)
G03 X48.517443 Y188.201837 Z-0.500000 I-0.138213 J0.869080 F400.000000
G03 X48.698535 Y188.303795 Z-0.500000 I-0.338160 J0.812420
G00 Z5.000000

(End cutting path id: path647)


(Start cutting path id: path649)
(Change tool to Cylindrical cutter)

G00 Z5.000000
G00 X48.419279 Y187.974269

G01 Z-0.500000 F200.0(Penetrate)
G01 X48.259279 Y187.974269 Z-0.500000 F400.000000
G00 Z5.000000

(End cutting path id: path649)


(Start cutting path id: path655)
(Change tool to Cylindrical cutter)

G00 Z5.000000
G00 X48.259279 Y187.974269

G01 Z-0.500000 F200.0(Penetrate)
G01 X37.859279 Y187.974269 Z-0.500000 F400.000000
G01 X36.739279 Y187.014269 Z-0.500000
G01 X36.899279 Y187.014269 Z-0.500000
G00 Z5.000000

(End cutting path id: path655)


(Start cutting path id: path509)
(Change tool to Cylindrical cutter)

G00 Z5.000000
G00 X37.161066 Y189.883347

G01 Z-0.500000 F200.0(Penetrate)
G03 X36.961114 Y189.826700 Z-0.500000 I0.138213 J-0.869080 F400.000000
G03 X36.780023 Y189.724742 Z-0.500000 I0.338160 J-0.812420
G00 Z5.000000

(End cutting path id: path509)


(Start cutting path id: path511)
(Change tool to Cylindrical cutter)

G00 Z5.000000
G00 X37.219279 Y189.894269

G01 Z-0.500000 F200.0(Penetrate)
G01 X37.379279 Y189.894269 Z-0.500000 F400.000000
G00 Z5.000000

(End cutting path id: path511)


(Start cutting path id: path517)
(Change tool to Cylindrical cutter)

G00 Z5.000000
G00 X37.379279 Y189.894269

G01 Z-0.500000 F200.0(Penetrate)
G01 X47.779279 Y189.894269 Z-0.500000 F400.000000
G01 X58.819279 Y200.934269 Z-0.500000
G01 X58.979279 Y201.094269 Z-0.500000
G00 Z5.000000

(End cutting path id: path517)


(Start cutting path id: path521)
(Change tool to Cylindrical cutter)

G00 Z5.000000
G00 X59.241066 Y201.243347

G01 Z-0.500000 F200.0(Penetrate)
G03 X59.041114 Y201.186700 Z-0.500000 I0.138213 J-0.869080 F400.000000
G03 X58.860023 Y201.084742 Z-0.500000 I0.338160 J-0.812420
G00 Z5.000000

(End cutting path id: path521)


(Start cutting path id: path527)
(Change tool to Cylindrical cutter)

G00 Z5.000000
G00 X59.379701 Y201.254269

G01 Z-0.500000 F200.0(Penetrate)
G01 X59.378856 Y201.254269 Z-0.500000 F400.000000
G00 Z5.000000

(End cutting path id: path527)


(Start cutting path id: path529)
(Change tool to Cylindrical cutter)

G00 Z5.000000
G00 X59.459279 Y201.254269

G01 Z-0.500000 F200.0(Penetrate)
G01 X60.899279 Y201.254269 Z-0.500000 F400.000000
G01 X60.899279 Y201.894269 Z-0.500000
G01 X62.499279 Y203.334269 Z-0.500000
G01 X64.579279 Y203.334269 Z-0.500000
G01 X66.019279 Y201.894269 Z-0.500000
G01 X110.819279 Y201.894269 Z-0.500000
G01 X140.419279 Y231.494269 Z-0.500000
G01 X140.259279 Y231.494269 Z-0.500000
G01 X140.259279 Y233.574269 Z-0.500000
G01 X141.859279 Y235.014269 Z-0.500000
G01 X143.779279 Y235.014269 Z-0.500000
G01 X145.379279 Y233.574269 Z-0.500000
G01 X145.379279 Y231.494269 Z-0.500000
G01 X172.739279 Y231.494269 Z-0.500000
G01 X172.739279 Y259.334269 Z-0.500000
G00 Z5.000000

(End cutting path id: path529)


(Start cutting path id: path39)
(Change tool to Cylindrical cutter)

G00 Z5.000000
G00 X174.604708 Y259.343117

G01 Z-0.500000 F200.0(Penetrate)
G03 X175.903423 Y260.251642 Z-0.500000 I-0.985424 J2.791144 F400.000000
G03 X176.547240 Y261.699947 Z-0.500000 I-2.284149 J1.882628
G00 Z5.000000

(End cutting path id: path39)


(Start cutting path id: path547)
(Change tool to Cylindrical cutter)

G00 Z5.000000
G00 X174.659279 Y259.334269

G01 Z-0.500000 F200.0(Penetrate)
G01 X174.659279 Y231.494269 Z-0.500000 F400.000000
G01 X225.379279 Y231.494269 Z-0.500000
G01 X227.779279 Y233.734269 Z-0.500000
G01 X227.779279 Y233.894269 Z-0.500000
G00 Z5.000000

(End cutting path id: path547)


(Start cutting path id: path551)
(Change tool to Cylindrical cutter)

G00 Z5.000000
G00 X228.201066 Y234.043347

G01 Z-0.500000 F200.0(Penetrate)
G03 X228.001114 Y233.986700 Z-0.500000 I0.138213 J-0.869080 F400.000000
G03 X227.820023 Y233.884742 Z-0.500000 I0.338160 J-0.812420
G00 Z5.000000

(End cutting path id: path551)


(Start cutting path id: path553)
(Change tool to Cylindrical cutter)

G00 Z5.000000
G00 X228.259279 Y234.054269

G01 Z-0.500000 F200.0(Penetrate)
G01 X228.419279 Y234.054269 Z-0.500000 F400.000000
G00 Z5.000000

(End cutting path id: path553)


(Start cutting path id: path559)
(Change tool to Cylindrical cutter)

G00 Z5.000000
G00 X228.419279 Y234.054269

G01 Z-0.500000 F200.0(Penetrate)
G01 X232.419279 Y234.054269 Z-0.500000 F400.000000
G01 X232.419279 Y250.054269 Z-0.500000
G01 X232.099279 Y250.054269 Z-0.500000
G01 X230.339279 Y251.814269 Z-0.500000
G01 X230.339279 Y254.374269 Z-0.500000
G01 X232.099279 Y256.134269 Z-0.500000
G01 X234.659279 Y256.134269 Z-0.500000
G01 X236.419279 Y254.374269 Z-0.500000
G01 X236.419279 Y251.814269 Z-0.500000
G01 X234.659279 Y250.054269 Z-0.500000
G01 X234.339279 Y250.054269 Z-0.500000
G01 X234.339279 Y233.894269 Z-0.500000
G01 X238.339279 Y233.894269 Z-0.500000
G00 Z5.000000

(End cutting path id: path559)


(Start cutting path id: path563)
(Change tool to Cylindrical cutter)

G00 Z5.000000
G00 X238.681277 Y233.757637

G01 Z-0.500000 F200.0(Penetrate)
G03 X238.514987 Y233.847331 Z-0.500000 I-0.421990 J-0.583359 F400.000000
G03 X238.331087 Y233.890678 Z-0.500000 I-0.255711 J-0.673082
G00 Z5.000000

(End cutting path id: path563)


(Start cutting path id: path569)
(Change tool to Cylindrical cutter)

G00 Z5.000000
G00 X238.745709 Y233.705104

G01 Z-0.500000 F200.0(Penetrate)
G03 X238.726262 Y233.722290 Z-0.500000 I-0.486259 J-0.530646 F400.000000
G03 X238.706207 Y233.738765 Z-0.500000 I-0.467242 J-0.548337
G00 Z5.000000

(End cutting path id: path569)


(Start cutting path id: path571)
(Change tool to Cylindrical cutter)

G00 Z5.000000
G00 X238.819279 Y233.734269

G01 Z-0.500000 F200.0(Penetrate)
G01 X241.859279 Y230.694269 Z-0.500000 F400.000000
G01 X244.739279 Y230.694269 Z-0.500000
G00 Z5.000000

(End cutting path id: path571)


(Start cutting path id: path599)
(Change tool to Cylindrical cutter)

G00 Z5.000000
G00 X241.059279 Y229.414269

G01 Z-0.500000 F200.0(Penetrate)
G01 X241.059279 Y229.414269 Z-0.500000 F400.000000
G00 Z5.000000

(End cutting path id: path599)


(Start cutting path id: path597)
(Change tool to Cylindrical cutter)

G00 Z5.000000
G00 X241.037280 Y229.390901

G01 Z-0.500000 F200.0(Penetrate)
G03 X241.203571 Y229.301206 Z-0.500000 I0.421990 J0.583359 F400.000000
G03 X241.387471 Y229.257859 Z-0.500000 I0.255711 J0.673082
G00 Z5.000000

(End cutting path id: path597)


(Start cutting path id: path603)
(Change tool to Cylindrical cutter)

G00 Z5.000000
G00 X240.972848 Y229.443434

G01 Z-0.500000 F200.0(Penetrate)
G03 X240.992296 Y229.426248 Z-0.500000 I0.486259 J0.530646 F400.000000
G03 X241.012351 Y229.409773 Z-0.500000 I0.467242 J0.548337
G00 Z5.000000

(End cutting path id: path603)


(Start cutting path id: path565)
(Change tool to Cylindrical cutter)

G00 Z5.000000
G00 X238.819279 Y233.734269

G01 Z-0.500000 F200.0(Penetrate)
G01 X238.819279 Y233.734269 Z-0.500000 F400.000000
G00 Z5.000000

(End cutting path id: path565)


(Start cutting path id: path557)
(Change tool to Cylindrical cutter)

G00 Z5.000000
G00 X228.339701 Y234.054269

G01 Z-0.500000 F200.0(Penetrate)
G01 X228.338856 Y234.054269 Z-0.500000 F400.000000
G00 Z5.000000

(End cutting path id: path557)


(Start cutting path id: path611)
(Change tool to Cylindrical cutter)

G00 Z5.000000
G00 X225.917492 Y229.745190

G01 Z-0.500000 F200.0(Penetrate)
G03 X226.117443 Y229.801837 Z-0.500000 I-0.138213 J0.869080 F400.000000
G03 X226.298535 Y229.903795 Z-0.500000 I-0.338160 J0.812420
G00 Z5.000000

(End cutting path id: path611)


(Start cutting path id: path617)
(Change tool to Cylindrical cutter)

G00 Z5.000000
G00 X225.778856 Y229.734269

G01 Z-0.500000 F200.0(Penetrate)
G01 X225.779701 Y229.734269 Z-0.500000 F400.000000
G00 Z5.000000

(End cutting path id: path617)


(Start cutting path id: path2395)
(Change tool to Cylindrical cutter)

G00 Z5.000000
G00 X232.311978 Y225.033706

G01 Z-0.500000 F200.0(Penetrate)
G03 X231.216039 Y223.955305 Z-0.500000 I0.987299 J-2.099437 F400.000000
G03 X231.035090 Y222.428450 Z-0.500000 I2.083238 J-1.021037
G03 X231.848607 Y221.123758 Z-0.500000 I2.264192 J0.505823
G03 X233.299279 Y220.614269 Z-0.500000 I1.450672 J1.810510
G03 X234.749951 Y221.123758 Z-0.500000 I-0.000000 J2.320000
G03 X235.563468 Y222.428450 Z-0.500000 I-1.450676 J1.810515
G03 X235.382518 Y223.955305 Z-0.500000 I-2.264188 J0.505819
G03 X234.286580 Y225.033706 Z-0.500000 I-2.083238 J-1.021036
G00 Z5.000000

(End cutting path id: path2395)


(Start cutting path id: path1023)
(Change tool to Cylindrical cutter)

G00 Z5.000000
G00 X230.339279 Y210.694269

G01 Z-0.500000 F200.0(Penetrate)
G01 X232.099279 Y212.454269 Z-0.500000 F400.000000
G01 X234.659279 Y212.454269 Z-0.500000
G01 X236.419279 Y210.694269 Z-0.500000
G00 Z5.000000

(End cutting path id: path1023)


(Start cutting path id: path1021)
(Change tool to Cylindrical cutter)

G00 Z5.000000
G00 X234.659279 Y206.374269

G01 Z-0.500000 F200.0(Penetrate)
G01 X232.099279 Y206.374269 Z-0.500000 F400.000000
G00 Z5.000000

(End cutting path id: path1021)


(Start cutting path id: path2099)
(Change tool to Cylindrical cutter)

G00 Z5.000000
G00 X225.539279 Y187.014269

G01 Z-0.500000 F200.0(Penetrate)
G01 X225.539279 Y187.814269 Z-0.500000 F400.000000
G01 X226.979279 Y189.254269 Z-0.500000
G01 X229.059279 Y189.254269 Z-0.500000
G01 X230.499279 Y187.814269 Z-0.500000
G01 X230.499279 Y185.734269 Z-0.500000
G01 X229.059279 Y184.294269 Z-0.500000
G01 X226.979279 Y184.294269 Z-0.500000
G01 X225.859279 Y185.574269 Z-0.500000
G00 Z5.000000

(End cutting path id: path2099)


(Start cutting path id: path2101)
(Change tool to Cylindrical cutter)

G00 Z5.000000
G00 X213.379279 Y185.574269

G01 Z-0.500000 F200.0(Penetrate)
G01 X213.379279 Y185.254269 Z-0.500000 F400.000000
G01 X211.939279 Y183.814269 Z-0.500000
G01 X209.859279 Y183.814269 Z-0.500000
G01 X208.419279 Y185.254269 Z-0.500000
G01 X208.419279 Y187.334269 Z-0.500000
G01 X209.859279 Y188.774269 Z-0.500000
G01 X211.939279 Y188.774269 Z-0.500000
G01 X213.379279 Y187.334269 Z-0.500000
G01 X213.379279 Y187.014269 Z-0.500000
G00 Z5.000000

(End cutting path id: path2101)


(Start cutting path id: path2103)
(Change tool to Cylindrical cutter)

G00 Z5.000000
G00 X208.419279 Y185.254269

G01 Z-0.500000 F200.0(Penetrate)
G01 X208.419279 Y187.334269 Z-0.500000 F400.000000
G01 X209.859279 Y188.774269 Z-0.500000
G01 X211.939279 Y188.774269 Z-0.500000
G01 X213.379279 Y187.334269 Z-0.500000
G01 X213.379279 Y187.014269 Z-0.500000
G01 X225.539279 Y187.014269 Z-0.500000
G01 X225.539279 Y187.814269 Z-0.500000
G01 X226.979279 Y189.254269 Z-0.500000
G01 X229.059279 Y189.254269 Z-0.500000
G01 X230.499279 Y187.814269 Z-0.500000
G01 X230.499279 Y185.734269 Z-0.500000
G01 X229.059279 Y184.294269 Z-0.500000
G01 X226.979279 Y184.294269 Z-0.500000
G01 X225.859279 Y185.574269 Z-0.500000
G01 X213.379279 Y185.574269 Z-0.500000
G01 X213.379279 Y185.254269 Z-0.500000
G01 X211.939279 Y183.814269 Z-0.500000
G01 X209.859279 Y183.814269 Z-0.500000
G01 X208.419279 Y185.254269 Z-0.500000
G00 Z5.000000

(End cutting path id: path2103)


(Start cutting path id: path1103)
(Change tool to Cylindrical cutter)

G00 Z5.000000
G00 X200.099279 Y169.574269

G01 Z-0.500000 F200.0(Penetrate)
G01 X200.099279 Y169.414269 Z-0.500000 F400.000000
G01 X196.259279 Y165.574269 Z-0.500000
G01 X196.099279 Y165.574269 Z-0.500000
G00 Z5.000000

(End cutting path id: path1103)


(Start cutting path id: path1109)
(Change tool to Cylindrical cutter)

G00 Z5.000000
G00 X195.779279 Y165.414269

G01 Z-0.500000 F200.0(Penetrate)
G01 X195.619279 Y165.414269 Z-0.500000 F400.000000
G00 Z5.000000

(End cutting path id: path1109)


(Start cutting path id: path1115)
(Change tool to Cylindrical cutter)

G00 Z5.000000
G00 X195.619279 Y165.414269

G01 Z-0.500000 F200.0(Penetrate)
G01 X146.499279 Y165.414269 Z-0.500000 F400.000000
G01 X146.339279 Y165.414269 Z-0.500000
G00 Z5.000000

(End cutting path id: path1115)


(Start cutting path id: path1121)
(Change tool to Cylindrical cutter)

G00 Z5.000000
G00 X145.859279 Y165.574269

G01 Z-0.500000 F200.0(Penetrate)
G01 X145.699279 Y165.574269 Z-0.500000 F400.000000
G01 X142.019279 Y169.414269 Z-0.500000
G01 X141.859279 Y169.574269 Z-0.500000
G00 Z5.000000

(End cutting path id: path1121)


(Start cutting path id: path1127)
(Change tool to Cylindrical cutter)

G00 Z5.000000
G00 X141.699279 Y169.894269

G01 Z-0.500000 F200.0(Penetrate)
G01 X141.699279 Y170.054269 Z-0.500000 F400.000000
G00 Z5.000000

(End cutting path id: path1127)


(Start cutting path id: path1133)
(Change tool to Cylindrical cutter)

G00 Z5.000000
G00 X141.699279 Y170.054269

G01 Z-0.500000 F200.0(Penetrate)
G01 X141.699279 Y175.494269 Z-0.500000 F400.000000
G00 Z5.000000

(End cutting path id: path1133)


(Start cutting path id: path2287)
(Change tool to Cylindrical cutter)

G00 Z5.000000
G00 X143.529797 Y175.697925

G01 Z-0.500000 F200.0(Penetrate)
G03 X144.648978 Y176.766058 Z-0.500000 I-0.950516 J2.116343 F400.000000
G03 X144.847794 Y178.300315 Z-0.500000 I-2.069700 J1.048212
G03 X144.037836 Y179.618434 Z-0.500000 I-2.268512 J-0.486045
G03 X142.579279 Y180.134269 Z-0.500000 I-1.458557 J-1.804168
G03 X141.120722 Y179.618434 Z-0.500000 I0.000000 J-2.320002
G03 X140.310764 Y178.300315 Z-0.500000 I1.458554 J-1.804164
G03 X140.509580 Y176.766058 Z-0.500000 I2.268517 J-0.486046
G03 X141.628760 Y175.697925 Z-0.500000 I2.069696 J1.048210
G00 Z5.000000

(End cutting path id: path2287)


(Start cutting path id: path1031)
(Change tool to Cylindrical cutter)

G00 Z5.000000
G00 X143.619279 Y175.494269

G01 Z-0.500000 F200.0(Penetrate)
G01 X143.619279 Y170.534269 Z-0.500000 F400.000000
G01 X146.819279 Y167.334269 Z-0.500000
G01 X195.139279 Y167.334269 Z-0.500000
G01 X198.339279 Y170.534269 Z-0.500000
G01 X198.339279 Y200.294269 Z-0.500000
G01 X198.339279 Y200.454269 Z-0.500000
G00 Z5.000000

(End cutting path id: path1031)


(Start cutting path id: path1035)
(Change tool to Cylindrical cutter)

G00 Z5.000000
G00 X198.507016 Y200.891069

G01 Z-0.500000 F200.0(Penetrate)
G03 X198.405685 Y200.709627 Z-0.500000 I0.712260 J-0.516797 F400.000000
G03 X198.349728 Y200.509480 Z-0.500000 I0.813617 J-0.335366
G00 Z5.000000

(End cutting path id: path1035)


(Start cutting path id: path1037)
(Change tool to Cylindrical cutter)

G00 Z5.000000
G00 X198.659279 Y200.934269

G01 Z-0.500000 F200.0(Penetrate)
G01 X206.179279 Y208.614269 Z-0.500000 F400.000000
G01 X206.339279 Y208.614269 Z-0.500000
G00 Z5.000000

(End cutting path id: path1037)


(Start cutting path id: path1041)
(Change tool to Cylindrical cutter)

G00 Z5.000000
G00 X206.761066 Y208.763347

G01 Z-0.500000 F200.0(Penetrate)
G03 X206.561114 Y208.706700 Z-0.500000 I0.138213 J-0.869080 F400.000000
G03 X206.380023 Y208.604742 Z-0.500000 I0.338160 J-0.812420
G00 Z5.000000

(End cutting path id: path1041)


(Start cutting path id: path1043)
(Change tool to Cylindrical cutter)

G00 Z5.000000
G00 X206.819279 Y208.774269

G01 Z-0.500000 F200.0(Penetrate)
G01 X206.979279 Y208.774269 Z-0.500000 F400.000000
G00 Z5.000000

(End cutting path id: path1043)


(Start cutting path id: path1049)
(Change tool to Cylindrical cutter)

G00 Z5.000000
G00 X206.979279 Y208.774269

G01 Z-0.500000 F200.0(Penetrate)
G01 X230.339279 Y208.774269 Z-0.500000 F400.000000
G01 X230.339279 Y210.694269 Z-0.500000
G01 X232.099279 Y212.454269 Z-0.500000
G01 X234.659279 Y212.454269 Z-0.500000
G01 X236.419279 Y210.694269 Z-0.500000
G01 X236.419279 Y208.774269 Z-0.500000
G01 X259.459279 Y208.774269 Z-0.500000
G01 X265.379279 Y214.694269 Z-0.500000
G01 X265.379279 Y220.614269 Z-0.500000
G01 X265.059279 Y220.614269 Z-0.500000
G01 X263.459279 Y222.374269 Z-0.500000
G01 X263.459279 Y224.774269 Z-0.500000
G01 X265.059279 Y226.374269 Z-0.500000
G01 X267.459279 Y226.374269 Z-0.500000
G01 X269.219279 Y224.774269 Z-0.500000
G01 X269.219279 Y222.374269 Z-0.500000
G01 X267.459279 Y220.614269 Z-0.500000
G01 X267.299279 Y220.614269 Z-0.500000
G01 X267.299279 Y214.374269 Z-0.500000
G01 X267.299279 Y214.214269 Z-0.500000
G00 Z5.000000

(End cutting path id: path1049)


(Start cutting path id: path1053)
(Change tool to Cylindrical cutter)

G00 Z5.000000
G00 X266.971541 Y213.937469

G01 Z-0.500000 F200.0(Penetrate)
G03 X267.072872 Y214.118910 Z-0.500000 I-0.712260 J0.516797 F400.000000
G03 X267.128829 Y214.319058 Z-0.500000 I-0.813617 J0.335366
G00 Z5.000000

(End cutting path id: path1053)


(Start cutting path id: path1055)
(Change tool to Cylindrical cutter)

G00 Z5.000000
G00 X267.139279 Y213.734269

G01 Z-0.500000 F200.0(Penetrate)
G01 X266.979279 Y213.734269 Z-0.500000 F400.000000
G01 X266.979279 Y165.574269 Z-0.500000
G01 X266.979279 Y165.414269 Z-0.500000
G00 Z5.000000

(End cutting path id: path1055)


(Start cutting path id: path1059)
(Change tool to Cylindrical cutter)

G00 Z5.000000
G00 X266.842647 Y165.232270

G01 Z-0.500000 F200.0(Penetrate)
G03 X266.932341 Y165.398561 Z-0.500000 I-0.583359 J0.421990 F400.000000
G03 X266.975688 Y165.582461 Z-0.500000 I-0.673082 J0.255711
G00 Z5.000000

(End cutting path id: path1059)


(Start cutting path id: path1065)
(Change tool to Cylindrical cutter)

G00 Z5.000000
G00 X266.790114 Y165.167838

G01 Z-0.500000 F200.0(Penetrate)
G03 X266.807300 Y165.187286 Z-0.500000 I-0.530646 J0.486259 F400.000000
G03 X266.823775 Y165.207341 Z-0.500000 I-0.548337 J0.467242
G00 Z5.000000

(End cutting path id: path1065)


(Start cutting path id: path1061)
(Change tool to Cylindrical cutter)

G00 Z5.000000
G00 X266.979279 Y165.094269

G01 Z-0.500000 F200.0(Penetrate)
G01 X266.819279 Y165.094269 Z-0.500000 F400.000000
G00 Z5.000000

(End cutting path id: path1061)


(Start cutting path id: path1067)
(Change tool to Cylindrical cutter)

G00 Z5.000000
G00 X266.819279 Y164.934269

G01 Z-0.500000 F200.0(Penetrate)
G01 X260.419279 Y158.534269 Z-0.500000 F400.000000
G00 Z5.000000

(End cutting path id: path1067)


(Start cutting path id: path1073)
(Change tool to Cylindrical cutter)

G00 Z5.000000
G00 X260.099279 Y158.374269

G01 Z-0.500000 F200.0(Penetrate)
G01 X259.939279 Y158.374269 Z-0.500000 F400.000000
G00 Z5.000000

(End cutting path id: path1073)


(Start cutting path id: path1079)
(Change tool to Cylindrical cutter)

G00 Z5.000000
G00 X259.939279 Y158.374269

G01 Z-0.500000 F200.0(Penetrate)
G01 X257.219279 Y158.374269 Z-0.500000 F400.000000
G01 X257.219279 Y157.094269 Z-0.500000
G01 X254.339279 Y154.374269 Z-0.500000
G01 X250.339279 Y154.374269 Z-0.500000
G01 X247.619279 Y157.094269 Z-0.500000
G01 X247.619279 Y161.094269 Z-0.500000
G01 X250.339279 Y163.974269 Z-0.500000
G01 X251.619279 Y163.974269 Z-0.500000
G01 X251.619279 Y186.054269 Z-0.500000
G01 X240.099279 Y186.054269 Z-0.500000
G01 X240.099279 Y185.734269 Z-0.500000
G01 X238.659279 Y184.294269 Z-0.500000
G01 X236.579279 Y184.294269 Z-0.500000
G01 X235.139279 Y185.734269 Z-0.500000
G01 X235.139279 Y187.814269 Z-0.500000
G01 X236.579279 Y189.254269 Z-0.500000
G01 X238.659279 Y189.254269 Z-0.500000
G01 X240.099279 Y187.814269 Z-0.500000
G01 X240.099279 Y187.494269 Z-0.500000
G01 X252.419279 Y187.494269 Z-0.500000
G00 Z5.000000

(End cutting path id: path1079)


(Start cutting path id: path1083)
(Change tool to Cylindrical cutter)

G00 Z5.000000
G00 X253.050180 Y187.048374

G01 Z-0.500000 F200.0(Penetrate)
G03 X252.808543 Y187.480337 Z-0.500000 I-0.710899 J-0.114105 F400.000000
G03 X252.345146 Y187.654245 Z-0.500000 I-0.469265 J-0.546071
G00 Z5.000000

(End cutting path id: path1083)


(Start cutting path id: path1085)
(Change tool to Cylindrical cutter)

G00 Z5.000000
G00 X253.059279 Y186.854269

G01 Z-0.500000 F200.0(Penetrate)
G01 X253.059279 Y163.974269 Z-0.500000 F400.000000
G01 X254.339279 Y163.974269 Z-0.500000
G01 X257.219279 Y161.094269 Z-0.500000
G01 X257.219279 Y159.974269 Z-0.500000
G01 X259.619279 Y159.974269 Z-0.500000
G01 X265.539279 Y165.894269 Z-0.500000
G01 X265.539279 Y212.294269 Z-0.500000
G01 X260.579279 Y207.174269 Z-0.500000
G01 X260.419279 Y207.174269 Z-0.500000
G00 Z5.000000

(End cutting path id: path1085)


(Start cutting path id: path1091)
(Change tool to Cylindrical cutter)

G00 Z5.000000
G00 X259.939279 Y207.014269

G01 Z-0.500000 F200.0(Penetrate)
G01 X259.779279 Y206.854269 Z-0.500000 F400.000000
G00 Z5.000000

(End cutting path id: path1091)


(Start cutting path id: path1097)
(Change tool to Cylindrical cutter)

G00 Z5.000000
G00 X259.779279 Y206.854269

G01 Z-0.500000 F200.0(Penetrate)
G01 X235.139279 Y206.854269 Z-0.500000 F400.000000
G01 X234.659279 Y206.374269 Z-0.500000
G01 X232.099279 Y206.374269 Z-0.500000
G01 X231.619279 Y206.854269 Z-0.500000
G01 X207.299279 Y206.854269 Z-0.500000
G01 X200.259279 Y199.974269 Z-0.500000
G01 X200.259279 Y170.054269 Z-0.500000
G01 X200.259279 Y169.894269 Z-0.500000
G00 Z5.000000

(End cutting path id: path1097)


(Start cutting path id: path1101)
(Change tool to Cylindrical cutter)

G00 Z5.000000
G00 X199.931541 Y169.617469

G01 Z-0.500000 F200.0(Penetrate)
G03 X200.032872 Y169.798910 Z-0.500000 I-0.712260 J0.516797 F400.000000
G03 X200.088829 Y169.999058 Z-0.500000 I-0.813617 J0.335366
G00 Z5.000000

(End cutting path id: path1101)


(Start cutting path id: path1107)
(Change tool to Cylindrical cutter)

G00 Z5.000000
G00 X195.677492 Y165.585190

G01 Z-0.500000 F200.0(Penetrate)
G03 X195.877443 Y165.641837 Z-0.500000 I-0.138213 J0.869080 F400.000000
G03 X196.058535 Y165.743795 Z-0.500000 I-0.338160 J0.812420
G00 Z5.000000

(End cutting path id: path1107)


(Start cutting path id: path1113)
(Change tool to Cylindrical cutter)

G00 Z5.000000
G00 X195.538856 Y165.574269

G01 Z-0.500000 F200.0(Penetrate)
G01 X195.539701 Y165.574269 Z-0.500000 F400.000000
G00 Z5.000000

(End cutting path id: path1113)


(Start cutting path id: path847)
(Change tool to Cylindrical cutter)

G00 Z5.000000
G00 X208.419279 Y148.934269

G01 Z-0.500000 F200.0(Penetrate)
G01 X209.859279 Y150.374269 Z-0.500000 F400.000000
G01 X211.939279 Y150.374269 Z-0.500000
G01 X213.379279 Y148.934269 Z-0.500000
G00 Z5.000000

(End cutting path id: path847)


(Start cutting path id: path849)
(Change tool to Cylindrical cutter)

G00 Z5.000000
G00 X211.939279 Y145.414269

G01 Z-0.500000 F200.0(Penetrate)
G01 X209.859279 Y145.414269 Z-0.500000 F400.000000
G00 Z5.000000

(End cutting path id: path849)


(Start cutting path id: path893)
(Change tool to Cylindrical cutter)

G00 Z5.000000
G00 X219.139277 Y147.575787

G01 Z-0.500000 F200.0(Penetrate)
G03 X218.927905 Y148.146405 Z-0.500000 I-0.879998 J-0.001518 F400.000000
G03 X218.396824 Y148.443453 Z-0.500000 I-0.668625 J-0.572134
G00 Z5.000000

(End cutting path id: path893)


(Start cutting path id: path895)
(Change tool to Cylindrical cutter)

G00 Z5.000000
G00 X219.299279 Y147.494269

G01 Z-0.500000 F200.0(Penetrate)
G01 X219.299279 Y147.334269 Z-0.500000 F400.000000
G01 X226.179279 Y140.614269 Z-0.500000
G01 X250.179279 Y140.614269 Z-0.500000
G00 Z5.000000

(End cutting path id: path895)


(Start cutting path id: path2383)
(Change tool to Cylindrical cutter)

G00 Z5.000000
G00 X250.020469 Y139.204598

G01 Z-0.500000 F200.0(Penetrate)
G03 X250.890494 Y138.125167 Z-0.500000 I2.158810 J0.849670 F400.000000
G03 X252.220759 Y137.734640 Z-0.500000 I1.288784 J1.929100
G03 X253.536210 Y138.172478 Z-0.500000 I-0.041481 J2.319633
G03 X254.367087 Y139.282325 Z-0.500000 I-1.356929 J1.881789
G00 Z5.000000

(End cutting path id: path2383)


(Start cutting path id: path897)
(Change tool to Cylindrical cutter)

G00 Z5.000000
G00 X254.339279 Y140.774269

G01 Z-0.500000 F200.0(Penetrate)
G01 X327.139279 Y140.774269 Z-0.500000 F400.000000
G01 X327.139279 Y260.134269 Z-0.500000
G01 X325.379279 Y261.894269 Z-0.500000
G01 X245.699279 Y261.894269 Z-0.500000
G01 X245.699279 Y249.894269 Z-0.500000
G01 X260.259279 Y235.334269 Z-0.500000
G01 X270.819279 Y235.334269 Z-0.500000
G01 X278.979279 Y243.494269 Z-0.500000
G00 Z5.000000

(End cutting path id: path897)


(Start cutting path id: path901)
(Change tool to Cylindrical cutter)

G00 Z5.000000
G00 X279.401066 Y243.643347

G01 Z-0.500000 F200.0(Penetrate)
G03 X279.201114 Y243.586700 Z-0.500000 I0.138213 J-0.869080 F400.000000
G03 X279.020023 Y243.484742 Z-0.500000 I0.338160 J-0.812420
G00 Z5.000000

(End cutting path id: path901)


(Start cutting path id: path903)
(Change tool to Cylindrical cutter)

G00 Z5.000000
G00 X279.459279 Y243.654269

G01 Z-0.500000 F200.0(Penetrate)
G01 X279.619279 Y243.654269 Z-0.500000 F400.000000
G00 Z5.000000

(End cutting path id: path903)


(Start cutting path id: path909)
(Change tool to Cylindrical cutter)

G00 Z5.000000
G00 X279.619279 Y243.654269

G01 Z-0.500000 F200.0(Penetrate)
G01 X283.779279 Y243.654269 Z-0.500000 F400.000000
G00 Z5.000000

(End cutting path id: path909)


(Start cutting path id: path2371)
(Change tool to Cylindrical cutter)

G00 Z5.000000
G00 X283.865762 Y241.854320

G01 Z-0.500000 F200.0(Penetrate)
G03 X284.755101 Y241.074347 Z-0.500000 I1.593519 J0.919952 F400.000000
G03 X285.935477 Y240.996958 Z-0.500000 I0.704177 J1.699917
G03 X286.919040 Y241.654137 Z-0.500000 I-0.476198 J1.777311
G03 X287.299279 Y242.774269 Z-0.500000 I-1.459760 J1.120132
G03 X286.919040 Y243.894401 Z-0.500000 I-1.839999 J0.000000
G03 X285.935477 Y244.551579 Z-0.500000 I-1.459761 J-1.120133
G03 X284.755101 Y244.474190 Z-0.500000 I-0.476200 J-1.777305
G03 X283.865762 Y243.694218 Z-0.500000 I0.704180 J-1.699925
G00 Z5.000000

(End cutting path id: path2371)


(Start cutting path id: path911)
(Change tool to Cylindrical cutter)

G00 Z5.000000
G00 X283.779279 Y241.734269

G01 Z-0.500000 F200.0(Penetrate)
G01 X279.939279 Y241.734269 Z-0.500000 F400.000000
G01 X271.779279 Y233.734269 Z-0.500000
G01 X271.779279 Y233.574269 Z-0.500000
G00 Z5.000000

(End cutting path id: path911)


(Start cutting path id: path917)
(Change tool to Cylindrical cutter)

G00 Z5.000000
G00 X271.299279 Y233.414269

G01 Z-0.500000 F200.0(Penetrate)
G01 X271.139279 Y233.414269 Z-0.500000 F400.000000
G00 Z5.000000

(End cutting path id: path917)


(Start cutting path id: path923)
(Change tool to Cylindrical cutter)

G00 Z5.000000
G00 X271.139279 Y233.414269

G01 Z-0.500000 F200.0(Penetrate)
G01 X259.779279 Y233.414269 Z-0.500000 F400.000000
G01 X259.619279 Y233.414269 Z-0.500000
G00 Z5.000000

(End cutting path id: path923)


(Start cutting path id: path929)
(Change tool to Cylindrical cutter)

G00 Z5.000000
G00 X259.299279 Y233.574269

G01 Z-0.500000 F200.0(Penetrate)
G01 X259.139279 Y233.734269 Z-0.500000 F400.000000
G01 X244.099279 Y248.774269 Z-0.500000
G01 X243.939279 Y248.774269 Z-0.500000
G01 X243.939279 Y248.934269 Z-0.500000
G00 Z5.000000

(End cutting path id: path929)


(Start cutting path id: path935)
(Change tool to Cylindrical cutter)

G00 Z5.000000
G00 X243.779279 Y249.254269

G01 Z-0.500000 F200.0(Penetrate)
G01 X243.779279 Y249.414269 Z-0.500000 F400.000000
G00 Z5.000000

(End cutting path id: path935)


(Start cutting path id: path941)
(Change tool to Cylindrical cutter)

G00 Z5.000000
G00 X243.779279 Y249.414269

G01 Z-0.500000 F200.0(Penetrate)
G01 X243.779279 Y265.574269 Z-0.500000 F400.000000
G01 X235.459279 Y265.574269 Z-0.500000
G00 Z5.000000

(End cutting path id: path941)


(Start cutting path id: path957)
(Change tool to Cylindrical cutter)

G00 Z5.000000
G00 X235.459279 Y267.494269

G01 Z-0.500000 F200.0(Penetrate)
G01 X244.739279 Y267.494269 Z-0.500000 F400.000000
G01 X244.899279 Y267.494269 Z-0.500000
G00 Z5.000000

(End cutting path id: path957)


(Start cutting path id: path961)
(Change tool to Cylindrical cutter)

G00 Z5.000000
G00 X245.528224 Y266.753314

G01 Z-0.500000 F200.0(Penetrate)
G03 X245.280428 Y267.237625 Z-0.500000 I-0.868948 J-0.139047 F400.000000
G03 X244.795240 Y267.483702 Z-0.500000 I-0.621152 J-0.623359
G00 Z5.000000

(End cutting path id: path961)


(Start cutting path id: path967)
(Change tool to Cylindrical cutter)

G00 Z5.000000
G00 X245.539279 Y266.613509

G01 Z-0.500000 F200.0(Penetrate)
G01 X245.539279 Y266.615029 Z-0.500000 F400.000000
G00 Z5.000000

(End cutting path id: path967)


(Start cutting path id: path963)
(Change tool to Cylindrical cutter)

G00 Z5.000000
G00 X245.699279 Y266.694269

G01 Z-0.500000 F200.0(Penetrate)
G01 X245.699279 Y266.534269 Z-0.500000 F400.000000
G00 Z5.000000

(End cutting path id: path963)


(Start cutting path id: path969)
(Change tool to Cylindrical cutter)

G00 Z5.000000
G00 X245.699279 Y266.534269

G01 Z-0.500000 F200.0(Penetrate)
G01 X245.699279 Y263.814269 Z-0.500000 F400.000000
G01 X307.459279 Y263.814269 Z-0.500000
G01 X307.459279 Y271.494269 Z-0.500000
G00 Z5.000000

(End cutting path id: path969)


(Start cutting path id: path975)
(Change tool to Cylindrical cutter)

G00 Z5.000000
G00 X307.299279 Y272.134269

G01 Z-0.500000 F200.0(Penetrate)
G01 X307.299279 Y277.414269 Z-0.500000 F400.000000
G00 Z5.000000

(End cutting path id: path975)


(Start cutting path id: path2363)
(Change tool to Cylindrical cutter)

G00 Z5.000000
G00 X309.161152 Y277.330334

G01 Z-0.500000 F200.0(Penetrate)
G03 X310.141310 Y278.350923 Z-0.500000 I-0.981874 J1.923935 F400.000000
G03 X310.279434 Y279.759195 Z-0.500000 I-1.962033 J0.903347
G03 X309.516245 Y280.950771 Z-0.500000 I-2.100157 J-0.504928
G03 X308.179279 Y281.414269 Z-0.500000 I-1.336966 J-1.696503
G03 X306.842312 Y280.950771 Z-0.500000 I0.000000 J-2.160000
G03 X306.079124 Y279.759195 Z-0.500000 I1.336968 J-1.696505
G03 X306.217248 Y278.350923 Z-0.500000 I2.100158 J-0.504925
G03 X307.197405 Y277.330334 Z-0.500000 I1.962031 J0.903347
G00 Z5.000000

(End cutting path id: path2363)


(Start cutting path id: path977)
(Change tool to Cylindrical cutter)

G00 Z5.000000
G00 X309.219279 Y277.414269

G01 Z-0.500000 F200.0(Penetrate)
G01 X309.219279 Y272.134269 Z-0.500000 F400.000000
G01 X309.219279 Y271.974269 Z-0.500000
G00 Z5.000000

(End cutting path id: path977)


(Start cutting path id: path981)
(Change tool to Cylindrical cutter)

G00 Z5.000000
G00 X308.891541 Y271.697469

G01 Z-0.500000 F200.0(Penetrate)
G03 X308.992422 Y271.877819 Z-0.500000 I-0.712254 J0.516794 F400.000000
G03 X309.048463 Y272.076723 Z-0.500000 I-0.813160 J0.336455
G00 Z5.000000

(End cutting path id: path981)


(Start cutting path id: path983)
(Change tool to Cylindrical cutter)

G00 Z5.000000
G00 X309.059279 Y271.494269

G01 Z-0.500000 F200.0(Penetrate)
G01 X309.059279 Y263.814269 Z-0.500000 F400.000000
G01 X325.859279 Y263.814269 Z-0.500000
G01 X326.019279 Y263.654269 Z-0.500000
G00 Z5.000000

(End cutting path id: path983)


(Start cutting path id: path987)
(Change tool to Cylindrical cutter)

G00 Z5.000000
G00 X326.296079 Y263.646531

G01 Z-0.500000 F200.0(Penetrate)
G03 X326.114637 Y263.747862 Z-0.500000 I-0.516797 J-0.712260 F400.000000
G03 X325.914490 Y263.803819 Z-0.500000 I-0.335366 J-0.813617
G00 Z5.000000

(End cutting path id: path987)


(Start cutting path id: path989)
(Change tool to Cylindrical cutter)

G00 Z5.000000
G00 X326.339279 Y263.494269

G01 Z-0.500000 F200.0(Penetrate)
G01 X326.499279 Y263.494269 Z-0.500000 F400.000000
G01 X328.579279 Y261.414269 Z-0.500000
G00 Z5.000000

(End cutting path id: path989)


(Start cutting path id: path993)
(Change tool to Cylindrical cutter)

G00 Z5.000000
G00 X328.412036 Y260.338152

G01 Z-0.500000 F200.0(Penetrate)
G03 X328.579278 Y260.855028 Z-0.500000 I-0.712754 J0.516116 F400.000000
G03 X328.411144 Y261.371616 Z-0.500000 I-0.880005 J-0.000759
G00 Z5.000000

(End cutting path id: path993)


(Start cutting path id: path995)
(Change tool to Cylindrical cutter)

G00 Z5.000000
G00 X328.579279 Y260.294269

G01 Z-0.500000 F200.0(Penetrate)
G01 X328.579279 Y139.974269 Z-0.500000 F400.000000
G00 Z5.000000

(End cutting path id: path995)


(Start cutting path id: path999)
(Change tool to Cylindrical cutter)

G00 Z5.000000
G00 X327.813384 Y139.343368

G01 Z-0.500000 F200.0(Penetrate)
G03 X328.245347 Y139.585005 Z-0.500000 I-0.114105 J0.710899 F400.000000
G03 X328.419255 Y140.048402 Z-0.500000 I-0.546071 J0.469265
G00 Z5.000000

(End cutting path id: path999)


(Start cutting path id: path1001)
(Change tool to Cylindrical cutter)

G00 Z5.000000
G00 X327.939279 Y139.174269

G01 Z-0.500000 F200.0(Penetrate)
G01 X327.779279 Y139.174269 Z-0.500000 F400.000000
G01 X254.339279 Y139.174269 Z-0.500000
G00 Z5.000000

(End cutting path id: path1001)


(Start cutting path id: path2379)
(Change tool to Cylindrical cutter)

G00 Z5.000000
G00 X254.354215 Y140.861766

G01 Z-0.500000 F200.0(Penetrate)
G03 X253.486912 Y141.970645 Z-0.500000 I-2.174933 J-0.807494 F400.000000
G03 X252.138132 Y142.373904 Z-0.500000 I-1.307633 J-1.916377
G03 X250.804502 Y141.923063 Z-0.500000 I0.041147 J-2.319635
G03 X249.977072 Y140.784122 Z-0.500000 I1.374776 J-1.868792
G00 Z5.000000

(End cutting path id: path2379)


(Start cutting path id: path1003)
(Change tool to Cylindrical cutter)

G00 Z5.000000
G00 X250.179279 Y139.174269

G01 Z-0.500000 F200.0(Penetrate)
G01 X225.859279 Y139.174269 Z-0.500000 F400.000000
G01 X225.699279 Y139.174269 Z-0.500000
G00 Z5.000000

(End cutting path id: path1003)


(Start cutting path id: path1009)
(Change tool to Cylindrical cutter)

G00 Z5.000000
G00 X225.379279 Y139.174269

G01 Z-0.500000 F200.0(Penetrate)
G01 X225.379279 Y139.334269 Z-0.500000 F400.000000
G00 Z5.000000

(End cutting path id: path1009)


(Start cutting path id: path1007)
(Change tool to Cylindrical cutter)

G00 Z5.000000
G00 X225.357280 Y139.310901

G01 Z-0.500000 F200.0(Penetrate)
G03 X225.523571 Y139.221206 Z-0.500000 I0.421990 J0.583359 F400.000000
G03 X225.707471 Y139.177859 Z-0.500000 I0.255711 J0.673082
G00 Z5.000000

(End cutting path id: path1007)


(Start cutting path id: path1013)
(Change tool to Cylindrical cutter)

G00 Z5.000000
G00 X225.292848 Y139.363434

G01 Z-0.500000 F200.0(Penetrate)
G03 X225.312296 Y139.346248 Z-0.500000 I0.486259 J0.530646 F400.000000
G03 X225.332351 Y139.329773 Z-0.500000 I0.467242 J0.548337
G00 Z5.000000

(End cutting path id: path1013)


(Start cutting path id: path1015)
(Change tool to Cylindrical cutter)

G00 Z5.000000
G00 X225.219279 Y139.334269

G01 Z-0.500000 F200.0(Penetrate)
G01 X218.179279 Y146.534269 Z-0.500000 F400.000000
G01 X212.899279 Y146.534269 Z-0.500000
G01 X211.939279 Y145.414269 Z-0.500000
G01 X209.859279 Y145.414269 Z-0.500000
G01 X208.739279 Y146.534269 Z-0.500000
G01 X173.379279 Y146.534269 Z-0.500000
G01 X168.579279 Y141.734269 Z-0.500000
G01 X168.579279 Y139.014269 Z-0.500000
G00 Z5.000000

(End cutting path id: path1015)


(Start cutting path id: path871)
(Change tool to Cylindrical cutter)

G00 Z5.000000
G00 X166.659279 Y139.014269

G01 Z-0.500000 F200.0(Penetrate)
G01 X166.659279 Y142.054269 Z-0.500000 F400.000000
G01 X166.659279 Y142.214269 Z-0.500000
G00 Z5.000000

(End cutting path id: path871)


(Start cutting path id: path875)
(Change tool to Cylindrical cutter)

G00 Z5.000000
G00 X166.827016 Y142.651069

G01 Z-0.500000 F200.0(Penetrate)
G03 X166.725685 Y142.469627 Z-0.500000 I0.712260 J-0.516797 F400.000000
G03 X166.669728 Y142.269480 Z-0.500000 I0.813617 J-0.335366
G00 Z5.000000

(End cutting path id: path875)


(Start cutting path id: path877)
(Change tool to Cylindrical cutter)

G00 Z5.000000
G00 X166.819279 Y142.694269

G01 Z-0.500000 F200.0(Penetrate)
G01 X172.259279 Y148.134269 Z-0.500000 F400.000000
G01 X172.419279 Y148.134269 Z-0.500000
G00 Z5.000000

(End cutting path id: path877)


(Start cutting path id: path881)
(Change tool to Cylindrical cutter)

G00 Z5.000000
G00 X172.681066 Y148.443347

G01 Z-0.500000 F200.0(Penetrate)
G03 X172.481114 Y148.386700 Z-0.500000 I0.138213 J-0.869080 F400.000000
G03 X172.300023 Y148.284742 Z-0.500000 I0.338160 J-0.812420
G00 Z5.000000

(End cutting path id: path881)


(Start cutting path id: path883)
(Change tool to Cylindrical cutter)

G00 Z5.000000
G00 X172.739279 Y148.454269

G01 Z-0.500000 F200.0(Penetrate)
G01 X172.899279 Y148.454269 Z-0.500000 F400.000000
G00 Z5.000000

(End cutting path id: path883)


(Start cutting path id: path889)
(Change tool to Cylindrical cutter)

G00 Z5.000000
G00 X172.899279 Y148.454269

G01 Z-0.500000 F200.0(Penetrate)
G01 X208.419279 Y148.454269 Z-0.500000 F400.000000
G01 X208.419279 Y148.934269 Z-0.500000
G01 X209.859279 Y150.374269 Z-0.500000
G01 X211.939279 Y150.374269 Z-0.500000
G01 X213.379279 Y148.934269 Z-0.500000
G01 X213.379279 Y148.454269 Z-0.500000
G01 X218.339279 Y148.454269 Z-0.500000
G01 X218.499279 Y148.454269 Z-0.500000
G00 Z5.000000

(End cutting path id: path889)


(Start cutting path id: path2089)
(Change tool to Cylindrical cutter)

G00 Z5.000000
G00 X206.819279 Y135.334269

G01 Z-0.500000 F200.0(Penetrate)
G01 X206.819279 Y103.494269 Z-0.500000 F400.000000
G01 X210.659279 Y99.814269 Z-0.500000
G01 X246.979279 Y99.814269 Z-0.500000
G00 Z5.000000

(End cutting path id: path2089)


(Start cutting path id: path2351)
(Change tool to Cylindrical cutter)

G00 Z5.000000
G00 X246.895344 Y97.952395

G01 Z-0.500000 F200.0(Penetrate)
G03 X247.291928 Y97.406918 Z-0.500000 I1.923929 J0.981868 F400.000000
G03 X247.837405 Y97.010334 Z-0.500000 I1.527345 J1.527345
G00 Z5.000000

(End cutting path id: path2351)


(Start cutting path id: path2067)
(Change tool to Cylindrical cutter)

G00 Z5.000000
G00 X246.979279 Y97.894269

G01 Z-0.500000 F200.0(Penetrate)
G01 X210.179279 Y97.894269 Z-0.500000 F400.000000
G01 X210.019279 Y97.894269 Z-0.500000
G00 Z5.000000

(End cutting path id: path2067)


(Start cutting path id: path2073)
(Change tool to Cylindrical cutter)

G00 Z5.000000
G00 X209.699279 Y98.054269

G01 Z-0.500000 F200.0(Penetrate)
G01 X209.539279 Y98.054269 Z-0.500000 F400.000000
G01 X205.219279 Y102.374269 Z-0.500000
G01 X205.219279 Y102.534269 Z-0.500000
G00 Z5.000000

(End cutting path id: path2073)


(Start cutting path id: path2079)
(Change tool to Cylindrical cutter)

G00 Z5.000000
G00 X205.059279 Y102.854269

G01 Z-0.500000 F200.0(Penetrate)
G01 X204.899279 Y103.014269 Z-0.500000 F400.000000
G00 Z5.000000

(End cutting path id: path2079)


(Start cutting path id: path2085)
(Change tool to Cylindrical cutter)

G00 Z5.000000
G00 X204.899279 Y103.014269

G01 Z-0.500000 F200.0(Penetrate)
G01 X204.899279 Y135.334269 Z-0.500000 F400.000000
G00 Z5.000000

(End cutting path id: path2085)


(Start cutting path id: path2087)
(Change tool to Cylindrical cutter)

G00 Z5.000000
G00 X204.099279 Y136.134269

G01 Z-0.500000 F200.0(Penetrate)
G01 X204.099279 Y136.134269 Z-0.500000 F400.000000
G00 Z5.000000

(End cutting path id: path2087)


(Start cutting path id: path2323)
(Change tool to Cylindrical cutter)

G00 Z5.000000
G00 X206.761152 Y135.250334

G01 Z-0.500000 F200.0(Penetrate)
G03 X207.741310 Y136.270923 Z-0.500000 I-0.981874 J1.923935 F400.000000
G03 X207.879434 Y137.679195 Z-0.500000 I-1.962033 J0.903347
G03 X207.116245 Y138.870771 Z-0.500000 I-2.100157 J-0.504928
G03 X205.779279 Y139.334269 Z-0.500000 I-1.336966 J-1.696503
G03 X204.442312 Y138.870771 Z-0.500000 I-0.000000 J-2.160000
G03 X203.679124 Y137.679195 Z-0.500000 I1.336968 J-1.696505
G03 X203.817248 Y136.270923 Z-0.500000 I2.100158 J-0.504925
G03 X204.797405 Y135.250334 Z-0.500000 I1.962031 J0.903347
G00 Z5.000000

(End cutting path id: path2323)


(Start cutting path id: path2083)
(Change tool to Cylindrical cutter)

G00 Z5.000000
G00 X204.899279 Y103.094691

G01 Z-0.500000 F200.0(Penetrate)
G01 X204.899279 Y103.093846 Z-0.500000 F400.000000
G00 Z5.000000

(End cutting path id: path2083)


(Start cutting path id: path2077)
(Change tool to Cylindrical cutter)

G00 Z5.000000
G00 X204.910200 Y102.956056

G01 Z-0.500000 F200.0(Penetrate)
G03 X204.966847 Y102.756104 Z-0.500000 I0.869080 J0.138213 F400.000000
G03 X205.068805 Y102.575013 Z-0.500000 I0.812420 J0.338160
G00 Z5.000000

(End cutting path id: path2077)


(Start cutting path id: path2071)
(Change tool to Cylindrical cutter)

G00 Z5.000000
G00 X209.582479 Y98.222006

G01 Z-0.500000 F200.0(Penetrate)
G03 X209.763920 Y98.120675 Z-0.500000 I0.516797 J0.712260 F400.000000
G03 X209.964068 Y98.064718 Z-0.500000 I0.335366 J0.813617
G00 Z5.000000

(End cutting path id: path2071)


(Start cutting path id: path2407)
(Change tool to Cylindrical cutter)

G00 Z5.000000
G00 X195.299279 Y81.894269

G01 Z-0.500000 F200.0(Penetrate)
G01 X188.259279 Y81.894269 Z-0.500000 F400.000000
G01 X187.939279 Y81.894269 Z-0.500000
G00 Z5.000000

(End cutting path id: path2407)


(Start cutting path id: path2425)
(Change tool to Cylindrical cutter)

G00 Z5.000000
G00 X188.189264 Y79.170997

G01 Z-0.500000 F200.0(Penetrate)
G03 X186.220543 Y78.444354 Z-0.500000 I0.150017 J-3.436733 F400.000000
G03 X185.040309 Y76.709152 Z-0.500000 I2.118733 J-2.710083
G00 Z5.000000

(End cutting path id: path2425)


(Start cutting path id: path2421)
(Change tool to Cylindrical cutter)

G00 Z5.000000
G00 X185.040309 Y74.759386

G01 Z-0.500000 F200.0(Penetrate)
G03 X186.104375 Y73.119158 Z-0.500000 I3.298969 J0.974882 F400.000000
G03 X187.890378 Y72.323685 Z-0.500000 I2.234901 J2.615107
G00 Z5.000000

(End cutting path id: path2421)


(Start cutting path id: path1901)
(Change tool to Cylindrical cutter)

G00 Z5.000000
G00 X185.219279 Y74.694269

G01 Z-0.500000 F200.0(Penetrate)
G01 X157.859279 Y74.694269 Z-0.500000 F400.000000
G01 X157.699279 Y74.694269 Z-0.500000
G00 Z5.000000

(End cutting path id: path1901)


(Start cutting path id: path1907)
(Change tool to Cylindrical cutter)

G00 Z5.000000
G00 X157.219279 Y74.854269

G01 Z-0.500000 F200.0(Penetrate)
G01 X157.059279 Y75.014269 Z-0.500000 F400.000000
G01 X153.379279 Y78.694269 Z-0.500000
G01 X153.219279 Y78.854269 Z-0.500000
G00 Z5.000000

(End cutting path id: path1907)


(Start cutting path id: path1913)
(Change tool to Cylindrical cutter)

G00 Z5.000000
G00 X153.059279 Y79.334269

G01 Z-0.500000 F200.0(Penetrate)
G01 X153.059279 Y79.334269 Z-0.500000 F400.000000
G00 Z5.000000

(End cutting path id: path1913)


(Start cutting path id: path1911)
(Change tool to Cylindrical cutter)

G00 Z5.000000
G00 X153.070200 Y79.436056

G01 Z-0.500000 F200.0(Penetrate)
G03 X153.126847 Y79.236104 Z-0.500000 I0.869080 J0.138213 F400.000000
G03 X153.228805 Y79.055013 Z-0.500000 I0.812420 J0.338160
G00 Z5.000000

(End cutting path id: path1911)


(Start cutting path id: path1919)
(Change tool to Cylindrical cutter)

G00 Z5.000000
G00 X153.059279 Y79.494269

G01 Z-0.500000 F200.0(Penetrate)
G01 X153.059279 Y86.534269 Z-0.500000 F400.000000
G01 X149.379279 Y90.214269 Z-0.500000
G01 X132.259279 Y90.214269 Z-0.500000
G01 X128.579279 Y86.534269 Z-0.500000
G01 X128.579279 Y60.454269 Z-0.500000
G00 Z5.000000

(End cutting path id: path1919)


(Start cutting path id: path1923)
(Change tool to Cylindrical cutter)

G00 Z5.000000
G00 X128.251541 Y60.017469

G01 Z-0.500000 F200.0(Penetrate)
G03 X128.352872 Y60.198910 Z-0.500000 I-0.712260 J0.516797 F400.000000
G03 X128.408829 Y60.399058 Z-0.500000 I-0.813617 J0.335366
G00 Z5.000000

(End cutting path id: path1923)


(Start cutting path id: path1925)
(Change tool to Cylindrical cutter)

G00 Z5.000000
G00 X128.259279 Y59.974269

G01 Z-0.500000 F200.0(Penetrate)
G01 X128.259279 Y59.814269 Z-0.500000 F400.000000
G01 X120.739279 Y52.294269 Z-0.500000
G01 X120.579279 Y52.294269 Z-0.500000
G01 X120.579279 Y52.134269 Z-0.500000
G00 Z5.000000

(End cutting path id: path1925)


(Start cutting path id: path1931)
(Change tool to Cylindrical cutter)

G00 Z5.000000
G00 X120.099279 Y51.974269

G01 Z-0.500000 F200.0(Penetrate)
G01 X119.939279 Y51.974269 Z-0.500000 F400.000000
G00 Z5.000000

(End cutting path id: path1931)


(Start cutting path id: path1937)
(Change tool to Cylindrical cutter)

G00 Z5.000000
G00 X119.939279 Y51.974269

G01 Z-0.500000 F200.0(Penetrate)
G01 X25.539279 Y51.974269 Z-0.500000 F400.000000
G01 X25.379279 Y51.974269 Z-0.500000
G00 Z5.000000

(End cutting path id: path1937)


(Start cutting path id: path1943)
(Change tool to Cylindrical cutter)

G00 Z5.000000
G00 X24.899279 Y52.134269

G01 Z-0.500000 F200.0(Penetrate)
G01 X24.899279 Y52.294269 Z-0.500000 F400.000000
G01 X17.219279 Y59.814269 Z-0.500000
G01 X17.219279 Y59.974269 Z-0.500000
G00 Z5.000000

(End cutting path id: path1943)


(Start cutting path id: path1949)
(Change tool to Cylindrical cutter)

G00 Z5.000000
G00 X17.059279 Y60.294269

G01 Z-0.500000 F200.0(Penetrate)
G01 X17.059279 Y60.454269 Z-0.500000 F400.000000
G00 Z5.000000

(End cutting path id: path1949)


(Start cutting path id: path1955)
(Change tool to Cylindrical cutter)

G00 Z5.000000
G00 X17.059279 Y60.454269

G01 Z-0.500000 F200.0(Penetrate)
G01 X17.059279 Y87.014269 Z-0.500000 F400.000000
G01 X17.059279 Y87.174269 Z-0.500000
G00 Z5.000000

(End cutting path id: path1955)


(Start cutting path id: path1959)
(Change tool to Cylindrical cutter)

G00 Z5.000000
G00 X17.800234 Y87.963214

G01 Z-0.500000 F200.0(Penetrate)
G03 X17.315922 Y87.715418 Z-0.500000 I0.139047 J-0.868948 F400.000000
G03 X17.069845 Y87.230230 Z-0.500000 I0.623359 J-0.621152
G00 Z5.000000

(End cutting path id: path1959)


(Start cutting path id: path1961)
(Change tool to Cylindrical cutter)

G00 Z5.000000
G00 X17.859279 Y87.974269

G01 Z-0.500000 F200.0(Penetrate)
G01 X18.019279 Y87.974269 Z-0.500000 F400.000000
G00 Z5.000000

(End cutting path id: path1961)


(Start cutting path id: path1967)
(Change tool to Cylindrical cutter)

G00 Z5.000000
G00 X18.019279 Y87.974269

G01 Z-0.500000 F200.0(Penetrate)
G01 X40.259279 Y87.974269 Z-0.500000 F400.000000
G01 X51.299279 Y99.014269 Z-0.500000
G01 X51.459279 Y99.014269 Z-0.500000
G00 Z5.000000

(End cutting path id: path1967)


(Start cutting path id: path1971)
(Change tool to Cylindrical cutter)

G00 Z5.000000
G00 X51.721066 Y99.323347

G01 Z-0.500000 F200.0(Penetrate)
G03 X51.521114 Y99.266700 Z-0.500000 I0.138213 J-0.869080 F400.000000
G03 X51.340023 Y99.164742 Z-0.500000 I0.338160 J-0.812420
G00 Z5.000000

(End cutting path id: path1971)


(Start cutting path id: path1973)
(Change tool to Cylindrical cutter)

G00 Z5.000000
G00 X51.779279 Y99.334269

G01 Z-0.500000 F200.0(Penetrate)
G01 X51.939279 Y99.334269 Z-0.500000 F400.000000
G00 Z5.000000

(End cutting path id: path1973)


(Start cutting path id: path1979)
(Change tool to Cylindrical cutter)

G00 Z5.000000
G00 X51.939279 Y99.334269

G01 Z-0.500000 F200.0(Penetrate)
G01 X66.659279 Y99.334269 Z-0.500000 F400.000000
G01 X69.859279 Y102.534269 Z-0.500000
G01 X69.859279 Y104.454269 Z-0.500000
G01 X69.699279 Y104.454269 Z-0.500000
G00 Z5.000000

(End cutting path id: path1979)


(Start cutting path id: path1833)
(Change tool to Cylindrical cutter)

G00 Z5.000000
G00 X71.680895 Y104.627902

G01 Z-0.500000 F200.0(Penetrate)
G03 X72.797575 Y105.441085 Z-0.500000 I-0.941620 J2.466369 F400.000000
G03 X73.350704 Y106.706901 Z-0.500000 I-2.058299 J1.653184
G00 Z5.000000

(End cutting path id: path1833)


(Start cutting path id: path1995)
(Change tool to Cylindrical cutter)

G00 Z5.000000
G00 X71.868024 Y104.707738

G01 Z-0.500000 F200.0(Penetrate)
G03 X72.859746 Y105.521622 Z-0.500000 I-1.128744 J2.386529 F400.000000
G03 X73.350704 Y106.706901 Z-0.500000 I-2.120469 J1.572647
G00 Z5.000000

(End cutting path id: path1995)


(Start cutting path id: path1997)
(Change tool to Cylindrical cutter)

G00 Z5.000000
G00 X72.099279 Y104.454269

G01 Z-0.500000 F200.0(Penetrate)
G01 X71.779279 Y104.454269 Z-0.500000 F400.000000
G01 X71.779279 Y102.054269 Z-0.500000
G01 X71.779279 Y101.894269 Z-0.500000
G00 Z5.000000

(End cutting path id: path1997)


(Start cutting path id: path2003)
(Change tool to Cylindrical cutter)

G00 Z5.000000
G00 X71.619279 Y101.574269

G01 Z-0.500000 F200.0(Penetrate)
G01 X71.619279 Y101.414269 Z-0.500000 F400.000000
G01 X67.779279 Y97.574269 Z-0.500000
G01 X67.619279 Y97.574269 Z-0.500000
G00 Z5.000000

(End cutting path id: path2003)


(Start cutting path id: path2009)
(Change tool to Cylindrical cutter)

G00 Z5.000000
G00 X67.299279 Y97.414269

G01 Z-0.500000 F200.0(Penetrate)
G01 X67.139279 Y97.414269 Z-0.500000 F400.000000
G00 Z5.000000

(End cutting path id: path2009)


(Start cutting path id: path2015)
(Change tool to Cylindrical cutter)

G00 Z5.000000
G00 X67.139279 Y97.414269

G01 Z-0.500000 F200.0(Penetrate)
G01 X52.419279 Y97.414269 Z-0.500000 F400.000000
G01 X41.379279 Y86.214269 Z-0.500000
G01 X41.219279 Y86.214269 Z-0.500000
G00 Z5.000000

(End cutting path id: path2015)


(Start cutting path id: path2021)
(Change tool to Cylindrical cutter)

G00 Z5.000000
G00 X40.739279 Y86.054269

G01 Z-0.500000 F200.0(Penetrate)
G01 X40.579279 Y86.054269 Z-0.500000 F400.000000
G00 Z5.000000

(End cutting path id: path2021)


(Start cutting path id: path2027)
(Change tool to Cylindrical cutter)

G00 Z5.000000
G00 X40.579279 Y86.054269

G01 Z-0.500000 F200.0(Penetrate)
G01 X18.979279 Y86.054269 Z-0.500000 F400.000000
G01 X18.979279 Y60.934269 Z-0.500000
G01 X25.859279 Y53.894269 Z-0.500000
G01 X119.619279 Y53.894269 Z-0.500000
G01 X126.659279 Y60.934269 Z-0.500000
G01 X126.659279 Y87.014269 Z-0.500000
G01 X126.659279 Y87.174269 Z-0.500000
G00 Z5.000000

(End cutting path id: path2027)


(Start cutting path id: path2033)
(Change tool to Cylindrical cutter)

G00 Z5.000000
G00 X126.819279 Y87.494269

G01 Z-0.500000 F200.0(Penetrate)
G01 X126.819279 Y87.654269 Z-0.500000 F400.000000
G01 X131.139279 Y91.814269 Z-0.500000
G01 X131.139279 Y91.974269 Z-0.500000
G01 X131.299279 Y91.974269 Z-0.500000
G00 Z5.000000

(End cutting path id: path2033)


(Start cutting path id: path2037)
(Change tool to Cylindrical cutter)

G00 Z5.000000
G00 X131.561066 Y92.123347

G01 Z-0.500000 F200.0(Penetrate)
G03 X131.361114 Y92.066700 Z-0.500000 I0.138213 J-0.869080 F400.000000
G03 X131.180023 Y91.964742 Z-0.500000 I0.338160 J-0.812420
G00 Z5.000000

(End cutting path id: path2037)


(Start cutting path id: path2039)
(Change tool to Cylindrical cutter)

G00 Z5.000000
G00 X131.619279 Y92.134269

G01 Z-0.500000 F200.0(Penetrate)
G01 X131.779279 Y92.134269 Z-0.500000 F400.000000
G00 Z5.000000

(End cutting path id: path2039)


(Start cutting path id: path2045)
(Change tool to Cylindrical cutter)

G00 Z5.000000
G00 X131.779279 Y92.134269

G01 Z-0.500000 F200.0(Penetrate)
G01 X149.699279 Y92.134269 Z-0.500000 F400.000000
G01 X149.859279 Y92.134269 Z-0.500000
G00 Z5.000000

(End cutting path id: path2045)


(Start cutting path id: path2049)
(Change tool to Cylindrical cutter)

G00 Z5.000000
G00 X150.136079 Y91.966531

G01 Z-0.500000 F200.0(Penetrate)
G03 X149.954637 Y92.067862 Z-0.500000 I-0.516797 J-0.712260 F400.000000
G03 X149.754490 Y92.123819 Z-0.500000 I-0.335366 J-0.813617
G00 Z5.000000

(End cutting path id: path2049)


(Start cutting path id: path2051)
(Change tool to Cylindrical cutter)

G00 Z5.000000
G00 X150.339279 Y91.974269

G01 Z-0.500000 F200.0(Penetrate)
G01 X150.499279 Y91.814269 Z-0.500000 F400.000000
G01 X154.659279 Y87.654269 Z-0.500000
G01 X154.819279 Y87.494269 Z-0.500000
G00 Z5.000000

(End cutting path id: path2051)


(Start cutting path id: path2055)
(Change tool to Cylindrical cutter)

G00 Z5.000000
G00 X154.808357 Y87.232482

G01 Z-0.500000 F200.0(Penetrate)
G03 X154.751710 Y87.432434 Z-0.500000 I-0.869080 J-0.138213 F400.000000
G03 X154.649752 Y87.613525 Z-0.500000 I-0.812420 J-0.338160
G00 Z5.000000

(End cutting path id: path2055)


(Start cutting path id: path2061)
(Change tool to Cylindrical cutter)

G00 Z5.000000
G00 X154.819279 Y87.093846

G01 Z-0.500000 F200.0(Penetrate)
G01 X154.819279 Y87.094691 Z-0.500000 F400.000000
G00 Z5.000000

(End cutting path id: path2061)


(Start cutting path id: path2057)
(Change tool to Cylindrical cutter)

G00 Z5.000000
G00 X154.979279 Y87.174269

G01 Z-0.500000 F200.0(Penetrate)
G01 X154.979279 Y87.014269 Z-0.500000 F400.000000
G00 Z5.000000

(End cutting path id: path2057)


(Start cutting path id: path2063)
(Change tool to Cylindrical cutter)

G00 Z5.000000
G00 X154.979279 Y87.014269

G01 Z-0.500000 F200.0(Penetrate)
G01 X154.979279 Y79.814269 Z-0.500000 F400.000000
G01 X158.179279 Y76.614269 Z-0.500000
G01 X185.219279 Y76.614269 Z-0.500000
G00 Z5.000000

(End cutting path id: path2063)


(Start cutting path id: path2427)
(Change tool to Cylindrical cutter)

G00 Z5.000000
G00 X188.259279 Y79.014269

G01 Z-0.500000 F200.0(Penetrate)
G01 X195.299279 Y79.014269 Z-0.500000 F400.000000
G01 X195.619279 Y79.014269 Z-0.500000
G00 Z5.000000

(End cutting path id: path2427)


(Start cutting path id: path2405)
(Change tool to Cylindrical cutter)

G00 Z5.000000
G00 X195.209293 Y81.897541

G01 Z-0.500000 F200.0(Penetrate)
G03 X197.491726 Y82.901822 Z-0.500000 I-0.150017 J3.436730 F400.000000
G03 X198.496007 Y85.184254 Z-0.500000 I-2.432449 J2.432449
G03 X197.694425 Y87.545514 Z-0.500000 I-3.436729 J0.150014
G03 X195.508180 Y88.744853 Z-0.500000 I-2.635144 J-2.211244
G00 Z5.000000

(End cutting path id: path2405)


(Start cutting path id: path2401)
(Change tool to Cylindrical cutter)

G00 Z5.000000
G00 X188.259279 Y88.614269

G01 Z-0.500000 F200.0(Penetrate)
G01 X195.299279 Y88.614269 Z-0.500000 F400.000000
G01 X195.619279 Y88.614269 Z-0.500000
G00 Z5.000000

(End cutting path id: path2401)


(Start cutting path id: path2399)
(Change tool to Cylindrical cutter)

G00 Z5.000000
G00 X188.189264 Y88.770997

G01 Z-0.500000 F200.0(Penetrate)
G03 X186.220543 Y88.044354 Z-0.500000 I0.150017 J-3.436733 F400.000000
G03 X185.040309 Y86.309152 Z-0.500000 I2.118733 J-2.710083
G00 Z5.000000

(End cutting path id: path2399)


(Start cutting path id: path2411)
(Change tool to Cylindrical cutter)

G00 Z5.000000
G00 X185.040309 Y84.359386

G01 Z-0.500000 F200.0(Penetrate)
G03 X186.104375 Y82.719158 Z-0.500000 I3.298969 J0.974882 F400.000000
G03 X187.890378 Y81.923685 Z-0.500000 I2.234901 J2.615107
G00 Z5.000000

(End cutting path id: path2411)


(Start cutting path id: path851)
(Change tool to Cylindrical cutter)

G00 Z5.000000
G00 X185.219279 Y84.294269

G01 Z-0.500000 F200.0(Penetrate)
G01 X170.819279 Y84.294269 Z-0.500000 F400.000000
G01 X170.659279 Y84.294269 Z-0.500000
G00 Z5.000000

(End cutting path id: path851)


(Start cutting path id: path857)
(Change tool to Cylindrical cutter)

G00 Z5.000000
G00 X170.339279 Y84.454269

G01 Z-0.500000 F200.0(Penetrate)
G01 X170.179279 Y84.614269 Z-0.500000 F400.000000
G01 X166.819279 Y87.814269 Z-0.500000
G01 X166.819279 Y87.974269 Z-0.500000
G00 Z5.000000

(End cutting path id: path857)


(Start cutting path id: path863)
(Change tool to Cylindrical cutter)

G00 Z5.000000
G00 X166.659279 Y88.454269

G01 Z-0.500000 F200.0(Penetrate)
G01 X166.659279 Y88.614269 Z-0.500000 F400.000000
G00 Z5.000000

(End cutting path id: path863)


(Start cutting path id: path869)
(Change tool to Cylindrical cutter)

G00 Z5.000000
G00 X166.659279 Y88.614269

G01 Z-0.500000 F200.0(Penetrate)
G01 X166.659279 Y135.334269 Z-0.500000 F400.000000
G00 Z5.000000

(End cutting path id: path869)


(Start cutting path id: path2331)
(Change tool to Cylindrical cutter)

G00 Z5.000000
G00 X168.521152 Y135.250334

G01 Z-0.500000 F200.0(Penetrate)
G03 X169.381349 Y136.046272 Z-0.500000 I-0.981873 J1.923934 F400.000000
G03 X169.699279 Y137.174269 Z-0.500000 I-1.842070 J1.127997
G03 X169.381349 Y138.302266 Z-0.500000 I-2.160000 J0.000000
G03 X168.521152 Y139.098203 Z-0.500000 I-1.842070 J-1.127997
G00 Z5.000000

(End cutting path id: path2331)


(Start cutting path id: path2335)
(Change tool to Cylindrical cutter)

G00 Z5.000000
G00 X166.557405 Y139.098203

G01 Z-0.500000 F200.0(Penetrate)
G03 X165.697209 Y138.302266 Z-0.500000 I0.981873 J-1.923934 F400.000000
G03 X165.379279 Y137.174269 Z-0.500000 I1.842070 J-1.127997
G03 X165.697209 Y136.046272 Z-0.500000 I2.160000 J-0.000000
G03 X166.557405 Y135.250334 Z-0.500000 I1.842070 J1.127997
G00 Z5.000000

(End cutting path id: path2335)


(Start cutting path id: path1017)
(Change tool to Cylindrical cutter)

G00 Z5.000000
G00 X168.579279 Y135.334269

G01 Z-0.500000 F200.0(Penetrate)
G01 X168.579279 Y88.934269 Z-0.500000 F400.000000
G01 X171.299279 Y86.214269 Z-0.500000
G01 X185.219279 Y86.214269 Z-0.500000
G00 Z5.000000

(End cutting path id: path1017)


(Start cutting path id: path855)
(Change tool to Cylindrical cutter)

G00 Z5.000000
G00 X170.222479 Y84.622006

G01 Z-0.500000 F200.0(Penetrate)
G03 X170.403920 Y84.520675 Z-0.500000 I0.516797 J0.712260 F400.000000
G03 X170.604068 Y84.464718 Z-0.500000 I0.335366 J0.813617
G00 Z5.000000

(End cutting path id: path855)


(Start cutting path id: path861)
(Change tool to Cylindrical cutter)

G00 Z5.000000
G00 X166.670200 Y88.556056

G01 Z-0.500000 F200.0(Penetrate)
G03 X166.726847 Y88.356104 Z-0.500000 I0.869080 J0.138213 F400.000000
G03 X166.828805 Y88.175013 Z-0.500000 I0.812420 J0.338160
G00 Z5.000000

(End cutting path id: path861)


(Start cutting path id: path867)
(Change tool to Cylindrical cutter)

G00 Z5.000000
G00 X166.659279 Y88.694691

G01 Z-0.500000 F200.0(Penetrate)
G01 X166.659279 Y88.693846 Z-0.500000 F400.000000
G00 Z5.000000

(End cutting path id: path867)


(Start cutting path id: path1917)
(Change tool to Cylindrical cutter)

G00 Z5.000000
G00 X153.059279 Y79.574691

G01 Z-0.500000 F200.0(Penetrate)
G01 X153.059279 Y79.573846 Z-0.500000 F400.000000
G00 Z5.000000

(End cutting path id: path1917)


(Start cutting path id: path1905)
(Change tool to Cylindrical cutter)

G00 Z5.000000
G00 X157.262479 Y75.022006

G01 Z-0.500000 F200.0(Penetrate)
G03 X157.443920 Y74.920675 Z-0.500000 I0.516797 J0.712260 F400.000000
G03 X157.644068 Y74.864718 Z-0.500000 I0.335366 J0.813617
G00 Z5.000000

(End cutting path id: path1905)


(Start cutting path id: path1793)
(Change tool to Cylindrical cutter)

G00 Z5.000000
G00 X143.342479 Y65.422006

G01 Z-0.500000 F200.0(Penetrate)
G03 X143.523920 Y65.320675 Z-0.500000 I0.516797 J0.712260 F400.000000
G03 X143.724068 Y65.264718 Z-0.500000 I0.335366 J0.813617
G00 Z5.000000

(End cutting path id: path1793)


(Start cutting path id: path1795)
(Change tool to Cylindrical cutter)

G00 Z5.000000
G00 X143.299279 Y65.254269

G01 Z-0.500000 F200.0(Penetrate)
G01 X143.299279 Y65.414269 Z-0.500000 F400.000000
G01 X136.739279 Y71.814269 Z-0.500000
G00 Z5.000000

(End cutting path id: path1795)


(Start cutting path id: path2303)
(Change tool to Cylindrical cutter)

G00 Z5.000000
G00 X138.039965 Y73.182430

G01 Z-0.500000 F200.0(Penetrate)
G03 X138.055733 Y74.721255 Z-0.500000 I-2.180692 J0.791838 F400.000000
G03 X137.105074 Y75.931408 Z-0.500000 I-2.196451 J-0.746983
G03 X135.606271 Y76.280432 Z-0.500000 I-1.245795 J-1.957137
G03 X134.218791 Y75.614757 Z-0.500000 I0.253007 J-2.306163
G03 X133.553115 Y74.227276 Z-0.500000 I1.640488 J-1.640488
G03 X133.902140 Y72.728474 Z-0.500000 I2.306161 J-0.253007
G03 X135.112293 Y71.777814 Z-0.500000 I1.957137 J1.245792
G03 X136.651117 Y71.793582 Z-0.500000 I0.746986 J2.196460
G00 Z5.000000

(End cutting path id: path2303)


(Start cutting path id: path1797)
(Change tool to Cylindrical cutter)

G00 Z5.000000
G00 X138.179279 Y73.254269

G01 Z-0.500000 F200.0(Penetrate)
G01 X144.259279 Y67.014269 Z-0.500000 F400.000000
G01 X188.259279 Y67.014269 Z-0.500000
G01 X188.259279 Y69.574269 Z-0.500000
G01 X195.299279 Y69.574269 Z-0.500000
G00 Z5.000000

(End cutting path id: path1797)


(Start cutting path id: path2433)
(Change tool to Cylindrical cutter)

G00 Z5.000000
G00 X195.299279 Y69.574269

G01 Z-0.500000 F200.0(Penetrate)
G01 X195.299279 Y62.534269 Z-0.500000 F400.000000
G00 Z5.000000

(End cutting path id: path2433)


(Start cutting path id: path1799)
(Change tool to Cylindrical cutter)

G00 Z5.000000
G00 X195.299279 Y62.534269

G01 Z-0.500000 F200.0(Penetrate)
G01 X192.739279 Y62.534269 Z-0.500000 F400.000000
G01 X192.739279 Y45.734269 Z-0.500000
G01 X199.779279 Y38.854269 Z-0.500000
G01 X214.499279 Y38.854269 Z-0.500000
G01 X214.659279 Y38.854269 Z-0.500000
G00 Z5.000000

(End cutting path id: path1799)


(Start cutting path id: path1803)
(Change tool to Cylindrical cutter)

G00 Z5.000000
G00 X214.936079 Y38.686531

G01 Z-0.500000 F200.0(Penetrate)
G03 X214.754637 Y38.787862 Z-0.500000 I-0.516797 J-0.712260 F400.000000
G03 X214.554490 Y38.843819 Z-0.500000 I-0.335366 J-0.813617
G00 Z5.000000

(End cutting path id: path1803)


(Start cutting path id: path1805)
(Change tool to Cylindrical cutter)

G00 Z5.000000
G00 X214.979279 Y38.694269

G01 Z-0.500000 F200.0(Penetrate)
G01 X215.139279 Y38.534269 Z-0.500000 F400.000000
G01 X222.659279 Y31.014269 Z-0.500000
G01 X222.819279 Y30.854269 Z-0.500000
G00 Z5.000000

(End cutting path id: path1805)


(Start cutting path id: path1809)
(Change tool to Cylindrical cutter)

G00 Z5.000000
G00 X222.808357 Y30.432482

G01 Z-0.500000 F200.0(Penetrate)
G03 X222.751710 Y30.632434 Z-0.500000 I-0.869080 J-0.138213 F400.000000
G03 X222.649752 Y30.813525 Z-0.500000 I-0.812420 J-0.338160
G00 Z5.000000

(End cutting path id: path1809)


(Start cutting path id: path1815)
(Change tool to Cylindrical cutter)

G00 Z5.000000
G00 X222.819279 Y30.293846

G01 Z-0.500000 F200.0(Penetrate)
G01 X222.819279 Y30.294691 Z-0.500000 F400.000000
G00 Z5.000000

(End cutting path id: path1815)


(Start cutting path id: path1811)
(Change tool to Cylindrical cutter)

G00 Z5.000000
G00 X222.979279 Y30.374269

G01 Z-0.500000 F200.0(Penetrate)
G01 X222.979279 Y30.214269 Z-0.500000 F400.000000
G00 Z5.000000

(End cutting path id: path1811)


(Start cutting path id: path1817)
(Change tool to Cylindrical cutter)

G00 Z5.000000
G00 X222.979279 Y30.214269

G01 Z-0.500000 F200.0(Penetrate)
G01 X222.979279 Y26.854269 Z-0.500000 F400.000000
G01 X226.179279 Y23.654269 Z-0.500000
G01 X244.259279 Y23.654269 Z-0.500000
G01 X247.459279 Y26.854269 Z-0.500000
G01 X247.459279 Y58.854269 Z-0.500000
G00 Z5.000000

(End cutting path id: path1817)


(Start cutting path id: path2339)
(Change tool to Cylindrical cutter)

G00 Z5.000000
G00 X249.337284 Y58.437302

G01 Z-0.500000 F200.0(Penetrate)
G03 X250.227228 Y58.896198 Z-0.500000 I-0.517997 J2.096954 F400.000000
G03 X250.814621 Y59.707099 Z-0.500000 I-1.407961 J1.638081
G00 Z5.000000

(End cutting path id: path2339)


(Start cutting path id: path1727)
(Change tool to Cylindrical cutter)

G00 Z5.000000
G00 X250.659279 Y61.574269

G01 Z-0.500000 F200.0(Penetrate)
G01 X260.899279 Y61.574269 Z-0.500000 F400.000000
G01 X262.339279 Y63.014269 Z-0.500000
G01 X264.419279 Y63.014269 Z-0.500000
G01 X266.019279 Y61.574269 Z-0.500000
G01 X298.659279 Y61.574269 Z-0.500000
G01 X298.819279 Y61.574269 Z-0.500000
G00 Z5.000000

(End cutting path id: path1727)


(Start cutting path id: path1731)
(Change tool to Cylindrical cutter)

G00 Z5.000000
G00 X299.096079 Y61.406531

G01 Z-0.500000 F200.0(Penetrate)
G03 X298.914637 Y61.507862 Z-0.500000 I-0.516797 J-0.712260 F400.000000
G03 X298.714490 Y61.563819 Z-0.500000 I-0.335366 J-0.813617
G00 Z5.000000

(End cutting path id: path1731)


(Start cutting path id: path1733)
(Change tool to Cylindrical cutter)

G00 Z5.000000
G00 X299.139279 Y61.414269

G01 Z-0.500000 F200.0(Penetrate)
G01 X299.299279 Y61.254269 Z-0.500000 F400.000000
G01 X300.259279 Y60.134269 Z-0.500000
G01 X300.419279 Y60.294269 Z-0.500000
G01 X302.499279 Y60.294269 Z-0.500000
G01 X303.939279 Y58.854269 Z-0.500000
G01 X303.939279 Y56.774269 Z-0.500000
G01 X302.499279 Y55.334269 Z-0.500000
G01 X300.419279 Y55.334269 Z-0.500000
G01 X298.819279 Y56.774269 Z-0.500000
G01 X298.819279 Y58.854269 Z-0.500000
G01 X298.979279 Y58.854269 Z-0.500000
G01 X298.179279 Y59.654269 Z-0.500000
G01 X266.019279 Y59.654269 Z-0.500000
G01 X266.019279 Y59.494269 Z-0.500000
G01 X264.419279 Y58.054269 Z-0.500000
G01 X262.339279 Y58.054269 Z-0.500000
G01 X260.899279 Y59.494269 Z-0.500000
G01 X260.899279 Y59.654269 Z-0.500000
G01 X250.819279 Y59.654269 Z-0.500000
G00 Z5.000000

(End cutting path id: path1733)


(Start cutting path id: path1735)
(Change tool to Cylindrical cutter)

G00 Z5.000000
G00 X249.379279 Y58.374269

G01 Z-0.500000 F200.0(Penetrate)
G01 X249.379279 Y26.534269 Z-0.500000 F400.000000
G01 X249.379279 Y26.374269 Z-0.500000
G00 Z5.000000

(End cutting path id: path1735)


(Start cutting path id: path1739)
(Change tool to Cylindrical cutter)

G00 Z5.000000
G00 X249.051541 Y26.097469

G01 Z-0.500000 F200.0(Penetrate)
G03 X249.152872 Y26.278910 Z-0.500000 I-0.712260 J0.516797 F400.000000
G03 X249.208829 Y26.479058 Z-0.500000 I-0.813617 J0.335366
G00 Z5.000000

(End cutting path id: path1739)


(Start cutting path id: path1741)
(Change tool to Cylindrical cutter)

G00 Z5.000000
G00 X249.219279 Y25.894269

G01 Z-0.500000 F200.0(Penetrate)
G01 X245.379279 Y22.054269 Z-0.500000 F400.000000
G01 X245.219279 Y21.894269 Z-0.500000
G00 Z5.000000

(End cutting path id: path1741)


(Start cutting path id: path1747)
(Change tool to Cylindrical cutter)

G00 Z5.000000
G00 X244.899279 Y21.734269

G01 Z-0.500000 F200.0(Penetrate)
G01 X244.739279 Y21.734269 Z-0.500000 F400.000000
G00 Z5.000000

(End cutting path id: path1747)


(Start cutting path id: path1753)
(Change tool to Cylindrical cutter)

G00 Z5.000000
G00 X244.739279 Y21.734269

G01 Z-0.500000 F200.0(Penetrate)
G01 X225.859279 Y21.734269 Z-0.500000 F400.000000
G01 X225.699279 Y21.734269 Z-0.500000
G00 Z5.000000

(End cutting path id: path1753)


(Start cutting path id: path1759)
(Change tool to Cylindrical cutter)

G00 Z5.000000
G00 X225.219279 Y21.894269

G01 Z-0.500000 F200.0(Penetrate)
G01 X225.059279 Y22.054269 Z-0.500000 F400.000000
G01 X221.379279 Y25.894269 Z-0.500000
G01 X221.219279 Y25.894269 Z-0.500000
G00 Z5.000000

(End cutting path id: path1759)


(Start cutting path id: path1765)
(Change tool to Cylindrical cutter)

G00 Z5.000000
G00 X221.059279 Y26.374269

G01 Z-0.500000 F200.0(Penetrate)
G01 X221.059279 Y26.534269 Z-0.500000 F400.000000
G00 Z5.000000

(End cutting path id: path1765)


(Start cutting path id: path1771)
(Change tool to Cylindrical cutter)

G00 Z5.000000
G00 X221.059279 Y26.534269

G01 Z-0.500000 F200.0(Penetrate)
G01 X221.059279 Y29.894269 Z-0.500000 F400.000000
G01 X214.019279 Y36.934269 Z-0.500000
G01 X199.299279 Y36.934269 Z-0.500000
G01 X199.139279 Y36.934269 Z-0.500000
G00 Z5.000000

(End cutting path id: path1771)


(Start cutting path id: path1777)
(Change tool to Cylindrical cutter)

G00 Z5.000000
G00 X198.819279 Y37.094269

G01 Z-0.500000 F200.0(Penetrate)
G01 X198.659279 Y37.094269 Z-0.500000 F400.000000
G01 X191.139279 Y44.774269 Z-0.500000
G01 X190.979279 Y44.774269 Z-0.500000
G00 Z5.000000

(End cutting path id: path1777)


(Start cutting path id: path1783)
(Change tool to Cylindrical cutter)

G00 Z5.000000
G00 X190.819279 Y45.254269

G01 Z-0.500000 F200.0(Penetrate)
G01 X190.819279 Y45.414269 Z-0.500000 F400.000000
G00 Z5.000000

(End cutting path id: path1783)


(Start cutting path id: path1789)
(Change tool to Cylindrical cutter)

G00 Z5.000000
G00 X190.819279 Y45.414269

G01 Z-0.500000 F200.0(Penetrate)
G01 X190.819279 Y62.534269 Z-0.500000 F400.000000
G01 X188.259279 Y62.534269 Z-0.500000
G01 X188.259279 Y65.094269 Z-0.500000
G01 X143.939279 Y65.094269 Z-0.500000
G01 X143.779279 Y65.094269 Z-0.500000
G00 Z5.000000

(End cutting path id: path1789)


(Start cutting path id: path1697)
(Change tool to Cylindrical cutter)

G00 Z5.000000
G00 X117.859279 Y68.454269

G01 Z-0.500000 F200.0(Penetrate)
G01 X117.699279 Y68.294269 Z-0.500000 F400.000000
G01 X113.059279 Y63.654269 Z-0.500000
G01 X113.059279 Y63.494269 Z-0.500000
G00 Z5.000000

(End cutting path id: path1697)


(Start cutting path id: path1703)
(Change tool to Cylindrical cutter)

G00 Z5.000000
G00 X112.579279 Y63.334269

G01 Z-0.500000 F200.0(Penetrate)
G01 X112.419279 Y63.334269 Z-0.500000 F400.000000
G00 Z5.000000

(End cutting path id: path1703)


(Start cutting path id: path1709)
(Change tool to Cylindrical cutter)

G00 Z5.000000
G00 X112.419279 Y63.334269

G01 Z-0.500000 F200.0(Penetrate)
G01 X78.819279 Y63.334269 Z-0.500000 F400.000000
G01 X78.659279 Y63.334269 Z-0.500000
G00 Z5.000000

(End cutting path id: path1709)


(Start cutting path id: path1715)
(Change tool to Cylindrical cutter)

G00 Z5.000000
G00 X78.339279 Y63.494269

G01 Z-0.500000 F200.0(Penetrate)
G01 X78.179279 Y63.654269 Z-0.500000 F400.000000
G01 X69.859279 Y71.974269 Z-0.500000
G00 Z5.000000

(End cutting path id: path1715)


(Start cutting path id: path2319)
(Change tool to Cylindrical cutter)

G00 Z5.000000
G00 X71.159965 Y73.342430

G01 Z-0.500000 F200.0(Penetrate)
G03 X71.175733 Y74.881255 Z-0.500000 I-2.180692 J0.791838 F400.000000
G03 X70.225074 Y76.091408 Z-0.500000 I-2.196451 J-0.746983
G03 X68.726271 Y76.440432 Z-0.500000 I-1.245795 J-1.957137
G03 X67.338791 Y75.774757 Z-0.500000 I0.253007 J-2.306163
G03 X66.673115 Y74.387276 Z-0.500000 I1.640488 J-1.640488
G03 X67.022140 Y72.888474 Z-0.500000 I2.306161 J-0.253007
G03 X68.232293 Y71.937814 Z-0.500000 I1.957137 J1.245792
G03 X69.771117 Y71.953582 Z-0.500000 I0.746986 J2.196460
G00 Z5.000000

(End cutting path id: path2319)


(Start cutting path id: path1717)
(Change tool to Cylindrical cutter)

G00 Z5.000000
G00 X71.299279 Y73.254269

G01 Z-0.500000 F200.0(Penetrate)
G01 X79.299279 Y65.254269 Z-0.500000 F400.000000
G01 X112.099279 Y65.254269 Z-0.500000
G01 X116.099279 Y69.414269 Z-0.500000
G01 X116.099279 Y71.974269 Z-0.500000
G00 Z5.000000

(End cutting path id: path1717)


(Start cutting path id: path2295)
(Change tool to Cylindrical cutter)

G00 Z5.000000
G00 X117.961343 Y71.872378

G01 Z-0.500000 F200.0(Penetrate)
G03 X119.060605 Y72.949340 Z-0.500000 I-0.982061 J2.101889 F400.000000
G03 X119.244095 Y74.477266 Z-0.500000 I-2.081327 J1.024929
G03 X118.431079 Y75.783875 Z-0.500000 I-2.264812 J-0.502993
G03 X116.979279 Y76.294269 Z-0.500000 I-1.451801 J-1.809608
G03 X115.527478 Y75.783875 Z-0.500000 I-0.000000 J-2.320001
G03 X114.714463 Y74.477266 Z-0.500000 I1.451796 J-1.809602
G03 X114.897952 Y72.949340 Z-0.500000 I2.264816 J-0.502997
G03 X115.997215 Y71.872378 Z-0.500000 I2.081324 J1.024927
G00 Z5.000000

(End cutting path id: path2295)


(Start cutting path id: path1691)
(Change tool to Cylindrical cutter)

G00 Z5.000000
G00 X118.019279 Y71.974269

G01 Z-0.500000 F200.0(Penetrate)
G01 X118.019279 Y68.934269 Z-0.500000 F400.000000
G01 X118.019279 Y68.774269 Z-0.500000
G00 Z5.000000

(End cutting path id: path1691)


(Start cutting path id: path1695)
(Change tool to Cylindrical cutter)

G00 Z5.000000
G00 X117.691541 Y68.497469

G01 Z-0.500000 F200.0(Penetrate)
G03 X117.792872 Y68.678910 Z-0.500000 I-0.712260 J0.516797 F400.000000
G03 X117.848829 Y68.879058 Z-0.500000 I-0.813617 J0.335366
G00 Z5.000000

(End cutting path id: path1695)


(Start cutting path id: path1701)
(Change tool to Cylindrical cutter)

G00 Z5.000000
G00 X112.477492 Y63.505190

G01 Z-0.500000 F200.0(Penetrate)
G03 X112.677443 Y63.561837 Z-0.500000 I-0.138213 J0.869080 F400.000000
G03 X112.858535 Y63.663795 Z-0.500000 I-0.338160 J0.812420
G00 Z5.000000

(End cutting path id: path1701)


(Start cutting path id: path1707)
(Change tool to Cylindrical cutter)

G00 Z5.000000
G00 X112.338856 Y63.494269

G01 Z-0.500000 F200.0(Penetrate)
G01 X112.339701 Y63.494269 Z-0.500000 F400.000000
G00 Z5.000000

(End cutting path id: path1707)


(Start cutting path id: path1935)
(Change tool to Cylindrical cutter)

G00 Z5.000000
G00 X119.858856 Y52.134269

G01 Z-0.500000 F200.0(Penetrate)
G01 X119.859701 Y52.134269 Z-0.500000 F400.000000
G00 Z5.000000

(End cutting path id: path1935)


(Start cutting path id: path1929)
(Change tool to Cylindrical cutter)

G00 Z5.000000
G00 X119.997492 Y52.145190

G01 Z-0.500000 F200.0(Penetrate)
G03 X120.197443 Y52.201837 Z-0.500000 I-0.138213 J0.869080 F400.000000
G03 X120.378535 Y52.303795 Z-0.500000 I-0.338160 J0.812420
G00 Z5.000000

(End cutting path id: path1929)


(Start cutting path id: path175)
(Change tool to Cylindrical cutter)

G00 Z5.000000
G00 X97.219279 Y75.974269

G01 Z-0.500000 F200.0(Penetrate)
G01 X97.219279 Y86.054269 Z-0.500000 F400.000000
G01 X63.459279 Y86.054269 Z-0.500000
G01 X52.259279 Y74.854269 Z-0.500000
G00 Z5.000000

(End cutting path id: path175)


(Start cutting path id: path181)
(Change tool to Cylindrical cutter)

G00 Z5.000000
G00 X50.979279 Y76.294269

G01 Z-0.500000 F200.0(Penetrate)
G01 X62.339279 Y87.654269 Z-0.500000 F400.000000
G01 X62.499279 Y87.654269 Z-0.500000
G01 X62.499279 Y87.814269 Z-0.500000
G00 Z5.000000

(End cutting path id: path181)


(Start cutting path id: path185)
(Change tool to Cylindrical cutter)

G00 Z5.000000
G00 X62.921066 Y87.963347

G01 Z-0.500000 F200.0(Penetrate)
G03 X62.721114 Y87.906700 Z-0.500000 I0.138213 J-0.869080 F400.000000
G03 X62.540023 Y87.804742 Z-0.500000 I0.338160 J-0.812420
G00 Z5.000000

(End cutting path id: path185)


(Start cutting path id: path187)
(Change tool to Cylindrical cutter)

G00 Z5.000000
G00 X62.979279 Y87.974269

G01 Z-0.500000 F200.0(Penetrate)
G01 X63.139279 Y87.974269 Z-0.500000 F400.000000
G00 Z5.000000

(End cutting path id: path187)


(Start cutting path id: path193)
(Change tool to Cylindrical cutter)

G00 Z5.000000
G00 X63.139279 Y87.974269

G01 Z-0.500000 F200.0(Penetrate)
G01 X79.459279 Y87.974269 Z-0.500000 F400.000000
G01 X79.459279 Y104.454269 Z-0.500000
G01 X79.299279 Y104.454269 Z-0.500000
G00 Z5.000000

(End cutting path id: path193)


(Start cutting path id: path145)
(Change tool to Cylindrical cutter)

G00 Z5.000000
G00 X81.280895 Y104.627902

G01 Z-0.500000 F200.0(Penetrate)
G03 X82.397575 Y105.441085 Z-0.500000 I-0.941620 J2.466369 F400.000000
G03 X82.950704 Y106.706901 Z-0.500000 I-2.058299 J1.653184
G00 Z5.000000

(End cutting path id: path145)


(Start cutting path id: path209)
(Change tool to Cylindrical cutter)

G00 Z5.000000
G00 X81.468024 Y104.707738

G01 Z-0.500000 F200.0(Penetrate)
G03 X82.459746 Y105.521622 Z-0.500000 I-1.128744 J2.386529 F400.000000
G03 X82.950704 Y106.706901 Z-0.500000 I-2.120469 J1.572647
G00 Z5.000000

(End cutting path id: path209)


(Start cutting path id: path211)
(Change tool to Cylindrical cutter)

G00 Z5.000000
G00 X81.699279 Y104.454269

G01 Z-0.500000 F200.0(Penetrate)
G01 X81.379279 Y104.454269 Z-0.500000 F400.000000
G01 X81.379279 Y87.974269 Z-0.500000
G01 X97.219279 Y87.974269 Z-0.500000
G01 X97.219279 Y148.614269 Z-0.500000
G01 X49.219279 Y148.614269 Z-0.500000
G01 X49.219279 Y120.934269 Z-0.500000
G01 X49.219279 Y120.774269 Z-0.500000
G00 Z5.000000

(End cutting path id: path211)


(Start cutting path id: path215)
(Change tool to Cylindrical cutter)

G00 Z5.000000
G00 X48.891541 Y120.497469

G01 Z-0.500000 F200.0(Penetrate)
G03 X48.992872 Y120.678910 Z-0.500000 I-0.712260 J0.516797 F400.000000
G03 X49.048829 Y120.879058 Z-0.500000 I-0.813617 J0.335366
G00 Z5.000000

(End cutting path id: path215)


(Start cutting path id: path217)
(Change tool to Cylindrical cutter)

G00 Z5.000000
G00 X48.899279 Y120.454269

G01 Z-0.500000 F200.0(Penetrate)
G01 X48.899279 Y120.294269 Z-0.500000 F400.000000
G01 X41.379279 Y112.774269 Z-0.500000
G01 X41.219279 Y112.774269 Z-0.500000
G01 X41.219279 Y112.614269 Z-0.500000
G00 Z5.000000

(End cutting path id: path217)


(Start cutting path id: path223)
(Change tool to Cylindrical cutter)

G00 Z5.000000
G00 X40.739279 Y112.454269

G01 Z-0.500000 F200.0(Penetrate)
G01 X40.579279 Y112.454269 Z-0.500000 F400.000000
G00 Z5.000000

(End cutting path id: path223)


(Start cutting path id: path229)
(Change tool to Cylindrical cutter)

G00 Z5.000000
G00 X40.579279 Y112.454269

G01 Z-0.500000 F200.0(Penetrate)
G01 X21.699279 Y112.454269 Z-0.500000 F400.000000
G01 X21.539279 Y112.454269 Z-0.500000
G00 Z5.000000

(End cutting path id: path229)


(Start cutting path id: path235)
(Change tool to Cylindrical cutter)

G00 Z5.000000
G00 X21.219279 Y112.614269

G01 Z-0.500000 F200.0(Penetrate)
G01 X21.059279 Y112.774269 Z-0.500000 F400.000000
G01 X9.699279 Y124.134269 Z-0.500000
G00 Z5.000000

(End cutting path id: path235)


(Start cutting path id: path241)
(Change tool to Cylindrical cutter)

G00 Z5.000000
G00 X9.539279 Y124.614269

G01 Z-0.500000 F200.0(Penetrate)
G01 X9.379279 Y124.774269 Z-0.500000 F400.000000
G00 Z5.000000

(End cutting path id: path241)


(Start cutting path id: path247)
(Change tool to Cylindrical cutter)

G00 Z5.000000
G00 X9.379279 Y124.774269

G01 Z-0.500000 F200.0(Penetrate)
G01 X9.379279 Y177.734269 Z-0.500000 F400.000000
G01 X9.539279 Y177.734269 Z-0.500000
G00 Z5.000000

(End cutting path id: path247)


(Start cutting path id: path253)
(Change tool to Cylindrical cutter)

G00 Z5.000000
G00 X9.699279 Y178.214269

G01 Z-0.500000 F200.0(Penetrate)
G01 X9.699279 Y178.374269 Z-0.500000 F400.000000
G01 X14.659279 Y183.334269 Z-0.500000
G01 X9.699279 Y188.294269 Z-0.500000
G01 X9.699279 Y188.454269 Z-0.500000
G00 Z5.000000

(End cutting path id: path253)


(Start cutting path id: path259)
(Change tool to Cylindrical cutter)

G00 Z5.000000
G00 X9.539279 Y188.774269

G01 Z-0.500000 F200.0(Penetrate)
G01 X9.379279 Y188.934269 Z-0.500000 F400.000000
G00 Z5.000000

(End cutting path id: path259)


(Start cutting path id: path265)
(Change tool to Cylindrical cutter)

G00 Z5.000000
G00 X9.379279 Y188.934269

G01 Z-0.500000 F200.0(Penetrate)
G01 X9.379279 Y226.854269 Z-0.500000 F400.000000
G01 X9.539279 Y226.854269 Z-0.500000
G00 Z5.000000

(End cutting path id: path265)


(Start cutting path id: path271)
(Change tool to Cylindrical cutter)

G00 Z5.000000
G00 X9.699279 Y227.334269

G01 Z-0.500000 F200.0(Penetrate)
G01 X9.699279 Y227.494269 Z-0.500000 F400.000000
G01 X16.419279 Y234.054269 Z-0.500000
G01 X9.699279 Y240.614269 Z-0.500000
G01 X9.699279 Y240.774269 Z-0.500000
G00 Z5.000000

(End cutting path id: path271)


(Start cutting path id: path277)
(Change tool to Cylindrical cutter)

G00 Z5.000000
G00 X9.539279 Y241.254269

G01 Z-0.500000 F200.0(Penetrate)
G01 X9.379279 Y241.414269 Z-0.500000 F400.000000
G00 Z5.000000

(End cutting path id: path277)


(Start cutting path id: path283)
(Change tool to Cylindrical cutter)

G00 Z5.000000
G00 X9.379279 Y241.414269

G01 Z-0.500000 F200.0(Penetrate)
G01 X9.379279 Y272.934269 Z-0.500000 F400.000000
G01 X9.379279 Y273.094269 Z-0.500000
G01 X9.539279 Y273.094269 Z-0.500000
G00 Z5.000000

(End cutting path id: path283)


(Start cutting path id: path287)
(Change tool to Cylindrical cutter)

G00 Z5.000000
G00 X9.547016 Y273.531069

G01 Z-0.500000 F200.0(Penetrate)
G03 X9.445685 Y273.349627 Z-0.500000 I0.712260 J-0.516797 F400.000000
G03 X9.389728 Y273.149480 Z-0.500000 I0.813617 J-0.335366
G00 Z5.000000

(End cutting path id: path287)


(Start cutting path id: path289)
(Change tool to Cylindrical cutter)

G00 Z5.000000
G00 X9.699279 Y273.574269

G01 Z-0.500000 F200.0(Penetrate)
G01 X27.779279 Y291.654269 Z-0.500000 F400.000000
G01 X27.779279 Y291.814269 Z-0.500000
G01 X27.939279 Y291.814269 Z-0.500000
G00 Z5.000000

(End cutting path id: path289)


(Start cutting path id: path293)
(Change tool to Cylindrical cutter)

G00 Z5.000000
G00 X28.201066 Y291.963347

G01 Z-0.500000 F200.0(Penetrate)
G03 X28.001114 Y291.906700 Z-0.500000 I0.138213 J-0.869080 F400.000000
G03 X27.820023 Y291.804742 Z-0.500000 I0.338160 J-0.812420
G00 Z5.000000

(End cutting path id: path293)


(Start cutting path id: path295)
(Change tool to Cylindrical cutter)

G00 Z5.000000
G00 X28.259279 Y291.974269

G01 Z-0.500000 F200.0(Penetrate)
G01 X28.419279 Y291.974269 Z-0.500000 F400.000000
G00 Z5.000000

(End cutting path id: path295)


(Start cutting path id: path301)
(Change tool to Cylindrical cutter)

G00 Z5.000000
G00 X28.419279 Y291.974269

G01 Z-0.500000 F200.0(Penetrate)
G01 X312.739279 Y291.974269 Z-0.500000 F400.000000
G01 X312.899279 Y291.974269 Z-0.500000
G00 Z5.000000

(End cutting path id: path301)


(Start cutting path id: path305)
(Change tool to Cylindrical cutter)

G00 Z5.000000
G00 X313.176079 Y291.806531

G01 Z-0.500000 F200.0(Penetrate)
G03 X312.994637 Y291.907862 Z-0.500000 I-0.516797 J-0.712260 F400.000000
G03 X312.794490 Y291.963819 Z-0.500000 I-0.335366 J-0.813617
G00 Z5.000000

(End cutting path id: path305)


(Start cutting path id: path307)
(Change tool to Cylindrical cutter)

G00 Z5.000000
G00 X313.219279 Y291.814269

G01 Z-0.500000 F200.0(Penetrate)
G01 X313.379279 Y291.654269 Z-0.500000 F400.000000
G01 X317.219279 Y287.974269 Z-0.500000
G01 X317.219279 Y287.814269 Z-0.500000
G00 Z5.000000

(End cutting path id: path307)


(Start cutting path id: path311)
(Change tool to Cylindrical cutter)

G00 Z5.000000
G00 X317.368357 Y287.392482

G01 Z-0.500000 F200.0(Penetrate)
G03 X317.311710 Y287.592434 Z-0.500000 I-0.869080 J-0.138213 F400.000000
G03 X317.209752 Y287.773525 Z-0.500000 I-0.812420 J-0.338160
G00 Z5.000000

(End cutting path id: path311)


(Start cutting path id: path313)
(Change tool to Cylindrical cutter)

G00 Z5.000000
G00 X317.379279 Y287.334269

G01 Z-0.500000 F200.0(Penetrate)
G01 X317.539279 Y287.174269 Z-0.500000 F400.000000
G00 Z5.000000

(End cutting path id: path313)


(Start cutting path id: path319)
(Change tool to Cylindrical cutter)

G00 Z5.000000
G00 X317.539279 Y287.174269

G01 Z-0.500000 F200.0(Penetrate)
G01 X317.539279 Y283.814269 Z-0.500000 F400.000000
G01 X324.419279 Y276.934269 Z-0.500000
G01 X331.619279 Y276.934269 Z-0.500000
G01 X331.779279 Y276.774269 Z-0.500000
G00 Z5.000000

(End cutting path id: path319)


(Start cutting path id: path323)
(Change tool to Cylindrical cutter)

G00 Z5.000000
G00 X332.056079 Y276.766531

G01 Z-0.500000 F200.0(Penetrate)
G03 X331.874637 Y276.867862 Z-0.500000 I-0.516797 J-0.712260 F400.000000
G03 X331.674490 Y276.923819 Z-0.500000 I-0.335366 J-0.813617
G00 Z5.000000

(End cutting path id: path323)


(Start cutting path id: path325)
(Change tool to Cylindrical cutter)

G00 Z5.000000
G00 X332.259279 Y276.614269

G01 Z-0.500000 F200.0(Penetrate)
G01 X336.099279 Y272.774269 Z-0.500000 F400.000000
G01 X336.099279 Y272.614269 Z-0.500000
G00 Z5.000000

(End cutting path id: path325)


(Start cutting path id: path329)
(Change tool to Cylindrical cutter)

G00 Z5.000000
G00 X336.248357 Y272.352482

G01 Z-0.500000 F200.0(Penetrate)
G03 X336.191710 Y272.552434 Z-0.500000 I-0.869080 J-0.138213 F400.000000
G03 X336.089752 Y272.733525 Z-0.500000 I-0.812420 J-0.338160
G00 Z5.000000

(End cutting path id: path329)


(Start cutting path id: path335)
(Change tool to Cylindrical cutter)

G00 Z5.000000
G00 X336.259279 Y272.213846

G01 Z-0.500000 F200.0(Penetrate)
G01 X336.259279 Y272.214691 Z-0.500000 F400.000000
G00 Z5.000000

(End cutting path id: path335)


(Start cutting path id: path331)
(Change tool to Cylindrical cutter)

G00 Z5.000000
G00 X336.419279 Y272.294269

G01 Z-0.500000 F200.0(Penetrate)
G01 X336.419279 Y272.134269 Z-0.500000 F400.000000
G00 Z5.000000

(End cutting path id: path331)


(Start cutting path id: path337)
(Change tool to Cylindrical cutter)

G00 Z5.000000
G00 X336.419279 Y272.134269

G01 Z-0.500000 F200.0(Penetrate)
G01 X336.419279 Y83.174269 Z-0.500000 F400.000000
G01 X336.419279 Y83.014269 Z-0.500000
G00 Z5.000000

(End cutting path id: path337)


(Start cutting path id: path341)
(Change tool to Cylindrical cutter)

G00 Z5.000000
G00 X335.518324 Y82.385323

G01 Z-0.500000 F200.0(Penetrate)
G03 X336.002635 Y82.633120 Z-0.500000 I-0.139047 J0.868948 F400.000000
G03 X336.248712 Y83.118307 Z-0.500000 I-0.623359 J0.621152
G00 Z5.000000

(End cutting path id: path341)


(Start cutting path id: path343)
(Change tool to Cylindrical cutter)

G00 Z5.000000
G00 X335.619279 Y82.214269

G01 Z-0.500000 F200.0(Penetrate)
G01 X335.459279 Y82.214269 Z-0.500000 F400.000000
G00 Z5.000000

(End cutting path id: path343)


(Start cutting path id: path349)
(Change tool to Cylindrical cutter)

G00 Z5.000000
G00 X335.459279 Y82.214269

G01 Z-0.500000 F200.0(Penetrate)
G01 X313.699279 Y82.214269 Z-0.500000 F400.000000
G01 X313.699279 Y52.934269 Z-0.500000
G01 X313.699279 Y52.774269 Z-0.500000
G00 Z5.000000

(End cutting path id: path349)


(Start cutting path id: path355)
(Change tool to Cylindrical cutter)

G00 Z5.000000
G00 X313.539279 Y52.454269

G01 Z-0.500000 F200.0(Penetrate)
G01 X313.379279 Y52.294269 Z-0.500000 F400.000000
G01 X308.579279 Y47.494269 Z-0.500000
G01 X308.419279 Y47.334269 Z-0.500000
G00 Z5.000000

(End cutting path id: path355)


(Start cutting path id: path361)
(Change tool to Cylindrical cutter)

G00 Z5.000000
G00 X308.099279 Y47.174269

G01 Z-0.500000 F200.0(Penetrate)
G01 X307.939279 Y47.174269 Z-0.500000 F400.000000
G00 Z5.000000

(End cutting path id: path361)


(Start cutting path id: path367)
(Change tool to Cylindrical cutter)

G00 Z5.000000
G00 X307.939279 Y47.174269

G01 Z-0.500000 F200.0(Penetrate)
G01 X303.939279 Y47.174269 Z-0.500000 F400.000000
G01 X302.499279 Y45.734269 Z-0.500000
G01 X300.419279 Y45.734269 Z-0.500000
G01 X298.819279 Y47.174269 Z-0.500000
G01 X298.819279 Y48.294269 Z-0.500000
G01 X260.259279 Y48.294269 Z-0.500000
G01 X257.059279 Y44.934269 Z-0.500000
G01 X257.059279 Y39.654269 Z-0.500000
G00 Z5.000000

(End cutting path id: path367)


(Start cutting path id: path173)
(Change tool to Cylindrical cutter)

G00 Z5.000000
G00 X255.044396 Y39.673238

G01 Z-0.500000 F200.0(Penetrate)
G03 X253.404168 Y38.609173 Z-0.500000 I0.974882 J-3.298969 F400.000000
G03 X252.608695 Y36.823170 Z-0.500000 I2.615107 J-2.234901
G00 Z5.000000

(End cutting path id: path173)


(Start cutting path id: path385)
(Change tool to Cylindrical cutter)

G00 Z5.000000
G00 X254.979279 Y39.654269

G01 Z-0.500000 F200.0(Penetrate)
G01 X255.139279 Y39.654269 Z-0.500000 F400.000000
G01 X255.139279 Y45.414269 Z-0.500000
G01 X255.139279 Y45.574269 Z-0.500000
G00 Z5.000000

(End cutting path id: path385)


(Start cutting path id: path391)
(Change tool to Cylindrical cutter)

G00 Z5.000000
G00 X255.299279 Y45.894269

G01 Z-0.500000 F200.0(Penetrate)
G01 X255.299279 Y46.054269 Z-0.500000 F400.000000
G01 X259.139279 Y49.894269 Z-0.500000
G01 X259.299279 Y49.894269 Z-0.500000
G00 Z5.000000

(End cutting path id: path391)


(Start cutting path id: path397)
(Change tool to Cylindrical cutter)

G00 Z5.000000
G00 X259.619279 Y50.054269

G01 Z-0.500000 F200.0(Penetrate)
G01 X259.779279 Y50.214269 Z-0.500000 F400.000000
G00 Z5.000000

(End cutting path id: path397)


(Start cutting path id: path403)
(Change tool to Cylindrical cutter)

G00 Z5.000000
G00 X259.779279 Y50.214269

G01 Z-0.500000 F200.0(Penetrate)
G01 X299.779279 Y50.214269 Z-0.500000 F400.000000
G01 X300.419279 Y50.694269 Z-0.500000
G01 X302.499279 Y50.694269 Z-0.500000
G01 X303.939279 Y49.254269 Z-0.500000
G01 X303.939279 Y49.094269 Z-0.500000
G01 X307.459279 Y49.094269 Z-0.500000
G01 X311.779279 Y53.414269 Z-0.500000
G01 X311.779279 Y83.014269 Z-0.500000
G01 X304.419279 Y83.014269 Z-0.500000
G01 X304.419279 Y82.854269 Z-0.500000
G01 X302.659279 Y80.934269 Z-0.500000
G01 X300.099279 Y80.934269 Z-0.500000
G01 X298.339279 Y82.854269 Z-0.500000
G01 X298.339279 Y85.254269 Z-0.500000
G01 X300.099279 Y87.014269 Z-0.500000
G01 X302.659279 Y87.014269 Z-0.500000
G01 X304.419279 Y85.254269 Z-0.500000
G01 X304.419279 Y84.934269 Z-0.500000
G01 X312.739279 Y84.934269 Z-0.500000
G01 X312.899279 Y84.934269 Z-0.500000
G00 Z5.000000

(End cutting path id: path403)


(Start cutting path id: path407)
(Change tool to Cylindrical cutter)

G00 Z5.000000
G00 X313.528224 Y84.193314

G01 Z-0.500000 F200.0(Penetrate)
G03 X313.280428 Y84.677625 Z-0.500000 I-0.868948 J-0.139047 F400.000000
G03 X312.795240 Y84.923702 Z-0.500000 I-0.621152 J-0.623359
G00 Z5.000000

(End cutting path id: path407)


(Start cutting path id: path409)
(Change tool to Cylindrical cutter)

G00 Z5.000000
G00 X313.699279 Y84.134269

G01 Z-0.500000 F200.0(Penetrate)
G01 X334.499279 Y84.134269 Z-0.500000 F400.000000
G01 X334.499279 Y271.654269 Z-0.500000
G01 X331.299279 Y275.014269 Z-0.500000
G01 X324.099279 Y275.014269 Z-0.500000
G01 X323.939279 Y275.014269 Z-0.500000
G00 Z5.000000

(End cutting path id: path409)


(Start cutting path id: path415)
(Change tool to Cylindrical cutter)

G00 Z5.000000
G00 X323.459279 Y275.174269

G01 Z-0.500000 F200.0(Penetrate)
G01 X315.779279 Y282.854269 Z-0.500000 F400.000000
G00 Z5.000000

(End cutting path id: path415)


(Start cutting path id: path421)
(Change tool to Cylindrical cutter)

G00 Z5.000000
G00 X315.619279 Y283.334269

G01 Z-0.500000 F200.0(Penetrate)
G01 X315.619279 Y283.494269 Z-0.500000 F400.000000
G00 Z5.000000

(End cutting path id: path421)


(Start cutting path id: path427)
(Change tool to Cylindrical cutter)

G00 Z5.000000
G00 X315.619279 Y283.494269

G01 Z-0.500000 F200.0(Penetrate)
G01 X315.619279 Y286.854269 Z-0.500000 F400.000000
G01 X312.259279 Y290.054269 Z-0.500000
G01 X28.899279 Y290.054269 Z-0.500000
G01 X11.299279 Y272.614269 Z-0.500000
G01 X11.299279 Y241.734269 Z-0.500000
G01 X18.179279 Y235.014269 Z-0.500000
G01 X25.059279 Y235.014269 Z-0.500000
G00 Z5.000000

(End cutting path id: path427)


(Start cutting path id: path71)
(Change tool to Cylindrical cutter)

G00 Z5.000000
G00 X24.880309 Y233.159386

G01 Z-0.500000 F200.0(Penetrate)
G03 X25.944375 Y231.519158 Z-0.500000 I3.298969 J0.974882 F400.000000
G03 X27.730378 Y230.723685 Z-0.500000 I2.234901 J2.615107
G00 Z5.000000

(End cutting path id: path71)


(Start cutting path id: path499)
(Change tool to Cylindrical cutter)

G00 Z5.000000
G00 X25.059279 Y233.094269

G01 Z-0.500000 F200.0(Penetrate)
G01 X18.179279 Y233.094269 Z-0.500000 F400.000000
G01 X11.299279 Y226.374269 Z-0.500000
G01 X11.299279 Y189.414269 Z-0.500000
G01 X15.939279 Y184.774269 Z-0.500000
G01 X25.699279 Y184.774269 Z-0.500000
G00 Z5.000000

(End cutting path id: path499)


(Start cutting path id: path111)
(Change tool to Cylindrical cutter)

G00 Z5.000000
G00 X25.520309 Y182.919386

G01 Z-0.500000 F200.0(Penetrate)
G03 X26.584375 Y181.279158 Z-0.500000 I3.298969 J0.974882 F400.000000
G03 X28.370378 Y180.483685 Z-0.500000 I2.234901 J2.615107
G00 Z5.000000

(End cutting path id: path111)


(Start cutting path id: path667)
(Change tool to Cylindrical cutter)

G00 Z5.000000
G00 X25.699279 Y182.854269

G01 Z-0.500000 F200.0(Penetrate)
G01 X16.899279 Y182.854269 Z-0.500000 F400.000000
G01 X11.299279 Y177.254269 Z-0.500000
G01 X11.299279 Y125.094269 Z-0.500000
G01 X22.179279 Y114.374269 Z-0.500000
G01 X40.259279 Y114.374269 Z-0.500000
G01 X47.299279 Y121.414269 Z-0.500000
G01 X47.299279 Y148.614269 Z-0.500000
G01 X40.739279 Y148.614269 Z-0.500000
G01 X40.739279 Y148.454269 Z-0.500000
G00 Z5.000000

(End cutting path id: path667)


(Start cutting path id: path685)
(Change tool to Cylindrical cutter)

G00 Z5.000000
G00 X40.739279 Y150.534269

G01 Z-0.500000 F200.0(Penetrate)
G01 X98.179279 Y150.534269 Z-0.500000 F400.000000
G01 X98.339279 Y150.534269 Z-0.500000
G00 Z5.000000

(End cutting path id: path685)


(Start cutting path id: path689)
(Change tool to Cylindrical cutter)

G00 Z5.000000
G00 X98.968224 Y149.793314

G01 Z-0.500000 F200.0(Penetrate)
G03 X98.720428 Y150.277625 Z-0.500000 I-0.868948 J-0.139047 F400.000000
G03 X98.235240 Y150.523702 Z-0.500000 I-0.621152 J-0.623359
G00 Z5.000000

(End cutting path id: path689)


(Start cutting path id: path695)
(Change tool to Cylindrical cutter)

G00 Z5.000000
G00 X98.979279 Y149.653509

G01 Z-0.500000 F200.0(Penetrate)
G01 X98.979279 Y149.655029 Z-0.500000 F400.000000
G00 Z5.000000

(End cutting path id: path695)


(Start cutting path id: path691)
(Change tool to Cylindrical cutter)

G00 Z5.000000
G00 X99.139279 Y149.734269

G01 Z-0.500000 F200.0(Penetrate)
G01 X99.139279 Y149.574269 Z-0.500000 F400.000000
G00 Z5.000000

(End cutting path id: path691)


(Start cutting path id: path697)
(Change tool to Cylindrical cutter)

G00 Z5.000000
G00 X99.139279 Y149.574269

G01 Z-0.500000 F200.0(Penetrate)
G01 X99.139279 Y75.974269 Z-0.500000 F400.000000
G00 Z5.000000

(End cutting path id: path697)


(Start cutting path id: path2307)
(Change tool to Cylindrical cutter)

G00 Z5.000000
G00 X97.117215 Y76.076160

G01 Z-0.500000 F200.0(Penetrate)
G03 X96.017952 Y74.999198 Z-0.500000 I0.982061 J-2.101889 F400.000000
G03 X95.834463 Y73.471272 Z-0.500000 I2.081327 J-1.024929
G03 X96.647478 Y72.164662 Z-0.500000 I2.264812 J0.502993
G03 X98.099279 Y71.654269 Z-0.500000 I1.451801 J1.809608
G03 X99.551079 Y72.164662 Z-0.500000 I0.000000 J2.320001
G03 X100.364095 Y73.471272 Z-0.500000 I-1.451796 J1.809602
G03 X100.180605 Y74.999198 Z-0.500000 I-2.264816 J0.502997
G03 X99.081343 Y76.076160 Z-0.500000 I-2.081324 J-1.024927
G00 Z5.000000

(End cutting path id: path2307)


(Start cutting path id: path1713)
(Change tool to Cylindrical cutter)

G00 Z5.000000
G00 X78.222479 Y63.662006

G01 Z-0.500000 F200.0(Penetrate)
G03 X78.403920 Y63.560675 Z-0.500000 I0.516797 J0.712260 F400.000000
G03 X78.604068 Y63.504718 Z-0.500000 I0.335366 J0.813617
G00 Z5.000000

(End cutting path id: path1713)


(Start cutting path id: path191)
(Change tool to Cylindrical cutter)

G00 Z5.000000
G00 X63.059701 Y87.974269

G01 Z-0.500000 F200.0(Penetrate)
G01 X63.058856 Y87.974269 Z-0.500000 F400.000000
G00 Z5.000000

(End cutting path id: path191)


(Start cutting path id: path2013)
(Change tool to Cylindrical cutter)

G00 Z5.000000
G00 X67.058856 Y97.574269

G01 Z-0.500000 F200.0(Penetrate)
G01 X67.059701 Y97.574269 Z-0.500000 F400.000000
G00 Z5.000000

(End cutting path id: path2013)


(Start cutting path id: path2007)
(Change tool to Cylindrical cutter)

G00 Z5.000000
G00 X67.197492 Y97.585190

G01 Z-0.500000 F200.0(Penetrate)
G03 X67.397443 Y97.641837 Z-0.500000 I-0.138213 J0.869080 F400.000000
G03 X67.578535 Y97.743795 Z-0.500000 I-0.338160 J0.812420
G00 Z5.000000

(End cutting path id: path2007)


(Start cutting path id: path2001)
(Change tool to Cylindrical cutter)

G00 Z5.000000
G00 X71.451541 Y101.617469

G01 Z-0.500000 F200.0(Penetrate)
G03 X71.552872 Y101.798910 Z-0.500000 I-0.712260 J0.516797 F400.000000
G03 X71.608829 Y101.999058 Z-0.500000 I-0.813617 J0.335366
G00 Z5.000000

(End cutting path id: path2001)


(Start cutting path id: path1985)
(Change tool to Cylindrical cutter)

G00 Z5.000000
G00 X68.259279 Y106.854269

G01 Z-0.500000 F200.0(Penetrate)
G01 X68.259279 Y112.454269 Z-0.500000 F400.000000
G01 X68.259279 Y112.774269 Z-0.500000
G00 Z5.000000

(End cutting path id: path1985)


(Start cutting path id: path2265)
(Change tool to Cylindrical cutter)

G00 Z5.000000
G00 X63.939279 Y112.454269

G01 Z-0.500000 F200.0(Penetrate)
G01 X63.939279 Y106.854269 Z-0.500000 F400.000000
G01 X63.939279 Y106.534269 Z-0.500000
G00 Z5.000000

(End cutting path id: path2265)


(Start cutting path id: path2117)
(Change tool to Cylindrical cutter)

G00 Z5.000000
G00 X61.219279 Y104.294269

G01 Z-0.500000 F200.0(Penetrate)
G01 X60.899279 Y104.294269 Z-0.500000 F400.000000
G00 Z5.000000

(End cutting path id: path2117)


(Start cutting path id: path2115)
(Change tool to Cylindrical cutter)

G00 Z5.000000
G00 X61.009740 Y104.457448

G01 Z-0.500000 F200.0(Penetrate)
G03 X62.814077 Y105.053521 Z-0.500000 I0.129537 J2.636823 F400.000000
G03 X63.750704 Y106.706901 Z-0.500000 I-1.674797 J2.040746
G00 Z5.000000

(End cutting path id: path2115)


(Start cutting path id: path1983)
(Change tool to Cylindrical cutter)

G00 Z5.000000
G00 X68.102458 Y106.964730

G01 Z-0.500000 F200.0(Penetrate)
G03 X68.544199 Y105.627564 Z-0.500000 I2.636820 J0.129541 F400.000000
G03 X69.610533 Y104.707738 Z-0.500000 I2.195083 J1.466709
G00 Z5.000000

(End cutting path id: path1983)


(Start cutting path id: path1823)
(Change tool to Cylindrical cutter)

G00 Z5.000000
G00 X68.259279 Y106.854269

G01 Z-0.500000 F200.0(Penetrate)
G01 X68.259279 Y112.454269 Z-0.500000 F400.000000
G01 X68.259279 Y112.774269 Z-0.500000
G00 Z5.000000

(End cutting path id: path1823)


(Start cutting path id: path2111)
(Change tool to Cylindrical cutter)

G00 Z5.000000
G00 X63.939279 Y112.454269

G01 Z-0.500000 F200.0(Penetrate)
G01 X63.939279 Y106.854269 Z-0.500000 F400.000000
G01 X63.939279 Y106.534269 Z-0.500000
G00 Z5.000000

(End cutting path id: path2111)


(Start cutting path id: path1821)
(Change tool to Cylindrical cutter)

G00 Z5.000000
G00 X68.102458 Y106.964730

G01 Z-0.500000 F200.0(Penetrate)
G03 X68.602344 Y105.544072 Z-0.500000 I2.636826 J0.129542 F400.000000
