(G-CODE GENERATED BY FLATCAM v8.994 - www.flatcam.org - Version Date: 2020/11/7)

(Name: silkscreen_top.gbr_iso_combined_cnc)
(Type: G-code from Geometry)
(Units: MM)

(Created on Sunday, 24 October 2021 at 13:06)

(This preprocessor is the default preprocessor used by FlatCAM.)
(It is made to work with MACH3 compatible motion controllers.)

(TOOL DIAMETER: 0.1 mm)
(Feedrate_XY: 120.0 mm/min)
(Feedrate_Z: 60.0 mm/min)
(Feedrate rapids 1500.0 mm/min)

(Z_Cut: -0.0 mm)
(Z_Move: 2.0 mm)
(Z Start: None mm)
(Z End: 15.0 mm)
(X,Y End: None mm)
(Steps per circle: 64)
(Preprocessor Geometry: default)

(X range:    1.4448 ...   98.8138  mm)
(Y range:    0.5208 ...   78.5552  mm)

(Spindle Speed: 0.0 RPM)
G21
G90
G94

G01 F120.00

M5
G00 Z15.0000
G00 X0.0000 Y0.0000
T1
M6    
(MSG, Change to Tool Dia = 0.1000)
M0
G00 Z15.0000

M03
G01 F120.00
G00 X1.4448 Y5.0000
G01 F60.00
G01 Z-0.0000
G01 F120.00
G01 X1.4458 Y4.9137
G01 X1.4490 Y4.8264
G01 X1.4543 Y4.7393
G01 X1.4620 Y4.6506
G01 X1.4716 Y4.5639
G01 X1.4834 Y4.4774
G01 X1.4973 Y4.3913
G01 X1.5133 Y4.3055
G01 X1.5314 Y4.2201
G01 X1.5516 Y4.1353
G01 X1.5733 Y4.0527
G01 X1.5977 Y3.9688
G01 X1.6239 Y3.8857
G01 X1.6522 Y3.8032
G01 X1.6827 Y3.7213
G01 X1.7150 Y3.6404
G01 X1.7494 Y3.5601
G01 X1.7865 Y3.4791
G01 X1.8248 Y3.4007
G01 X1.8642 Y3.3249
G01 X1.9062 Y3.2485
G01 X1.9500 Y3.1731
G01 X1.9959 Y3.0987
G01 X2.0434 Y3.0256
G01 X2.0928 Y2.9536
G01 X2.1438 Y2.8829
G01 X2.1968 Y2.8134
G01 X2.2523 Y2.7439
G01 X2.3085 Y2.6771
G01 X2.3652 Y2.6131
G01 X2.4246 Y2.5492
G01 X2.4853 Y2.4868
G01 X2.5480 Y2.4258
G01 X2.6131 Y2.3652
G01 X2.6771 Y2.3085
G01 X2.7439 Y2.2523
G01 X2.8120 Y2.1978
G01 X2.8813 Y2.1450
G01 X2.9522 Y2.0938
G01 X3.0240 Y2.0445
G01 X3.0972 Y1.9968
G01 X3.1714 Y1.9510
G01 X3.2470 Y1.9071
G01 X3.3249 Y1.8642
G01 X3.4007 Y1.8248
G01 X3.4791 Y1.7865
G01 X3.5584 Y1.7502
G01 X3.6386 Y1.7157
G01 X3.7213 Y1.6827
G01 X3.8032 Y1.6522
G01 X3.8857 Y1.6239
G01 X3.9688 Y1.5977
G01 X4.0527 Y1.5733
G01 X4.1353 Y1.5516
G01 X4.2201 Y1.5314
G01 X4.3055 Y1.5133
G01 X4.3913 Y1.4973
G01 X4.4774 Y1.4834
G01 X4.5639 Y1.4716
G01 X4.6506 Y1.4620
G01 X4.7393 Y1.4543
G01 X4.8264 Y1.4490
G01 X4.9118 Y1.4458
G01 X4.9991 Y1.4448
G01 X5.0863 Y1.4458
G01 X5.1736 Y1.4490
G01 X5.2607 Y1.4543
G01 X5.3475 Y1.4618
G01 X5.4343 Y1.4714
G01 X5.5207 Y1.4831
G01 X5.6069 Y1.4970
G01 X5.6927 Y1.5129
G01 X5.7780 Y1.5309
G01 X5.8630 Y1.5511
G01 X5.9473 Y1.5733
G01 X6.0312 Y1.5977
G01 X6.1143 Y1.6239
G01 X6.1968 Y1.6522
G01 X6.2787 Y1.6827
G01 X6.3596 Y1.7150
G01 X6.4399 Y1.7494
G01 X6.5209 Y1.7865
G01 X6.5993 Y1.8248
G01 X6.6751 Y1.8642
G01 X6.7515 Y1.9062
G01 X6.8269 Y1.9500
G01 X6.9013 Y1.9959
G01 X6.9744 Y2.0434
G01 X7.0464 Y2.0928
G01 X7.1171 Y2.1438
G01 X7.1866 Y2.1968
G01 X7.2561 Y2.2523
G01 X7.3229 Y2.3085
G01 X7.3869 Y2.3652
G01 X7.4508 Y2.4246
G01 X7.5132 Y2.4853
G01 X7.5742 Y2.5480
G01 X7.6348 Y2.6131
G01 X7.6915 Y2.6771
G01 X7.7477 Y2.7439
G01 X7.8022 Y2.8120
G01 X7.8550 Y2.8813
G01 X7.9062 Y2.9522
G01 X7.9555 Y3.0240
G01 X8.0032 Y3.0972
G01 X8.0490 Y3.1714
G01 X8.0929 Y3.2470
G01 X8.1358 Y3.3249
G01 X8.1752 Y3.4007
G01 X8.2135 Y3.4791
G01 X8.2498 Y3.5584
G01 X8.2843 Y3.6386
G01 X8.3173 Y3.7213
G01 X8.3478 Y3.8032
G01 X8.3761 Y3.8857
G01 X8.4023 Y3.9688
G01 X8.4267 Y4.0527
G01 X8.4484 Y4.1353
G01 X8.4686 Y4.2201
G01 X8.4867 Y4.3055
G01 X8.5027 Y4.3913
G01 X8.5166 Y4.4774
G01 X8.5284 Y4.5639
G01 X8.5380 Y4.6506
G01 X8.5457 Y4.7393
G01 X8.5510 Y4.8264
G01 X8.5542 Y4.9118
G01 X8.5552 Y4.9991
G01 X8.5542 Y5.0863
G01 X8.5510 Y5.1736
G01 X8.5457 Y5.2607
G01 X8.5382 Y5.3475
G01 X8.5286 Y5.4343
G01 X8.5169 Y5.5207
G01 X8.5030 Y5.6069
G01 X8.4871 Y5.6927
G01 X8.4691 Y5.7780
G01 X8.4489 Y5.8630
G01 X8.4267 Y5.9473
G01 X8.4023 Y6.0312
G01 X8.3761 Y6.1143
G01 X8.3478 Y6.1968
G01 X8.3173 Y6.2787
G01 X8.2850 Y6.3596
G01 X8.2506 Y6.4399
G01 X8.2135 Y6.5209
G01 X8.1752 Y6.5993
G01 X8.1358 Y6.6751
G01 X8.0938 Y6.7515
G01 X8.0500 Y6.8269
G01 X8.0041 Y6.9013
G01 X7.9566 Y6.9744
G01 X7.9072 Y7.0464
G01 X7.8562 Y7.1171
G01 X7.8032 Y7.1866
G01 X7.7477 Y7.2561
G01 X7.6915 Y7.3229
G01 X7.6348 Y7.3869
G01 X7.5754 Y7.4508
G01 X7.5147 Y7.5132
G01 X7.4520 Y7.5742
G01 X7.3869 Y7.6348
G01 X7.3229 Y7.6915
G01 X7.2561 Y7.7477
G01 X7.1880 Y7.8022
G01 X7.1187 Y7.8550
G01 X7.0478 Y7.9062
G01 X6.9760 Y7.9555
G01 X6.9028 Y8.0032
G01 X6.8286 Y8.0490
G01 X6.7530 Y8.0929
G01 X6.6751 Y8.1358
G01 X6.5993 Y8.1752
G01 X6.5209 Y8.2135
G01 X6.4416 Y8.2498
G01 X6.3614 Y8.2843
G01 X6.2787 Y8.3173
G01 X6.1968 Y8.3478
G01 X6.1143 Y8.3761
G01 X6.0312 Y8.4023
G01 X5.9473 Y8.4267
G01 X5.8647 Y8.4484
G01 X5.7799 Y8.4686
G01 X5.6945 Y8.4867
G01 X5.6087 Y8.5027
G01 X5.5226 Y8.5166
G01 X5.4361 Y8.5284
G01 X5.3494 Y8.5380
G01 X5.2607 Y8.5457
G01 X5.1736 Y8.5510
G01 X5.0882 Y8.5542
G01 X5.0009 Y8.5552
G01 X4.9137 Y8.5542
G01 X4.8264 Y8.5510
G01 X4.7393 Y8.5457
G01 X4.6525 Y8.5382
G01 X4.5657 Y8.5286
G01 X4.4793 Y8.5169
G01 X4.3931 Y8.5030
G01 X4.3073 Y8.4871
G01 X4.2220 Y8.4691
G01 X4.1370 Y8.4489
G01 X4.0527 Y8.4267
G01 X3.9688 Y8.4023
G01 X3.8857 Y8.3761
G01 X3.8032 Y8.3478
G01 X3.7213 Y8.3173
G01 X3.6404 Y8.2850
G01 X3.5601 Y8.2506
G01 X3.4791 Y8.2135
G01 X3.4007 Y8.1752
G01 X3.3249 Y8.1358
G01 X3.2485 Y8.0938
G01 X3.1731 Y8.0500
G01 X3.0987 Y8.0041
G01 X3.0256 Y7.9566
G01 X2.9536 Y7.9072
G01 X2.8829 Y7.8562
G01 X2.8134 Y7.8032
G01 X2.7439 Y7.7477
G01 X2.6771 Y7.6915
G01 X2.6131 Y7.6348
G01 X2.5492 Y7.5754
G01 X2.4868 Y7.5147
G01 X2.4258 Y7.4520
G01 X2.3652 Y7.3869
G01 X2.3085 Y7.3229
G01 X2.2523 Y7.2561
G01 X2.1978 Y7.1880
G01 X2.1450 Y7.1187
G01 X2.0938 Y7.0478
G01 X2.0445 Y6.9760
G01 X1.9968 Y6.9028
G01 X1.9510 Y6.8286
G01 X1.9071 Y6.7530
G01 X1.8642 Y6.6751
G01 X1.8248 Y6.5993
G01 X1.7865 Y6.5209
G01 X1.7502 Y6.4416
G01 X1.7157 Y6.3614
G01 X1.6827 Y6.2787
G01 X1.6522 Y6.1968
G01 X1.6239 Y6.1143
G01 X1.5977 Y6.0312
G01 X1.5733 Y5.9473
G01 X1.5516 Y5.8647
G01 X1.5314 Y5.7799
G01 X1.5133 Y5.6945
G01 X1.4973 Y5.6087
G01 X1.4834 Y5.5226
G01 X1.4716 Y5.4361
G01 X1.4620 Y5.3494
G01 X1.4543 Y5.2607
G01 X1.4490 Y5.1736
G01 X1.4458 Y5.0863
G01 X1.4448 Y5.0000
G00 Z2.0000
G00 X1.6972 Y5.0000
G01 F60.00
G01 Z-0.0000
G01 F120.00
G01 X1.6982 Y4.9189
G01 X1.7012 Y4.8379
G01 X1.7062 Y4.7570
G01 X1.7131 Y4.6763
G01 X1.7221 Y4.5958
G01 X1.7330 Y4.5154
G01 X1.7459 Y4.4354
G01 X1.7607 Y4.3556
G01 X1.7775 Y4.2764
G01 X1.7963 Y4.1975
G01 X1.8169 Y4.1191
G01 X1.8395 Y4.0413
G01 X1.8640 Y3.9639
G01 X1.8903 Y3.8873
G01 X1.9186 Y3.8114
G01 X1.9486 Y3.7361
G01 X1.9806 Y3.6615
G01 X2.0143 Y3.5879
G01 X2.0499 Y3.5151
G01 X2.0872 Y3.4432
G01 X2.1264 Y3.3721
G01 X2.1671 Y3.3020
G01 X2.2096 Y3.2331
G01 X2.2539 Y3.1651
G01 X2.2997 Y3.0983
G01 X2.3472 Y3.0325
G01 X2.3963 Y2.9681
G01 X2.4469 Y2.9048
G01 X2.4991 Y2.8428
G01 X2.5528 Y2.7820
G01 X2.6081 Y2.7226
G01 X2.6646 Y2.6646
G01 X2.7226 Y2.6081
G01 X2.7820 Y2.5528
G01 X2.8428 Y2.4991
G01 X2.9048 Y2.4469
G01 X2.9681 Y2.3963
G01 X3.0325 Y2.3472
G01 X3.0983 Y2.2997
G01 X3.1651 Y2.2539
G01 X3.2331 Y2.2096
G01 X3.3020 Y2.1671
G01 X3.3721 Y2.1264
G01 X3.4432 Y2.0872
G01 X3.5151 Y2.0499
G01 X3.5879 Y2.0143
G01 X3.6615 Y1.9806
G01 X3.7361 Y1.9486
G01 X3.8114 Y1.9186
G01 X3.8873 Y1.8903
G01 X3.9639 Y1.8640
G01 X4.0413 Y1.8395
G01 X4.1191 Y1.8169
G01 X4.1975 Y1.7963
G01 X4.2764 Y1.7775
G01 X4.3556 Y1.7607
G01 X4.4354 Y1.7459
G01 X4.5154 Y1.7330
G01 X4.5958 Y1.7221
G01 X4.6763 Y1.7131
G01 X4.7570 Y1.7062
G01 X4.8379 Y1.7012
G01 X4.9189 Y1.6982
G01 X5.0000 Y1.6972
G01 X5.0811 Y1.6982
G01 X5.1621 Y1.7012
G01 X5.2430 Y1.7062
G01 X5.3237 Y1.7131
G01 X5.4042 Y1.7221
G01 X5.4846 Y1.7330
G01 X5.5646 Y1.7459
G01 X5.6444 Y1.7607
G01 X5.7236 Y1.7775
G01 X5.8025 Y1.7963
G01 X5.8809 Y1.8169
G01 X5.9587 Y1.8395
G01 X6.0361 Y1.8640
G01 X6.1127 Y1.8903
G01 X6.1886 Y1.9186
G01 X6.2639 Y1.9486
G01 X6.3385 Y1.9806
G01 X6.4121 Y2.0143
G01 X6.4849 Y2.0499
G01 X6.5568 Y2.0872
G01 X6.6279 Y2.1264
G01 X6.6980 Y2.1671
G01 X6.7669 Y2.2096
G01 X6.8349 Y2.2539
G01 X6.9017 Y2.2997
G01 X6.9675 Y2.3472
G01 X7.0319 Y2.3963
G01 X7.0952 Y2.4469
G01 X7.1572 Y2.4991
G01 X7.2180 Y2.5528
G01 X7.2774 Y2.6081
G01 X7.3354 Y2.6646
G01 X7.3919 Y2.7226
G01 X7.4472 Y2.7820
G01 X7.5009 Y2.8428
G01 X7.5531 Y2.9048
G01 X7.6037 Y2.9681
G01 X7.6528 Y3.0325
G01 X7.7003 Y3.0983
G01 X7.7461 Y3.1651
G01 X7.7904 Y3.2331
G01 X7.8329 Y3.3020
G01 X7.8736 Y3.3721
G01 X7.9128 Y3.4432
G01 X7.9501 Y3.5151
G01 X7.9857 Y3.5879
G01 X8.0194 Y3.6615
G01 X8.0514 Y3.7361
G01 X8.0814 Y3.8114
G01 X8.1097 Y3.8873
G01 X8.1360 Y3.9639
G01 X8.1605 Y4.0413
G01 X8.1831 Y4.1191
G01 X8.2037 Y4.1975
G01 X8.2225 Y4.2764
G01 X8.2393 Y4.3556
G01 X8.2541 Y4.4354
G01 X8.2670 Y4.5154
G01 X8.2779 Y4.5958
G01 X8.2869 Y4.6763
G01 X8.2938 Y4.7570
G01 X8.2988 Y4.8379
G01 X8.3018 Y4.9189
G01 X8.3028 Y5.0000
G01 X8.3018 Y5.0811
G01 X8.2988 Y5.1621
G01 X8.2938 Y5.2430
G01 X8.2869 Y5.3237
G01 X8.2779 Y5.4042
G01 X8.2670 Y5.4846
G01 X8.2541 Y5.5646
G01 X8.2393 Y5.6444
G01 X8.2225 Y5.7236
G01 X8.2037 Y5.8025
G01 X8.1831 Y5.8809
G01 X8.1605 Y5.9587
G01 X8.1360 Y6.0361
G01 X8.1097 Y6.1127
G01 X8.0814 Y6.1886
G01 X8.0514 Y6.2639
G01 X8.0194 Y6.3385
G01 X7.9857 Y6.4121
G01 X7.9501 Y6.4849
G01 X7.9128 Y6.5568
G01 X7.8736 Y6.6279
G01 X7.8329 Y6.6980
G01 X7.7904 Y6.7669
G01 X7.7461 Y6.8349
G01 X7.7003 Y6.9017
G01 X7.6528 Y6.9675
G01 X7.6037 Y7.0319
G01 X7.5531 Y7.0952
G01 X7.5009 Y7.1572
G01 X7.4472 Y7.2180
G01 X7.3919 Y7.2774
G01 X7.3354 Y7.3354
G01 X7.2774 Y7.3919
G01 X7.2180 Y7.4472
G01 X7.1572 Y7.5009
G01 X7.0952 Y7.5531
G01 X7.0319 Y7.6037
G01 X6.9675 Y7.6528
G01 X6.9017 Y7.7003
G01 X6.8349 Y7.7461
G01 X6.7669 Y7.7904
G01 X6.6980 Y7.8329
G01 X6.6279 Y7.8736
G01 X6.5568 Y7.9128
G01 X6.4849 Y7.9501
G01 X6.4121 Y7.9857
G01 X6.3385 Y8.0194
G01 X6.2639 Y8.0514
G01 X6.1886 Y8.0814
G01 X6.1127 Y8.1097
G01 X6.0361 Y8.1360
G01 X5.9587 Y8.1605
G01 X5.8809 Y8.1831
G01 X5.8025 Y8.2037
G01 X5.7236 Y8.2225
G01 X5.6444 Y8.2393
G01 X5.5646 Y8.2541
G01 X5.4846 Y8.2670
G01 X5.4042 Y8.2779
G01 X5.3237 Y8.2869
G01 X5.2430 Y8.2938
G01 X5.1621 Y8.2988
G01 X5.0811 Y8.3018
G01 X5.0000 Y8.3028
G01 X4.9189 Y8.3018
G01 X4.8379 Y8.2988
G01 X4.7570 Y8.2938
G01 X4.6763 Y8.2869
G01 X4.5958 Y8.2779
G01 X4.5154 Y8.2670
G01 X4.4354 Y8.2541
G01 X4.3556 Y8.2393
G01 X4.2764 Y8.2225
G01 X4.1975 Y8.2037
G01 X4.1191 Y8.1831
G01 X4.0413 Y8.1605
G01 X3.9639 Y8.1360
G01 X3.8873 Y8.1097
G01 X3.8114 Y8.0814
G01 X3.7361 Y8.0514
G01 X3.6615 Y8.0194
G01 X3.5879 Y7.9857
G01 X3.5151 Y7.9501
G01 X3.4432 Y7.9128
G01 X3.3721 Y7.8736
G01 X3.3020 Y7.8329
G01 X3.2331 Y7.7904
G01 X3.1651 Y7.7461
G01 X3.0983 Y7.7003
G01 X3.0325 Y7.6528
G01 X2.9681 Y7.6037
G01 X2.9048 Y7.5531
G01 X2.8428 Y7.5009
G01 X2.7820 Y7.4472
G01 X2.7226 Y7.3919
G01 X2.6646 Y7.3354
G01 X2.6081 Y7.2774
G01 X2.5528 Y7.2180
G01 X2.4991 Y7.1572
G01 X2.4469 Y7.0952
G01 X2.3963 Y7.0319
G01 X2.3472 Y6.9675
G01 X2.2997 Y6.9017
G01 X2.2539 Y6.8349
G01 X2.2096 Y6.7669
G01 X2.1671 Y6.6980
G01 X2.1264 Y6.6279
G01 X2.0872 Y6.5568
G01 X2.0499 Y6.4849
G01 X2.0143 Y6.4121
G01 X1.9806 Y6.3385
G01 X1.9486 Y6.2639
G01 X1.9186 Y6.1886
G01 X1.8903 Y6.1127
G01 X1.8640 Y6.0361
G01 X1.8395 Y5.9587
G01 X1.8169 Y5.8809
G01 X1.7963 Y5.8025
G01 X1.7775 Y5.7236
G01 X1.7607 Y5.6444
G01 X1.7459 Y5.5646
G01 X1.7330 Y5.4846
G01 X1.7221 Y5.4042
G01 X1.7131 Y5.3237
G01 X1.7062 Y5.2430
G01 X1.7012 Y5.1621
G01 X1.6982 Y5.0811
G01 X1.6972 Y5.0000
G00 Z2.0000
G00 X3.2484 Y5.0000
G01 F60.00
G01 Z-0.0000
G01 F120.00
G01 X3.2489 Y4.9559
G01 X3.2505 Y4.9129
G01 X3.2532 Y4.8698
G01 X3.2569 Y4.8272
G01 X3.2617 Y4.7843
G01 X3.2671 Y4.7441
G01 X3.2744 Y4.6996
G01 X3.2822 Y4.6570
G01 X3.2912 Y4.6151
G01 X3.3012 Y4.5729
G01 X3.3121 Y4.5318
G01 X3.3242 Y4.4902
G01 X3.3371 Y4.4495
G01 X3.3512 Y4.4087
G01 X3.3653 Y4.3707
G01 X3.3812 Y4.3308
G01 X3.3982 Y4.2912
G01 X3.4170 Y4.2500
G01 X3.4348 Y4.2136
G01 X3.4547 Y4.1753
G01 X3.4764 Y4.1358
G01 X3.4982 Y4.0984
G01 X3.5194 Y4.0639
G01 X3.5428 Y4.0279
G01 X3.5673 Y3.9922
G01 X3.5937 Y3.9558
G01 X3.6181 Y3.9235
G01 X3.6454 Y3.8896
G01 X3.6728 Y3.8568
G01 X3.7013 Y3.8246
G01 X3.7304 Y3.7931
G01 X3.7605 Y3.7623
G01 X3.7913 Y3.7322
G01 X3.8228 Y3.7029
G01 X3.8549 Y3.6745
G01 X3.8896 Y3.6454
G01 X3.9235 Y3.6181
G01 X3.9558 Y3.5937
G01 X3.9922 Y3.5673
G01 X4.0279 Y3.5428
G01 X4.0639 Y3.5194
G01 X4.0984 Y3.4982
G01 X4.1358 Y3.4764
G01 X4.1753 Y3.4547
G01 X4.2136 Y3.4348
G01 X4.2500 Y3.4170
G01 X4.2891 Y3.3991
G01 X4.3284 Y3.3822
G01 X4.3684 Y3.3662
G01 X4.4087 Y3.3512
G01 X4.4495 Y3.3371
G01 X4.4902 Y3.3242
G01 X4.5318 Y3.3121
G01 X4.5729 Y3.3012
G01 X4.6151 Y3.2912
G01 X4.6570 Y3.2822
G01 X4.6996 Y3.2744
G01 X4.7441 Y3.2671
G01 X4.7843 Y3.2617
G01 X4.8272 Y3.2569
G01 X4.8698 Y3.2532
G01 X4.9129 Y3.2505
G01 X4.9559 Y3.2489
G01 X4.9987 Y3.2484
G01 X5.0418 Y3.2489
G01 X5.0845 Y3.2504
G01 X5.1276 Y3.2530
G01 X5.1705 Y3.2567
G01 X5.2131 Y3.2613
G01 X5.2559 Y3.2671
G01 X5.2984 Y3.2740
G01 X5.3402 Y3.2817
G01 X5.3827 Y3.2907
G01 X5.4243 Y3.3005
G01 X5.4662 Y3.3116
G01 X5.5072 Y3.3234
G01 X5.5484 Y3.3365
G01 X5.5887 Y3.3502
G01 X5.6293 Y3.3653
G01 X5.6692 Y3.3812
G01 X5.7088 Y3.3982
G01 X5.7500 Y3.4170
G01 X5.7864 Y3.4348
G01 X5.8247 Y3.4547
G01 X5.8642 Y3.4764
G01 X5.9016 Y3.4982
G01 X5.9361 Y3.5194
G01 X5.9721 Y3.5428
G01 X6.0078 Y3.5673
G01 X6.0442 Y3.5937
G01 X6.0765 Y3.6181
G01 X6.1104 Y3.6454
G01 X6.1432 Y3.6728
G01 X6.1754 Y3.7013
G01 X6.2069 Y3.7304
G01 X6.2377 Y3.7605
G01 X6.2678 Y3.7913
G01 X6.2971 Y3.8228
G01 X6.3255 Y3.8549
G01 X6.3546 Y3.8896
G01 X6.3819 Y3.9235
G01 X6.4063 Y3.9558
G01 X6.4327 Y3.9922
G01 X6.4572 Y4.0279
G01 X6.4806 Y4.0639
G01 X6.5018 Y4.0984
G01 X6.5236 Y4.1358
G01 X6.5453 Y4.1753
G01 X6.5652 Y4.2136
G01 X6.5830 Y4.2500
G01 X6.6009 Y4.2891
G01 X6.6178 Y4.3284
G01 X6.6338 Y4.3684
G01 X6.6488 Y4.4087
G01 X6.6629 Y4.4495
G01 X6.6758 Y4.4902
G01 X6.6879 Y4.5318
G01 X6.6988 Y4.5729
G01 X6.7088 Y4.6151
G01 X6.7178 Y4.6570
G01 X6.7256 Y4.6996
G01 X6.7329 Y4.7441
G01 X6.7383 Y4.7843
G01 X6.7431 Y4.8272
G01 X6.7468 Y4.8698
G01 X6.7495 Y4.9129
G01 X6.7511 Y4.9559
G01 X6.7516 Y4.9987
G01 X6.7511 Y5.0418
G01 X6.7496 Y5.0845
G01 X6.7470 Y5.1276
G01 X6.7433 Y5.1705
G01 X6.7387 Y5.2131
G01 X6.7329 Y5.2559
G01 X6.7260 Y5.2984
G01 X6.7183 Y5.3402
G01 X6.7093 Y5.3827
G01 X6.6995 Y5.4243
G01 X6.6884 Y5.4662
G01 X6.6766 Y5.5072
G01 X6.6635 Y5.5484
G01 X6.6498 Y5.5887
G01 X6.6347 Y5.6293
G01 X6.6188 Y5.6692
G01 X6.6018 Y5.7088
G01 X6.5830 Y5.7500
G01 X6.5652 Y5.7864
G01 X6.5453 Y5.8247
G01 X6.5236 Y5.8642
G01 X6.5018 Y5.9016
G01 X6.4806 Y5.9361
G01 X6.4572 Y5.9721
G01 X6.4327 Y6.0078
G01 X6.4063 Y6.0442
G01 X6.3819 Y6.0765
G01 X6.3546 Y6.1104
G01 X6.3272 Y6.1432
G01 X6.2987 Y6.1754
G01 X6.2696 Y6.2069
G01 X6.2395 Y6.2377
G01 X6.2087 Y6.2678
G01 X6.1772 Y6.2971
G01 X6.1451 Y6.3255
G01 X6.1104 Y6.3546
G01 X6.0765 Y6.3819
G01 X6.0442 Y6.4063
G01 X6.0078 Y6.4327
G01 X5.9721 Y6.4572
G01 X5.9361 Y6.4806
G01 X5.9016 Y6.5018
G01 X5.8642 Y6.5236
G01 X5.8247 Y6.5453
G01 X5.7864 Y6.5652
G01 X5.7500 Y6.5830
G01 X5.7109 Y6.6009
G01 X5.6716 Y6.6178
G01 X5.6316 Y6.6338
G01 X5.5913 Y6.6488
G01 X5.5505 Y6.6629
G01 X5.5098 Y6.6758
G01 X5.4682 Y6.6879
G01 X5.4271 Y6.6988
G01 X5.3849 Y6.7088
G01 X5.3430 Y6.7178
G01 X5.3004 Y6.7256
G01 X5.2559 Y6.7329
G01 X5.2157 Y6.7383
G01 X5.1728 Y6.7431
G01 X5.1302 Y6.7468
G01 X5.0871 Y6.7495
G01 X5.0441 Y6.7511
G01 X5.0013 Y6.7516
G01 X4.9582 Y6.7511
G01 X4.9155 Y6.7496
G01 X4.8724 Y6.7470
G01 X4.8295 Y6.7433
G01 X4.7869 Y6.7387
G01 X4.7441 Y6.7329
G01 X4.7016 Y6.7260
G01 X4.6598 Y6.7183
G01 X4.6173 Y6.7093
G01 X4.5757 Y6.6995
G01 X4.5338 Y6.6884
G01 X4.4928 Y6.6766
G01 X4.4516 Y6.6635
G01 X4.4113 Y6.6498
G01 X4.3707 Y6.6347
G01 X4.3308 Y6.6188
G01 X4.2912 Y6.6018
G01 X4.2500 Y6.5830
G01 X4.2136 Y6.5652
G01 X4.1753 Y6.5453
G01 X4.1358 Y6.5236
G01 X4.0984 Y6.5018
G01 X4.0639 Y6.4806
G01 X4.0279 Y6.4572
G01 X3.9922 Y6.4327
G01 X3.9558 Y6.4063
G01 X3.9235 Y6.3819
G01 X3.8896 Y6.3546
G01 X3.8568 Y6.3272
G01 X3.8246 Y6.2987
G01 X3.7931 Y6.2696
G01 X3.7623 Y6.2395
G01 X3.7322 Y6.2087
G01 X3.7029 Y6.1772
G01 X3.6745 Y6.1451
G01 X3.6454 Y6.1104
G01 X3.6181 Y6.0765
G01 X3.5937 Y6.0442
G01 X3.5673 Y6.0078
G01 X3.5428 Y5.9721
G01 X3.5194 Y5.9361
G01 X3.4982 Y5.9016
G01 X3.4764 Y5.8642
G01 X3.4547 Y5.8247
G01 X3.4348 Y5.7864
G01 X3.4170 Y5.7500
G01 X3.3982 Y5.7088
G01 X3.3812 Y5.6692
G01 X3.3653 Y5.6293
G01 X3.3512 Y5.5913
G01 X3.3371 Y5.5505
G01 X3.3242 Y5.5098
G01 X3.3121 Y5.4682
G01 X3.3012 Y5.4271
G01 X3.2912 Y5.3849
G01 X3.2822 Y5.3430
G01 X3.2744 Y5.3004
G01 X3.2671 Y5.2559
G01 X3.2617 Y5.2157
G01 X3.2569 Y5.1728
G01 X3.2532 Y5.1302
G01 X3.2505 Y5.0871
G01 X3.2489 Y5.0441
G01 X3.2484 Y5.0000
G00 Z2.0000
G00 X3.5517 Y5.0000
G01 F60.00
G01 Z-0.0000
G01 F120.00
G01 X3.5521 Y4.9644
G01 X3.5534 Y4.9288
G01 X3.5555 Y4.8935
G01 X3.5586 Y4.8581
G01 X3.5625 Y4.8226
G01 X3.5673 Y4.7876
G01 X3.5730 Y4.7524
G01 X3.5795 Y4.7174
G01 X3.5869 Y4.6826
G01 X3.5950 Y4.6481
G01 X3.6041 Y4.6138
G01 X3.6140 Y4.5795
G01 X3.6248 Y4.5457
G01 X3.6363 Y4.5120
G01 X3.6487 Y4.4788
G01 X3.6619 Y4.4458
G01 X3.6760 Y4.4130
G01 X3.6908 Y4.3806
G01 X3.7063 Y4.3488
G01 X3.7226 Y4.3175
G01 X3.7399 Y4.2861
G01 X3.7578 Y4.2552
G01 X3.7763 Y4.2252
G01 X3.7956 Y4.1954
G01 X3.8158 Y4.1661
G01 X3.8368 Y4.1371
G01 X3.8582 Y4.1089
G01 X3.8804 Y4.0813
G01 X3.9034 Y4.0539
G01 X3.9269 Y4.0273
G01 X3.9511 Y4.0012
G01 X3.9758 Y3.9758
G01 X4.0012 Y3.9511
G01 X4.0273 Y3.9269
G01 X4.0539 Y3.9034
G01 X4.0813 Y3.8804
G01 X4.1089 Y3.8582
G01 X4.1371 Y3.8368
G01 X4.1661 Y3.8158
G01 X4.1954 Y3.7956
G01 X4.2252 Y3.7763
G01 X4.2552 Y3.7578
G01 X4.2861 Y3.7399
G01 X4.3175 Y3.7226
G01 X4.3488 Y3.7063
G01 X4.3806 Y3.6908
G01 X4.4130 Y3.6760
G01 X4.4458 Y3.6619
G01 X4.4788 Y3.6487
G01 X4.5120 Y3.6363
G01 X4.5457 Y3.6248
G01 X4.5795 Y3.6140
G01 X4.6138 Y3.6041
G01 X4.6481 Y3.5950
G01 X4.6826 Y3.5869
G01 X4.7174 Y3.5795
G01 X4.7524 Y3.5730
G01 X4.7876 Y3.5673
G01 X4.8226 Y3.5625
G01 X4.8581 Y3.5586
G01 X4.8935 Y3.5555
G01 X4.9288 Y3.5534
G01 X4.9644 Y3.5521
G01 X5.0000 Y3.5517
G01 X5.0356 Y3.5521
G01 X5.0712 Y3.5534
G01 X5.1065 Y3.5555
G01 X5.1419 Y3.5586
G01 X5.1774 Y3.5625
G01 X5.2124 Y3.5673
G01 X5.2476 Y3.5730
G01 X5.2826 Y3.5795
G01 X5.3174 Y3.5869
G01 X5.3519 Y3.5950
G01 X5.3862 Y3.6041
G01 X5.4205 Y3.6140
G01 X5.4543 Y3.6248
G01 X5.4880 Y3.6363
G01 X5.5212 Y3.6487
G01 X5.5542 Y3.6619
G01 X5.5870 Y3.6760
G01 X5.6194 Y3.6908
G01 X5.6512 Y3.7063
G01 X5.6825 Y3.7226
G01 X5.7139 Y3.7399
G01 X5.7448 Y3.7578
G01 X5.7748 Y3.7763
G01 X5.8046 Y3.7956
G01 X5.8339 Y3.8158
G01 X5.8629 Y3.8368
G01 X5.8911 Y3.8582
G01 X5.9187 Y3.8804
G01 X5.9461 Y3.9034
G01 X5.9727 Y3.9269
G01 X5.9988 Y3.9511
G01 X6.0242 Y3.9758
G01 X6.0489 Y4.0012
G01 X6.0731 Y4.0273
G01 X6.0966 Y4.0539
G01 X6.1196 Y4.0813
G01 X6.1418 Y4.1089
G01 X6.1632 Y4.1371
G01 X6.1842 Y4.1661
G01 X6.2044 Y4.1954
G01 X6.2237 Y4.2252
G01 X6.2422 Y4.2552
G01 X6.2601 Y4.2861
G01 X6.2774 Y4.3175
G01 X6.2937 Y4.3488
G01 X6.3092 Y4.3806
G01 X6.3240 Y4.4130
G01 X6.3381 Y4.4458
G01 X6.3513 Y4.4788
G01 X6.3637 Y4.5120
G01 X6.3752 Y4.5457
G01 X6.3860 Y4.5795
G01 X6.3959 Y4.6138
G01 X6.4050 Y4.6481
G01 X6.4131 Y4.6826
G01 X6.4205 Y4.7174
G01 X6.4270 Y4.7524
G01 X6.4327 Y4.7876
G01 X6.4375 Y4.8226
G01 X6.4414 Y4.8581
G01 X6.4445 Y4.8935
G01 X6.4466 Y4.9288
G01 X6.4479 Y4.9644
G01 X6.4483 Y5.0000
G01 X6.4479 Y5.0356
G01 X6.4466 Y5.0712
G01 X6.4445 Y5.1065
G01 X6.4414 Y5.1419
G01 X6.4375 Y5.1774
G01 X6.4327 Y5.2124
G01 X6.4270 Y5.2476
G01 X6.4205 Y5.2826
G01 X6.4131 Y5.3174
G01 X6.4050 Y5.3519
G01 X6.3959 Y5.3862
G01 X6.3860 Y5.4205
G01 X6.3752 Y5.4543
G01 X6.3637 Y5.4880
G01 X6.3513 Y5.5212
G01 X6.3381 Y5.5542
G01 X6.3240 Y5.5870
G01 X6.3092 Y5.6194
G01 X6.2937 Y5.6512
G01 X6.2774 Y5.6825
G01 X6.2601 Y5.7139
G01 X6.2422 Y5.7448
G01 X6.2237 Y5.7748
G01 X6.2044 Y5.8046
G01 X6.1842 Y5.8339
G01 X6.1632 Y5.8629
G01 X6.1418 Y5.8911
G01 X6.1196 Y5.9187
G01 X6.0966 Y5.9461
G01 X6.0731 Y5.9727
G01 X6.0489 Y5.9988
G01 X6.0242 Y6.0242
G01 X5.9988 Y6.0489
G01 X5.9727 Y6.0731
G01 X5.9461 Y6.0966
G01 X5.9187 Y6.1196
G01 X5.8911 Y6.1418
G01 X5.8629 Y6.1632
G01 X5.8339 Y6.1842
G01 X5.8046 Y6.2044
G01 X5.7748 Y6.2237
G01 X5.7448 Y6.2422
G01 X5.7139 Y6.2601
G01 X5.6825 Y6.2774
G01 X5.6512 Y6.2937
G01 X5.6194 Y6.3092
G01 X5.5870 Y6.3240
G01 X5.5542 Y6.3381
G01 X5.5212 Y6.3513
G01 X5.4880 Y6.3637
G01 X5.4543 Y6.3752
G01 X5.4205 Y6.3860
G01 X5.3862 Y6.3959
G01 X5.3519 Y6.4050
G01 X5.3174 Y6.4131
G01 X5.2826 Y6.4205
G01 X5.2476 Y6.4270
G01 X5.2124 Y6.4327
G01 X5.1774 Y6.4375
G01 X5.1419 Y6.4414
G01 X5.1065 Y6.4445
G01 X5.0712 Y6.4466
G01 X5.0356 Y6.4479
G01 X5.0000 Y6.4483
G01 X4.9644 Y6.4479
G01 X4.9288 Y6.4466
G01 X4.8935 Y6.4445
G01 X4.8581 Y6.4414
G01 X4.8226 Y6.4375
G01 X4.7876 Y6.4327
G01 X4.7524 Y6.4270
G01 X4.7174 Y6.4205
G01 X4.6826 Y6.4131
G01 X4.6481 Y6.4050
G01 X4.6138 Y6.3959
G01 X4.5795 Y6.3860
G01 X4.5457 Y6.3752
G01 X4.5120 Y6.3637
G01 X4.4788 Y6.3513
G01 X4.4458 Y6.3381
G01 X4.4130 Y6.3240
G01 X4.3806 Y6.3092
G01 X4.3488 Y6.2937
G01 X4.3175 Y6.2774
G01 X4.2861 Y6.2601
G01 X4.2552 Y6.2422
G01 X4.2252 Y6.2237
G01 X4.1954 Y6.2044
G01 X4.1661 Y6.1842
G01 X4.1371 Y6.1632
G01 X4.1089 Y6.1418
G01 X4.0813 Y6.1196
G01 X4.0539 Y6.0966
G01 X4.0273 Y6.0731
G01 X4.0012 Y6.0489
G01 X3.9758 Y6.0242
G01 X3.9511 Y5.9988
G01 X3.9269 Y5.9727
G01 X3.9034 Y5.9461
G01 X3.8804 Y5.9187
G01 X3.8582 Y5.8911
G01 X3.8368 Y5.8629
G01 X3.8158 Y5.8339
G01 X3.7956 Y5.8046
G01 X3.7763 Y5.7748
G01 X3.7578 Y5.7448
G01 X3.7399 Y5.7139
G01 X3.7226 Y5.6825
G01 X3.7063 Y5.6512
G01 X3.6908 Y5.6194
G01 X3.6760 Y5.5870
G01 X3.6619 Y5.5542
G01 X3.6487 Y5.5212
G01 X3.6363 Y5.4880
G01 X3.6248 Y5.4543
G01 X3.6140 Y5.4205
G01 X3.6041 Y5.3862
G01 X3.5950 Y5.3519
G01 X3.5869 Y5.3174
G01 X3.5795 Y5.2826
G01 X3.5730 Y5.2476
G01 X3.5673 Y5.2124
G01 X3.5625 Y5.1774
G01 X3.5586 Y5.1419
G01 X3.5555 Y5.1065
G01 X3.5534 Y5.0712
G01 X3.5521 Y5.0356
G01 X3.5517 Y5.0000
G00 Z2.0000
G00 X7.4132 Y11.5899
G01 F60.00
G01 Z-0.0000
G01 F120.00
G01 X7.4134 Y11.5786
G01 X7.4145 Y11.5574
G01 X7.4169 Y11.5364
G01 X7.4203 Y11.5159
G01 X7.4249 Y11.4955
G01 X7.4276 Y11.4855
G01 X7.4339 Y11.4651
G01 X7.4414 Y11.4451
G01 X7.4544 Y11.4164
G01 X7.4591 Y11.4076
G01 X7.4698 Y11.3890
G01 X7.4813 Y11.3714
G01 X7.4873 Y11.3631
G01 X7.5003 Y11.3464
G01 X7.5141 Y11.3305
G01 X7.5213 Y11.3229
G01 X7.5365 Y11.3081
G01 X7.5441 Y11.3013
G01 X7.5608 Y11.2876
G01 X7.5774 Y11.2753
G01 X7.5950 Y11.2638
G01 X7.6136 Y11.2531
G01 X7.6224 Y11.2484
G01 X7.6511 Y11.2354
G01 X7.6711 Y11.2279
G01 X7.6915 Y11.2216
G01 X7.7015 Y11.2189
G01 X7.7219 Y11.2143
G01 X7.7424 Y11.2109
G01 X7.7634 Y11.2085
G01 X7.7846 Y11.2074
G01 X7.7959 Y11.2072
G01 X9.0641 Y11.2072
G01 X9.0754 Y11.2074
G01 X9.0966 Y11.2085
G01 X9.1176 Y11.2109
G01 X9.1381 Y11.2143
G01 X9.1585 Y11.2189
G01 X9.1889 Y11.2279
G01 X9.2089 Y11.2354
G01 X9.2281 Y11.2438
G01 X9.2464 Y11.2531
G01 X9.2650 Y11.2638
G01 X9.2826 Y11.2753
G01 X9.2992 Y11.2876
G01 X9.3159 Y11.3013
G01 X9.3235 Y11.3081
G01 X9.3387 Y11.3229
G01 X9.3527 Y11.3381
G01 X9.3664 Y11.3548
G01 X9.3787 Y11.3714
G01 X9.3902 Y11.3890
G01 X9.4009 Y11.4076
G01 X9.4056 Y11.4164
G01 X9.4147 Y11.4359
G01 X9.4224 Y11.4550
G01 X9.4292 Y11.4749
G01 X9.4351 Y11.4955
G01 X9.4397 Y11.5159
G01 X9.4431 Y11.5364
G01 X9.4455 Y11.5574
G01 X9.4466 Y11.5786
G01 X9.4468 Y11.5899
G01 X9.4468 Y14.8901
G01 X9.4461 Y14.9122
G01 X9.4455 Y14.9226
G01 X9.4431 Y14.9436
G01 X9.4397 Y14.9641
G01 X9.4351 Y14.9845
G01 X9.4261 Y15.0149
G01 X9.4186 Y15.0349
G01 X9.4056 Y15.0636
G01 X9.3956 Y15.0818
G01 X9.3845 Y15.0999
G01 X9.3787 Y15.1086
G01 X9.3664 Y15.1252
G01 X9.3527 Y15.1419
G01 X9.3387 Y15.1571
G01 X9.3235 Y15.1719
G01 X9.3159 Y15.1787
G01 X9.2992 Y15.1924
G01 X9.2826 Y15.2047
G01 X9.2650 Y15.2162
G01 X9.2464 Y15.2269
G01 X9.2376 Y15.2316
G01 X9.2181 Y15.2407
G01 X9.1990 Y15.2484
G01 X9.1791 Y15.2552
G01 X9.1585 Y15.2611
G01 X9.1381 Y15.2657
G01 X9.1176 Y15.2691
G01 X9.0966 Y15.2715
G01 X9.0754 Y15.2726
G01 X7.7959 Y15.2728
G01 X7.7846 Y15.2726
G01 X7.7634 Y15.2715
G01 X7.7424 Y15.2691
G01 X7.7219 Y15.2657
G01 X7.7015 Y15.2611
G01 X7.6711 Y15.2521
G01 X7.6511 Y15.2446
G01 X7.6224 Y15.2316
G01 X7.6136 Y15.2269
G01 X7.5950 Y15.2162
G01 X7.5774 Y15.2047
G01 X7.5608 Y15.1924
G01 X7.5441 Y15.1787
G01 X7.5365 Y15.1719
G01 X7.5213 Y15.1571
G01 X7.5073 Y15.1419
G01 X7.4936 Y15.1252
G01 X7.4813 Y15.1086
G01 X7.4698 Y15.0910
G01 X7.4591 Y15.0724
G01 X7.4544 Y15.0636
G01 X7.4453 Y15.0441
G01 X7.4376 Y15.0250
G01 X7.4308 Y15.0051
G01 X7.4249 Y14.9845
G01 X7.4203 Y14.9641
G01 X7.4169 Y14.9436
G01 X7.4145 Y14.9226
G01 X7.4134 Y14.9014
G01 X7.4132 Y14.8901
G01 X7.4132 Y11.5899
G00 Z2.0000
G00 X7.6680 Y12.7327
G01 F60.00
G01 Z-0.0000
G01 F120.00
G01 X9.1920 Y12.7327
G01 X9.2131 Y12.7338
G01 X9.2315 Y12.7366
G01 X9.2508 Y12.7414
G01 X9.2695 Y12.7481
G01 X9.2874 Y12.7566
G01 X9.3045 Y12.7668
G01 X9.3204 Y12.7787
G01 X9.3352 Y12.7920
G01 X9.3485 Y12.8068
G01 X9.3604 Y12.8227
G01 X9.3706 Y12.8398
G01 X9.3791 Y12.8577
G01 X9.3858 Y12.8764
G01 X9.3906 Y12.8957
G01 X9.3935 Y12.9154
G01 X9.3945 Y12.9352
G01 X9.3934 Y12.9563
G01 X9.3906 Y12.9747
G01 X9.3858 Y12.9940
G01 X9.3791 Y13.0127
G01 X9.3717 Y13.0285
G01 X9.3589 Y13.0497
G01 X9.3485 Y13.0636
G01 X9.3352 Y13.0784
G01 X9.3204 Y13.0917
G01 X9.3065 Y13.1021
G01 X9.2853 Y13.1149
G01 X9.2695 Y13.1223
G01 X9.2508 Y13.1290
G01 X9.2315 Y13.1338
G01 X9.2118 Y13.1367
G01 X9.1920 Y13.1377
G01 X7.6680 Y13.1377
G01 X7.6469 Y13.1366
G01 X7.6285 Y13.1338
G01 X7.6092 Y13.1290
G01 X7.5905 Y13.1223
G01 X7.5726 Y13.1138
G01 X7.5555 Y13.1036
G01 X7.5396 Y13.0917
G01 X7.5248 Y13.0784
G01 X7.5115 Y13.0636
G01 X7.4996 Y13.0477
G01 X7.4894 Y13.0306
G01 X7.4809 Y13.0127
G01 X7.4742 Y12.9940
G01 X7.4694 Y12.9747
G01 X7.4665 Y12.9550
G01 X7.4655 Y12.9352
G01 X7.4663 Y12.9178
G01 X7.4694 Y12.8957
G01 X7.4742 Y12.8764
G01 X7.4809 Y12.8577
G01 X7.4883 Y12.8419
G01 X7.5011 Y12.8207
G01 X7.5115 Y12.8068
G01 X7.5266 Y12.7903
G01 X7.5396 Y12.7787
G01 X7.5555 Y12.7668
G01 X7.5726 Y12.7566
G01 X7.5905 Y12.7481
G01 X7.6092 Y12.7414
G01 X7.6285 Y12.7366
G01 X7.6482 Y12.7337
G01 X7.6680 Y12.7327
G00 Z2.0000
G00 X7.0830 Y12.7795
G01 F60.00
G01 Z-0.0000
G01 F120.00
G01 X7.0830 Y13.0335
G01 X7.0825 Y13.0446
G01 X7.0803 Y13.0580
G01 X7.0781 Y13.0665
G01 X7.0753 Y13.0747
G01 X7.0696 Y13.0870
G01 X7.0625 Y13.0986
G01 X7.0573 Y13.1055
G01 X7.0498 Y13.1138
G01 X7.0396 Y13.1228
G01 X7.0326 Y13.1279
G01 X7.0230 Y13.1336
G01 X7.0107 Y13.1393
G01 X7.0025 Y13.1421
G01 X6.9916 Y13.1449
G01 X6.9806 Y13.1465
G01 X6.9720 Y13.1470
G01 X6.9584 Y13.1465
G01 X6.9474 Y13.1449
G01 X6.9389 Y13.1428
G01 X6.9238 Y13.1374
G01 X6.9160 Y13.1336
G01 X6.9064 Y13.1279
G01 X6.8975 Y13.1213
G01 X6.8910 Y13.1155
G01 X6.8802 Y13.1036
G01 X6.8751 Y13.0966
G01 X6.8694 Y13.0870
G01 X6.8646 Y13.0769
G01 X6.8609 Y13.0665
G01 X6.8581 Y13.0556
G01 X6.8563 Y13.0422
G01 X6.8560 Y13.0335
G01 X6.8558 Y12.7741
G01 X6.8542 Y12.7574
G01 X6.8520 Y12.7465
G01 X6.8491 Y12.7362
G01 X6.8452 Y12.7257
G01 X6.8407 Y12.7159
G01 X6.8352 Y12.7061
G01 X6.8291 Y12.6970
G01 X6.8223 Y12.6883
G01 X6.8148 Y12.6802
G01 X6.8023 Y12.6691
G01 X6.7889 Y12.6598
G01 X6.7791 Y12.6543
G01 X6.7693 Y12.6498
G01 X6.7588 Y12.6459
G01 X6.7485 Y12.6430
G01 X6.7376 Y12.6408
G01 X6.7263 Y12.6395
G01 X6.7144 Y12.6390
G01 X6.0816 Y12.6390
G01 X6.0697 Y12.6395
G01 X6.0531 Y12.6418
G01 X6.0372 Y12.6459
G01 X6.0267 Y12.6498
G01 X6.0117 Y12.6571
G01 X5.9980 Y12.6659
G01 X5.9852 Y12.6764
G01 X5.9737 Y12.6883
G01 X5.9637 Y12.7015
G01 X5.9553 Y12.7159
G01 X5.9487 Y12.7309
G01 X5.9440 Y12.7465
G01 X5.9411 Y12.7627
G01 X5.9402 Y12.7741
G01 X5.9400 Y12.7806
G01 X5.9400 Y13.0335
G01 X5.9396 Y13.0434
G01 X5.9373 Y13.0580
G01 X5.9351 Y13.0665
G01 X5.9314 Y13.0769
G01 X5.9254 Y13.0892
G01 X5.9209 Y13.0966
G01 X5.9150 Y13.1046
G01 X5.9050 Y13.1155
G01 X5.8985 Y13.1213
G01 X5.8906 Y13.1272
G01 X5.8789 Y13.1342
G01 X5.8699 Y13.1384
G01 X5.8618 Y13.1414
G01 X5.8474 Y13.1451
G01 X5.8376 Y13.1465
G01 X5.8290 Y13.1470
G01 X5.8154 Y13.1465
G01 X5.8020 Y13.1443
G01 X5.7935 Y13.1421
G01 X5.7853 Y13.1393
G01 X5.7730 Y13.1336
G01 X5.7614 Y13.1265
G01 X5.7545 Y13.1213
G01 X5.7462 Y13.1138
G01 X5.7387 Y13.1055
G01 X5.7335 Y13.0986
G01 X5.7264 Y13.0870
G01 X5.7216 Y13.0769
G01 X5.7186 Y13.0688
G01 X5.7151 Y13.0556
G01 X5.7135 Y13.0446
G01 X5.7130 Y13.0335
G01 X5.7130 Y12.7795
G01 X5.7132 Y12.7662
G01 X5.7140 Y12.7518
G01 X5.7157 Y12.7355
G01 X5.7177 Y12.7207
G01 X5.7203 Y12.7067
G01 X5.7236 Y12.6916
G01 X5.7270 Y12.6787
G01 X5.7318 Y12.6634
G01 X5.7399 Y12.6413
G01 X5.7463 Y12.6266
G01 X5.7541 Y12.6107
G01 X5.7663 Y12.5888
G01 X5.7761 Y12.5736
G01 X5.7912 Y12.5529
G01 X5.8027 Y12.5389
G01 X5.8197 Y12.5206
G01 X5.8325 Y12.5083
G01 X5.8520 Y12.4916
G01 X5.8664 Y12.4808
G01 X5.8874 Y12.4668
G01 X5.9029 Y12.4578
G01 X5.9253 Y12.4464
G01 X5.9423 Y12.4389
G01 X5.9654 Y12.4304
G01 X5.9830 Y12.4251
G01 X6.0077 Y12.4193
G01 X6.0247 Y12.4162
G01 X6.0393 Y12.4143
G01 X6.0636 Y12.4124
G01 X6.0787 Y12.4120
G01 X6.7173 Y12.4120
G01 X6.7314 Y12.4123
G01 X6.7457 Y12.4132
G01 X6.7595 Y12.4147
G01 X6.7743 Y12.4167
G01 X6.7883 Y12.4193
G01 X6.8024 Y12.4224
G01 X6.8163 Y12.4260
G01 X6.8306 Y12.4304
G01 X6.8574 Y12.4404
G01 X6.8707 Y12.4464
G01 X6.8835 Y12.4526
G01 X6.8959 Y12.4593
G01 X6.9086 Y12.4668
G01 X6.9207 Y12.4746
G01 X6.9326 Y12.4830
G01 X6.9440 Y12.4916
G01 X6.9553 Y12.5010
G01 X6.9658 Y12.5104
G01 X6.9763 Y12.5206
G01 X6.9861 Y12.5309
G01 X6.9957 Y12.5417
G01 X7.0048 Y12.5529
G01 X7.0136 Y12.5645
G01 X7.0217 Y12.5763
G01 X7.0297 Y12.5888
G01 X7.0368 Y12.6011
G01 X7.0434 Y12.6135
G01 X7.0497 Y12.6266
G01 X7.0557 Y12.6403
G01 X7.0654 Y12.6671
G01 X7.0696 Y12.6811
G01 X7.0732 Y12.6952
G01 X7.0761 Y12.7088
G01 X7.0788 Y12.7237
G01 X7.0820 Y12.7518
G01 X7.0828 Y12.7662
G01 X7.0830 Y12.7795
G00 Z2.0000
G00 X5.7130 Y14.1167
G01 F60.00
G01 Z-0.0000
G01 F120.00
G01 X5.7130 Y13.4817
G01 X5.7137 Y13.4694
G01 X5.7151 Y13.4596
G01 X5.7172 Y13.4511
G01 X5.7216 Y13.4383
G01 X5.7264 Y13.4282
G01 X5.7308 Y13.4207
G01 X5.7395 Y13.4087
G01 X5.7462 Y13.4014
G01 X5.7526 Y13.3955
G01 X5.7645 Y13.3866
G01 X5.7730 Y13.3816
G01 X5.7819 Y13.3773
G01 X5.7959 Y13.3724
G01 X5.8044 Y13.3703
G01 X5.8129 Y13.3690
G01 X5.8253 Y13.3682
G01 X5.9535 Y13.3682
G01 X5.9671 Y13.3690
G01 X5.9756 Y13.3703
G01 X5.9865 Y13.3731
G01 X5.9992 Y13.3778
G01 X6.0070 Y13.3816
G01 X6.0145 Y13.3860
G01 X6.0255 Y13.3939
G01 X6.0355 Y13.4032
G01 X6.0413 Y13.4097
G01 X6.0465 Y13.4166
G01 X6.0536 Y13.4282
G01 X6.0593 Y13.4405
G01 X6.0621 Y13.4487
G01 X6.0643 Y13.4572
G01 X6.0665 Y13.4706
G01 X6.0670 Y13.4829
G01 X6.0662 Y13.4953
G01 X6.0649 Y13.5038
G01 X6.0628 Y13.5123
G01 X6.0584 Y13.5251
G01 X6.0536 Y13.5352
G01 X6.0479 Y13.5448
G01 X6.0397 Y13.5556
G01 X6.0338 Y13.5620
G01 X6.0274 Y13.5679
G01 X6.0176 Y13.5754
G01 X6.0070 Y13.5818
G01 X5.9958 Y13.5870
G01 X5.9841 Y13.5910
G01 X5.9756 Y13.5931
G01 X5.9671 Y13.5944
G01 X5.9547 Y13.5952
G01 X5.9400 Y13.5952
G01 X5.9400 Y13.9673
G01 X6.9391 Y13.6898
G01 X6.9500 Y13.6874
G01 X6.9610 Y13.6860
G01 X6.9722 Y13.6857
G01 X6.9833 Y13.6865
G01 X6.9943 Y13.6884
G01 X7.0050 Y13.6914
G01 X7.0154 Y13.6954
G01 X7.0254 Y13.7004
G01 X7.0327 Y13.7050
G01 X7.0454 Y13.7148
G01 X7.0525 Y13.7217
G01 X7.0604 Y13.7312
G01 X7.0660 Y13.7394
G01 X7.0714 Y13.7492
G01 X7.0754 Y13.7582
G01 X7.0792 Y13.7700
G01 X7.0813 Y13.7797
G01 X7.0827 Y13.7907
G01 X7.0830 Y13.8019
G01 X7.0822 Y13.8130
G01 X7.0803 Y13.8240
G01 X7.0773 Y13.8347
G01 X7.0733 Y13.8451
G01 X7.0695 Y13.8529
G01 X7.0609 Y13.8665
G01 X7.0547 Y13.8742
G01 X7.0460 Y13.8830
G01 X7.0394 Y13.8886
G01 X7.0303 Y13.8951
G01 X7.0206 Y13.9006
G01 X7.0105 Y13.9051
G01 X6.9999 Y13.9086
G01 X5.8557 Y14.2264
G01 X5.8438 Y14.2289
G01 X5.8352 Y14.2299
G01 X5.8267 Y14.2302
G01 X5.8133 Y14.2295
G01 X5.8024 Y14.2276
G01 X5.7918 Y14.2248
G01 X5.7793 Y14.2199
G01 X5.7716 Y14.2161
G01 X5.7643 Y14.2116
G01 X5.7554 Y14.2052
G01 X5.7454 Y14.1962
G01 X5.7381 Y14.1880
G01 X5.7316 Y14.1791
G01 X5.7250 Y14.1674
G01 X5.7214 Y14.1596
G01 X5.7185 Y14.1516
G01 X5.7156 Y14.1409
G01 X5.7135 Y14.1277
G01 X5.7130 Y14.1167
G00 Z2.0000
G00 X7.1608 Y14.8910
G01 F60.00
G01 Z-0.0000
G01 F120.00
G01 X7.1610 Y11.5725
G01 X7.1630 Y11.5353
G01 X7.1670 Y11.5002
G01 X7.1696 Y11.4836
G01 X7.1729 Y11.4655
G01 X7.1796 Y11.4354
G01 X7.1846 Y11.4169
G01 X7.1956 Y11.3818
G01 X7.2082 Y11.3483
G01 X7.2150 Y11.3325
G01 X7.2281 Y11.3046
G01 X7.2368 Y11.2879
G01 X7.2455 Y11.2724
G01 X7.2552 Y11.2560
G01 X7.2644 Y11.2416
G01 X7.2745 Y11.2265
G01 X7.2836 Y11.2139
G01 X7.2939 Y11.2002
G01 X7.3060 Y11.1852
G01 X7.3173 Y11.1718
G01 X7.3298 Y11.1579
G01 X7.3534 Y11.1338
G01 X7.3661 Y11.1217
G01 X7.3801 Y11.1093
G01 X7.4037 Y11.0899
G01 X7.4179 Y11.0790
G01 X7.4325 Y11.0685
G01 X7.4476 Y11.0584
G01 X7.4620 Y11.0492
G01 X7.4784 Y11.0395
G01 X7.4939 Y11.0308
G01 X7.5106 Y11.0221
G01 X7.5385 Y11.0090
G01 X7.5543 Y11.0022
G01 X7.5870 Y10.9899
G01 X7.6051 Y10.9839
G01 X7.6229 Y10.9786
G01 X7.6378 Y10.9745
G01 X7.6555 Y10.9703
G01 X7.6896 Y10.9636
G01 X7.7069 Y10.9609
G01 X7.7259 Y10.9586
G01 X7.7440 Y10.9568
G01 X7.7594 Y10.9558
G01 X7.7763 Y10.9551
G01 X7.7950 Y10.9548
G01 X9.0650 Y10.9548
G01 X9.0989 Y10.9557
G01 X9.1160 Y10.9568
G01 X9.1341 Y10.9586
G01 X9.1531 Y10.9609
G01 X9.1704 Y10.9636
G01 X9.2045 Y10.9703
G01 X9.2222 Y10.9745
G01 X9.2393 Y10.9792
G01 X9.2722 Y10.9896
G01 X9.3057 Y11.0022
G01 X9.3215 Y11.0090
G01 X9.3494 Y11.0221
G01 X9.3661 Y11.0308
G01 X9.3816 Y11.0395
G01 X9.3980 Y11.0492
G01 X9.4124 Y11.0584
G01 X9.4275 Y11.0685
G01 X9.4421 Y11.0790
G01 X9.4563 Y11.0899
G01 X9.4799 Y11.1093
G01 X9.4939 Y11.1217
G01 X9.5066 Y11.1338
G01 X9.5202 Y11.1474
G01 X9.5328 Y11.1607
G01 X9.5447 Y11.1741
G01 X9.5641 Y11.1977
G01 X9.5855 Y11.2265
G01 X9.6048 Y11.2560
G01 X9.6236 Y11.2886
G01 X9.6319 Y11.3046
G01 X9.6450 Y11.3325
G01 X9.6522 Y11.3492
G01 X9.6588 Y11.3663
G01 X9.6644 Y11.3818
G01 X9.6701 Y11.3991
G01 X9.6802 Y11.4345
G01 X9.6878 Y11.4691
G01 X9.6908 Y11.4857
G01 X9.6935 Y11.5039
G01 X9.6969 Y11.5343
G01 X9.6982 Y11.5534
G01 X9.6989 Y11.5703
G01 X9.6992 Y11.5890
G01 X9.6990 Y14.9075
G01 X9.6970 Y14.9447
G01 X9.6930 Y14.9798
G01 X9.6904 Y14.9964
G01 X9.6871 Y15.0145
G01 X9.6804 Y15.0446
G01 X9.6754 Y15.0631
G01 X9.6644 Y15.0982
G01 X9.6518 Y15.1317
G01 X9.6450 Y15.1475
G01 X9.6319 Y15.1754
G01 X9.6232 Y15.1921
G01 X9.6145 Y15.2076
G01 X9.6048 Y15.2240
G01 X9.5956 Y15.2384
G01 X9.5855 Y15.2535
G01 X9.5764 Y15.2661
G01 X9.5661 Y15.2798
G01 X9.5550 Y15.2936
G01 X9.5442 Y15.3064
G01 X9.5323 Y15.3199
G01 X9.5080 Y15.3448
G01 X9.4955 Y15.3567
G01 X9.4822 Y15.3687
G01 X9.4557 Y15.3906
G01 X9.4275 Y15.4115
G01 X9.3980 Y15.4308
G01 X9.3661 Y15.4492
G01 X9.3363 Y15.4643
G01 X9.3048 Y15.4782
G01 X9.2696 Y15.4913
G01 X9.2371 Y15.5014
G01 X9.2222 Y15.5055
G01 X9.2045 Y15.5097
G01 X9.1856 Y15.5137
G01 X9.1683 Y15.5168
G01 X9.1501 Y15.5195
G01 X9.1160 Y15.5232
G01 X9.0844 Y15.5249
G01 X9.0650 Y15.5252
G01 X7.7950 Y15.5252
G01 X7.7756 Y15.5249
G01 X7.7449 Y15.5233
G01 X7.7099 Y15.5195
G01 X7.6889 Y15.5163
G01 X7.6550 Y15.5096
G01 X7.6378 Y15.5055
G01 X7.6229 Y15.5014
G01 X7.5913 Y15.4916
G01 X7.5588 Y15.4796
G01 X7.5408 Y15.4721
G01 X7.5106 Y15.4579
G01 X7.4939 Y15.4492
G01 X7.4647 Y15.4324
G01 X7.4476 Y15.4216
G01 X7.4318 Y15.4110
G01 X7.4037 Y15.3901
G01 X7.3801 Y15.3707
G01 X7.3639 Y15.3562
G01 X7.3398 Y15.3326
G01 X7.3173 Y15.3082
G01 X7.2959 Y15.2823
G01 X7.2836 Y15.2661
G01 X7.2725 Y15.2505
G01 X7.2536 Y15.2213
G01 X7.2383 Y15.1949
G01 X7.2281 Y15.1754
G01 X7.2139 Y15.1452
G01 X7.2078 Y15.1308
G01 X7.2012 Y15.1137
G01 X7.1944 Y15.0947
G01 X7.1846 Y15.0631
G01 X7.1796 Y15.0446
G01 X7.1722 Y15.0109
G01 X7.1669 Y14.9791
G01 X7.1631 Y14.9457
G01 X7.1611 Y14.9104
G01 X7.1608 Y14.8910
G00 Z2.0000
G00 X9.1920 Y13.7727
G01 F60.00
G01 Z-0.0000
G01 F120.00
G01 X7.6680 Y13.7727
G01 X7.6469 Y13.7716
G01 X7.6285 Y13.7688
G01 X7.6092 Y13.7640
G01 X7.5905 Y13.7573
G01 X7.5726 Y13.7488
G01 X7.5555 Y13.7386
G01 X7.5396 Y13.7267
G01 X7.5248 Y13.7134
G01 X7.5115 Y13.6986
G01 X7.4996 Y13.6827
G01 X7.4894 Y13.6656
G01 X7.4809 Y13.6477
G01 X7.4742 Y13.6290
G01 X7.4694 Y13.6097
G01 X7.4665 Y13.5900
G01 X7.4655 Y13.5702
G01 X7.4666 Y13.5491
G01 X7.4694 Y13.5307
G01 X7.4742 Y13.5114
G01 X7.4809 Y13.4927
G01 X7.4883 Y13.4769
G01 X7.5011 Y13.4557
G01 X7.5115 Y13.4418
G01 X7.5248 Y13.4270
G01 X7.5396 Y13.4137
G01 X7.5535 Y13.4033
G01 X7.5747 Y13.3905
G01 X7.5905 Y13.3831
G01 X7.6092 Y13.3764
G01 X7.6285 Y13.3716
G01 X7.6482 Y13.3687
G01 X7.6680 Y13.3677
G01 X9.1920 Y13.3677
G01 X9.2131 Y13.3688
G01 X9.2315 Y13.3716
G01 X9.2508 Y13.3764
G01 X9.2695 Y13.3831
G01 X9.2874 Y13.3916
G01 X9.3045 Y13.4018
G01 X9.3204 Y13.4137
G01 X9.3352 Y13.4270
G01 X9.3485 Y13.4418
G01 X9.3604 Y13.4577
G01 X9.3706 Y13.4748
G01 X9.3791 Y13.4927
G01 X9.3858 Y13.5114
G01 X9.3906 Y13.5307
G01 X9.3935 Y13.5504
G01 X9.3945 Y13.5702
G01 X9.3937 Y13.5876
G01 X9.3900 Y13.6121
G01 X9.3858 Y13.6290
G01 X9.3781 Y13.6499
G01 X9.3706 Y13.6656
G01 X9.3604 Y13.6827
G01 X9.3485 Y13.6986
G01 X9.3334 Y13.7151
G01 X9.3204 Y13.7267
G01 X9.3045 Y13.7386
G01 X9.2874 Y13.7488
G01 X9.2695 Y13.7573
G01 X9.2508 Y13.7640
G01 X9.2315 Y13.7688
G01 X9.2118 Y13.7717
G01 X9.1920 Y13.7727
G00 Z2.0000
G00 X13.5148 Y11.8740
G01 F60.00
G01 Z-0.0000
G01 F120.00
G01 X13.5148 Y2.6790
G01 X13.5154 Y2.6666
G01 X13.5177 Y2.6520
G01 X13.5202 Y2.6424
G01 X13.5235 Y2.6330
G01 X13.5297 Y2.6195
G01 X13.5375 Y2.6069
G01 X13.5434 Y2.5989
G01 X13.5500 Y2.5915
G01 X13.5609 Y2.5814
G01 X13.5729 Y2.5727
G01 X13.5815 Y2.5677
G01 X13.5904 Y2.5634
G01 X13.6044 Y2.5582
G01 X13.6164 Y2.5552
G01 X13.6262 Y2.5537
G01 X13.6410 Y2.5528
G01 X28.6270 Y2.5528
G01 X28.6394 Y2.5534
G01 X28.6540 Y2.5557
G01 X28.6636 Y2.5582
G01 X28.6730 Y2.5615
G01 X28.6865 Y2.5677
G01 X28.6991 Y2.5755
G01 X28.7071 Y2.5814
G01 X28.7145 Y2.5880
G01 X28.7246 Y2.5989
G01 X28.7333 Y2.6109
G01 X28.7383 Y2.6195
G01 X28.7426 Y2.6284
G01 X28.7478 Y2.6424
G01 X28.7508 Y2.6544
G01 X28.7523 Y2.6642
G01 X28.7532 Y2.6790
G01 X28.7532 Y11.8740
G01 X28.7526 Y11.8864
G01 X28.7503 Y11.9010
G01 X28.7478 Y11.9106
G01 X28.7445 Y11.9200
G01 X28.7383 Y11.9335
G01 X28.7305 Y11.9461
G01 X28.7246 Y11.9541
G01 X28.7180 Y11.9615
G01 X28.7071 Y11.9716
G01 X28.6951 Y11.9803
G01 X28.6865 Y11.9853
G01 X28.6776 Y11.9896
G01 X28.6636 Y11.9948
G01 X28.6516 Y11.9978
G01 X28.6418 Y11.9993
G01 X28.6270 Y12.0002
G01 X13.6410 Y12.0002
G01 X13.6286 Y11.9996
G01 X13.6164 Y11.9978
G01 X13.6044 Y11.9948
G01 X13.5927 Y11.9906
G01 X13.5815 Y11.9853
G01 X13.5709 Y11.9790
G01 X13.5609 Y11.9716
G01 X13.5517 Y11.9633
G01 X13.5434 Y11.9541
G01 X13.5360 Y11.9441
G01 X13.5297 Y11.9335
G01 X13.5244 Y11.9223
G01 X13.5202 Y11.9106
G01 X13.5172 Y11.8986
G01 X13.5154 Y11.8864
G01 X13.5148 Y11.8740
G00 Z2.0000
G00 X15.4958 Y10.3498
G01 F60.00
G01 Z-0.0000
G01 F120.00
G01 X15.4967 Y10.3153
G01 X15.4996 Y10.2805
G01 X15.5023 Y10.2593
G01 X15.5081 Y10.2255
G01 X15.5119 Y10.2076
G01 X15.5157 Y10.1922
G01 X15.5251 Y10.1593
G01 X15.5319 Y10.1386
G01 X15.5438 Y10.1079
G01 X15.5505 Y10.0920
G01 X15.5578 Y10.0762
G01 X15.5674 Y10.0570
G01 X15.5842 Y10.0268
G01 X15.6020 Y9.9985
G01 X15.6120 Y9.9838
G01 X15.6222 Y9.9698
G01 X15.6355 Y9.9526
G01 X15.6579 Y9.9263
G01 X15.6807 Y9.9021
G01 X15.7065 Y9.8777
G01 X15.7328 Y9.8553
G01 X15.7500 Y9.8420
G01 X15.7769 Y9.8229
G01 X15.7942 Y9.8118
G01 X15.8247 Y9.7939
G01 X15.8557 Y9.7779
G01 X15.8865 Y9.7642
G01 X15.9025 Y9.7578
G01 X15.9188 Y9.7517
G01 X15.9395 Y9.7449
G01 X15.9724 Y9.7355
G01 X15.9878 Y9.7317
G01 X16.0057 Y9.7279
G01 X16.0395 Y9.7221
G01 X16.0607 Y9.7194
G01 X16.0955 Y9.7165
G01 X16.1289 Y9.7156
G01 X16.1638 Y9.7165
G01 X16.1851 Y9.7180
G01 X16.2198 Y9.7220
G01 X16.2543 Y9.7279
G01 X16.2722 Y9.7317
G01 X16.2876 Y9.7355
G01 X16.3205 Y9.7449
G01 X16.3412 Y9.7517
G01 X16.3719 Y9.7636
G01 X16.3878 Y9.7703
G01 X16.4036 Y9.7776
G01 X16.4228 Y9.7872
G01 X16.4530 Y9.8040
G01 X16.4813 Y9.8218
G01 X16.4960 Y9.8318
G01 X16.5100 Y9.8420
G01 X16.5272 Y9.8553
G01 X16.5535 Y9.8777
G01 X16.5777 Y9.9005
G01 X16.6021 Y9.9263
G01 X16.6245 Y9.9526
G01 X16.6378 Y9.9698
G01 X16.6569 Y9.9967
G01 X16.6680 Y10.0140
G01 X16.6859 Y10.0445
G01 X16.7019 Y10.0755
G01 X16.7156 Y10.1063
G01 X16.7220 Y10.1223
G01 X16.7281 Y10.1386
G01 X16.7349 Y10.1593
G01 X16.7443 Y10.1922
G01 X16.7481 Y10.2076
G01 X16.7519 Y10.2255
G01 X16.7577 Y10.2593
G01 X16.7604 Y10.2805
G01 X16.7633 Y10.3153
G01 X16.7642 Y10.3487
G01 X16.7633 Y10.3836
G01 X16.7618 Y10.4049
G01 X16.7578 Y10.4396
G01 X16.7519 Y10.4741
G01 X16.7481 Y10.4920
G01 X16.7443 Y10.5074
G01 X16.7349 Y10.5403
G01 X16.7281 Y10.5610
G01 X16.7162 Y10.5917
G01 X16.7095 Y10.6076
G01 X16.7022 Y10.6234
G01 X16.6926 Y10.6426
G01 X16.6758 Y10.6728
G01 X16.6580 Y10.7011
G01 X16.6480 Y10.7158
G01 X16.6378 Y10.7298
G01 X16.6245 Y10.7470
G01 X16.6021 Y10.7733
G01 X16.5793 Y10.7975
G01 X16.5535 Y10.8219
G01 X16.5272 Y10.8443
G01 X16.5100 Y10.8576
G01 X16.4831 Y10.8767
G01 X16.4658 Y10.8878
G01 X16.4353 Y10.9057
G01 X16.4043 Y10.9217
G01 X16.3735 Y10.9354
G01 X16.3575 Y10.9418
G01 X16.3412 Y10.9479
G01 X16.3205 Y10.9547
G01 X16.2876 Y10.9641
G01 X16.2722 Y10.9679
G01 X16.2543 Y10.9717
G01 X16.2205 Y10.9775
G01 X16.1993 Y10.9802
G01 X16.1645 Y10.9831
G01 X16.1311 Y10.9840
G01 X16.0962 Y10.9831
G01 X16.0749 Y10.9816
G01 X16.0402 Y10.9776
G01 X16.0057 Y10.9717
G01 X15.9878 Y10.9679
G01 X15.9724 Y10.9641
G01 X15.9395 Y10.9547
G01 X15.9188 Y10.9479
G01 X15.8881 Y10.9360
G01 X15.8722 Y10.9293
G01 X15.8564 Y10.9220
G01 X15.8372 Y10.9124
G01 X15.8070 Y10.8956
G01 X15.7787 Y10.8778
G01 X15.7640 Y10.8678
G01 X15.7500 Y10.8576
G01 X15.7328 Y10.8443
G01 X15.7065 Y10.8219
G01 X15.6823 Y10.7991
G01 X15.6579 Y10.7733
G01 X15.6355 Y10.7470
G01 X15.6222 Y10.7298
G01 X15.6031 Y10.7029
G01 X15.5920 Y10.6856
G01 X15.5741 Y10.6551
G01 X15.5581 Y10.6241
G01 X15.5444 Y10.5933
G01 X15.5380 Y10.5773
G01 X15.5319 Y10.5610
G01 X15.5251 Y10.5403
G01 X15.5157 Y10.5074
G01 X15.5119 Y10.4920
G01 X15.5081 Y10.4741
G01 X15.5023 Y10.4403
G01 X15.4996 Y10.4191
G01 X15.4967 Y10.3843
G01 X15.4958 Y10.3498
G00 Z2.0000
G00 X15.7483 Y10.3498
G01 F60.00
G01 Z-0.0000
G01 F120.00
G01 X15.7489 Y10.3284
G01 X15.7507 Y10.3071
G01 X15.7536 Y10.2860
G01 X15.7557 Y10.2751
G01 X15.7603 Y10.2548
G01 X15.7664 Y10.2336
G01 X15.7733 Y10.2138
G01 X15.7773 Y10.2037
G01 X15.7816 Y10.1937
G01 X15.7908 Y10.1747
G01 X15.8013 Y10.1558
G01 X15.8127 Y10.1376
G01 X15.8187 Y10.1288
G01 X15.8313 Y10.1121
G01 X15.8454 Y10.0953
G01 X15.8601 Y10.0799
G01 X15.8755 Y10.0652
G01 X15.8923 Y10.0511
G01 X15.9090 Y10.0385
G01 X15.9178 Y10.0325
G01 X15.9360 Y10.0211
G01 X15.9549 Y10.0106
G01 X15.9739 Y10.0014
G01 X15.9839 Y9.9971
G01 X15.9940 Y9.9931
G01 X16.0138 Y9.9862
G01 X16.0350 Y9.9801
G01 X16.0553 Y9.9755
G01 X16.0662 Y9.9734
G01 X16.0873 Y9.9705
G01 X16.1086 Y9.9687
G01 X16.1300 Y9.9681
G01 X16.1514 Y9.9687
G01 X16.1727 Y9.9705
G01 X16.1938 Y9.9734
G01 X16.2047 Y9.9755
G01 X16.2250 Y9.9801
G01 X16.2462 Y9.9862
G01 X16.2660 Y9.9931
G01 X16.2761 Y9.9971
G01 X16.2861 Y10.0014
G01 X16.3051 Y10.0106
G01 X16.3240 Y10.0211
G01 X16.3422 Y10.0325
G01 X16.3510 Y10.0385
G01 X16.3677 Y10.0511
G01 X16.3845 Y10.0652
G01 X16.3999 Y10.0799
G01 X16.4146 Y10.0953
G01 X16.4287 Y10.1121
G01 X16.4413 Y10.1288
G01 X16.4473 Y10.1376
G01 X16.4587 Y10.1558
G01 X16.4692 Y10.1747
G01 X16.4784 Y10.1937
G01 X16.4827 Y10.2037
G01 X16.4867 Y10.2138
G01 X16.4936 Y10.2336
G01 X16.4997 Y10.2548
G01 X16.5043 Y10.2751
G01 X16.5064 Y10.2860
G01 X16.5093 Y10.3071
G01 X16.5111 Y10.3284
G01 X16.5117 Y10.3498
G01 X16.5111 Y10.3712
G01 X16.5093 Y10.3925
G01 X16.5064 Y10.4136
G01 X16.5043 Y10.4245
G01 X16.4997 Y10.4448
G01 X16.4936 Y10.4660
G01 X16.4867 Y10.4858
G01 X16.4827 Y10.4959
G01 X16.4784 Y10.5059
G01 X16.4692 Y10.5249
G01 X16.4587 Y10.5438
G01 X16.4473 Y10.5620
G01 X16.4413 Y10.5708
G01 X16.4287 Y10.5875
G01 X16.4146 Y10.6043
G01 X16.3999 Y10.6197
G01 X16.3845 Y10.6344
G01 X16.3677 Y10.6485
G01 X16.3510 Y10.6611
G01 X16.3422 Y10.6671
G01 X16.3240 Y10.6785
G01 X16.3051 Y10.6890
G01 X16.2861 Y10.6982
G01 X16.2761 Y10.7025
G01 X16.2660 Y10.7065
G01 X16.2462 Y10.7134
G01 X16.2250 Y10.7195
G01 X16.2047 Y10.7241
G01 X16.1938 Y10.7262
G01 X16.1727 Y10.7291
G01 X16.1514 Y10.7309
G01 X16.1300 Y10.7315
G01 X16.1086 Y10.7309
G01 X16.0873 Y10.7291
G01 X16.0662 Y10.7262
G01 X16.0553 Y10.7241
G01 X16.0350 Y10.7195
G01 X16.0138 Y10.7134
G01 X15.9940 Y10.7065
G01 X15.9839 Y10.7025
G01 X15.9739 Y10.6982
G01 X15.9549 Y10.6890
G01 X15.9360 Y10.6785
G01 X15.9178 Y10.6671
G01 X15.9090 Y10.6611
G01 X15.8923 Y10.6485
G01 X15.8755 Y10.6344
G01 X15.8601 Y10.6197
G01 X15.8454 Y10.6043
G01 X15.8313 Y10.5875
G01 X15.8187 Y10.5708
G01 X15.8127 Y10.5620
G01 X15.8013 Y10.5438
G01 X15.7908 Y10.5249
G01 X15.7816 Y10.5059
G01 X15.7773 Y10.4959
G01 X15.7733 Y10.4858
G01 X15.7664 Y10.4660
G01 X15.7603 Y10.4448
G01 X15.7557 Y10.4245
G01 X15.7536 Y10.4136
G01 X15.7507 Y10.3925
G01 X15.7489 Y10.3712
G01 X15.7483 Y10.3498
G00 Z2.0000
G00 X20.4996 Y10.3498
G01 F60.00
G01 Z-0.0000
G01 F120.00
G01 X20.5005 Y10.3153
G01 X20.5034 Y10.2805
G01 X20.5061 Y10.2593
G01 X20.5119 Y10.2255
G01 X20.5157 Y10.2076
G01 X20.5195 Y10.1922
G01 X20.5289 Y10.1593
G01 X20.5357 Y10.1386
G01 X20.5476 Y10.1079
G01 X20.5543 Y10.0920
G01 X20.5616 Y10.0762
G01 X20.5712 Y10.0570
G01 X20.5880 Y10.0268
G01 X20.6058 Y9.9985
G01 X20.6158 Y9.9838
G01 X20.6260 Y9.9698
G01 X20.6393 Y9.9526
G01 X20.6617 Y9.9263
G01 X20.6845 Y9.9021
G01 X20.7103 Y9.8777
G01 X20.7366 Y9.8553
G01 X20.7538 Y9.8420
G01 X20.7807 Y9.8229
G01 X20.7980 Y9.8118
G01 X20.8285 Y9.7939
G01 X20.8595 Y9.7779
G01 X20.8903 Y9.7642
G01 X20.9063 Y9.7578
G01 X20.9226 Y9.7517
G01 X20.9433 Y9.7449
G01 X20.9762 Y9.7355
G01 X20.9916 Y9.7317
G01 X21.0095 Y9.7279
G01 X21.0433 Y9.7221
G01 X21.0645 Y9.7194
G01 X21.0993 Y9.7165
G01 X21.1327 Y9.7156
G01 X21.1676 Y9.7165
G01 X21.1889 Y9.7180
G01 X21.2236 Y9.7220
G01 X21.2581 Y9.7279
G01 X21.2760 Y9.7317
G01 X21.2914 Y9.7355
G01 X21.3243 Y9.7449
G01 X21.3450 Y9.7517
G01 X21.3757 Y9.7636
G01 X21.3916 Y9.7703
G01 X21.4074 Y9.7776
G01 X21.4266 Y9.7872
G01 X21.4568 Y9.8040
G01 X21.4851 Y9.8218
G01 X21.4998 Y9.8318
G01 X21.5138 Y9.8420
G01 X21.5310 Y9.8553
G01 X21.5573 Y9.8777
G01 X21.5815 Y9.9005
G01 X21.6059 Y9.9263
G01 X21.6283 Y9.9526
G01 X21.6416 Y9.9698
G01 X21.6607 Y9.9967
G01 X21.6718 Y10.0140
G01 X21.6897 Y10.0445
G01 X21.7057 Y10.0755
G01 X21.7194 Y10.1063
G01 X21.7258 Y10.1223
G01 X21.7319 Y10.1386
G01 X21.7387 Y10.1593
G01 X21.7481 Y10.1922
G01 X21.7519 Y10.2076
G01 X21.7557 Y10.2255
G01 X21.7615 Y10.2593
G01 X21.7642 Y10.2805
G01 X21.7671 Y10.3153
G01 X21.7680 Y10.3487
G01 X21.7671 Y10.3836
G01 X21.7656 Y10.4049
G01 X21.7616 Y10.4396
G01 X21.7557 Y10.4741
G01 X21.7519 Y10.4920
G01 X21.7481 Y10.5074
G01 X21.7387 Y10.5403
G01 X21.7319 Y10.5610
G01 X21.7200 Y10.5917
G01 X21.7133 Y10.6076
G01 X21.7060 Y10.6234
G01 X21.6964 Y10.6426
G01 X21.6796 Y10.6728
G01 X21.6618 Y10.7011
G01 X21.6518 Y10.7158
G01 X21.6416 Y10.7298
G01 X21.6283 Y10.7470
G01 X21.6059 Y10.7733
G01 X21.5831 Y10.7975
G01 X21.5573 Y10.8219
G01 X21.5310 Y10.8443
G01 X21.5138 Y10.8576
G01 X21.4869 Y10.8767
G01 X21.4696 Y10.8878
G01 X21.4391 Y10.9057
G01 X21.4081 Y10.9217
G01 X21.3773 Y10.9354
G01 X21.3613 Y10.9418
G01 X21.3450 Y10.9479
G01 X21.3243 Y10.9547
G01 X21.2914 Y10.9641
G01 X21.2760 Y10.9679
G01 X21.2581 Y10.9717
G01 X21.2243 Y10.9775
G01 X21.2031 Y10.9802
G01 X21.1683 Y10.9831
G01 X21.1349 Y10.9840
G01 X21.1000 Y10.9831
G01 X21.0787 Y10.9816
G01 X21.0440 Y10.9776
G01 X21.0095 Y10.9717
G01 X20.9916 Y10.9679
G01 X20.9762 Y10.9641
G01 X20.9433 Y10.9547
G01 X20.9226 Y10.9479
G01 X20.8919 Y10.9360
G01 X20.8760 Y10.9293
G01 X20.8602 Y10.9220
G01 X20.8410 Y10.9124
G01 X20.8108 Y10.8956
G01 X20.7825 Y10.8778
G01 X20.7678 Y10.8678
G01 X20.7538 Y10.8576
G01 X20.7366 Y10.8443
G01 X20.7103 Y10.8219
G01 X20.6861 Y10.7991
G01 X20.6617 Y10.7733
G01 X20.6393 Y10.7470
G01 X20.6260 Y10.7298
G01 X20.6069 Y10.7029
G01 X20.5958 Y10.6856
G01 X20.5779 Y10.6551
G01 X20.5619 Y10.6241
G01 X20.5482 Y10.5933
G01 X20.5418 Y10.5773
G01 X20.5357 Y10.5610
G01 X20.5289 Y10.5403
G01 X20.5195 Y10.5074
G01 X20.5157 Y10.4920
G01 X20.5119 Y10.4741
G01 X20.5061 Y10.4403
G01 X20.5034 Y10.4191
G01 X20.5005 Y10.3843
G01 X20.4996 Y10.3498
G00 Z2.0000
G00 X20.7521 Y10.3498
G01 F60.00
G01 Z-0.0000
G01 F120.00
G01 X20.7527 Y10.3284
G01 X20.7545 Y10.3071
G01 X20.7574 Y10.2860
G01 X20.7595 Y10.2751
G01 X20.7641 Y10.2548
G01 X20.7702 Y10.2336
G01 X20.7771 Y10.2138
G01 X20.7811 Y10.2037
G01 X20.7854 Y10.1937
G01 X20.7946 Y10.1747
G01 X20.8051 Y10.1558
G01 X20.8165 Y10.1376
G01 X20.8225 Y10.1288
G01 X20.8351 Y10.1121
G01 X20.8492 Y10.0953
G01 X20.8639 Y10.0799
G01 X20.8793 Y10.0652
G01 X20.8961 Y10.0511
G01 X20.9128 Y10.0385
G01 X20.9216 Y10.0325
G01 X20.9398 Y10.0211
G01 X20.9587 Y10.0106
G01 X20.9777 Y10.0014
G01 X20.9877 Y9.9971
G01 X20.9978 Y9.9931
G01 X21.0176 Y9.9862
G01 X21.0388 Y9.9801
G01 X21.0591 Y9.9755
G01 X21.0700 Y9.9734
G01 X21.0911 Y9.9705
G01 X21.1124 Y9.9687
G01 X21.1338 Y9.9681
G01 X21.1552 Y9.9687
G01 X21.1765 Y9.9705
G01 X21.1976 Y9.9734
G01 X21.2085 Y9.9755
G01 X21.2288 Y9.9801
G01 X21.2500 Y9.9862
G01 X21.2698 Y9.9931
G01 X21.2799 Y9.9971
G01 X21.2899 Y10.0014
G01 X21.3089 Y10.0106
G01 X21.3278 Y10.0211
G01 X21.3460 Y10.0325
G01 X21.3548 Y10.0385
G01 X21.3715 Y10.0511
G01 X21.3883 Y10.0652
G01 X21.4037 Y10.0799
G01 X21.4184 Y10.0953
G01 X21.4325 Y10.1121
G01 X21.4451 Y10.1288
G01 X21.4511 Y10.1376
G01 X21.4625 Y10.1558
G01 X21.4730 Y10.1747
G01 X21.4822 Y10.1937
G01 X21.4865 Y10.2037
G01 X21.4905 Y10.2138
G01 X21.4974 Y10.2336
G01 X21.5035 Y10.2548
G01 X21.5081 Y10.2751
G01 X21.5102 Y10.2860
G01 X21.5131 Y10.3071
G01 X21.5149 Y10.3284
G01 X21.5155 Y10.3498
G01 X21.5149 Y10.3712
G01 X21.5131 Y10.3925
G01 X21.5102 Y10.4136
G01 X21.5081 Y10.4245
G01 X21.5035 Y10.4448
G01 X21.4974 Y10.4660
G01 X21.4905 Y10.4858
G01 X21.4865 Y10.4959
G01 X21.4822 Y10.5059
G01 X21.4730 Y10.5249
G01 X21.4625 Y10.5438
G01 X21.4511 Y10.5620
G01 X21.4451 Y10.5708
G01 X21.4325 Y10.5875
G01 X21.4184 Y10.6043
G01 X21.4037 Y10.6197
G01 X21.3883 Y10.6344
G01 X21.3715 Y10.6485
G01 X21.3548 Y10.6611
G01 X21.3460 Y10.6671
G01 X21.3278 Y10.6785
G01 X21.3089 Y10.6890
G01 X21.2899 Y10.6982
G01 X21.2799 Y10.7025
G01 X21.2698 Y10.7065
G01 X21.2500 Y10.7134
G01 X21.2288 Y10.7195
G01 X21.2085 Y10.7241
G01 X21.1976 Y10.7262
G01 X21.1765 Y10.7291
G01 X21.1552 Y10.7309
G01 X21.1338 Y10.7315
G01 X21.1124 Y10.7309
G01 X21.0911 Y10.7291
G01 X21.0700 Y10.7262
G01 X21.0591 Y10.7241
G01 X21.0388 Y10.7195
G01 X21.0176 Y10.7134
G01 X20.9978 Y10.7065
G01 X20.9877 Y10.7025
G01 X20.9777 Y10.6982
G01 X20.9587 Y10.6890
G01 X20.9398 Y10.6785
G01 X20.9216 Y10.6671
G01 X20.9128 Y10.6611
G01 X20.8961 Y10.6485
G01 X20.8793 Y10.6344
G01 X20.8639 Y10.6197
G01 X20.8492 Y10.6043
G01 X20.8351 Y10.5875
G01 X20.8225 Y10.5708
G01 X20.8165 Y10.5620
G01 X20.8051 Y10.5438
G01 X20.7946 Y10.5249
G01 X20.7854 Y10.5059
G01 X20.7811 Y10.4959
G01 X20.7771 Y10.4858
G01 X20.7702 Y10.4660
G01 X20.7641 Y10.4448
G01 X20.7595 Y10.4245
G01 X20.7574 Y10.4136
G01 X20.7545 Y10.3925
G01 X20.7527 Y10.3712
G01 X20.7521 Y10.3498
G00 Z2.0000
G00 X25.5034 Y10.3498
G01 F60.00
G01 Z-0.0000
G01 F120.00
G01 X25.5043 Y10.3153
G01 X25.5072 Y10.2805
G01 X25.5099 Y10.2593
G01 X25.5157 Y10.2255
G01 X25.5195 Y10.2076
G01 X25.5233 Y10.1922
G01 X25.5327 Y10.1593
G01 X25.5395 Y10.1386
G01 X25.5514 Y10.1079
G01 X25.5581 Y10.0920
G01 X25.5654 Y10.0762
G01 X25.5750 Y10.0570
G01 X25.5918 Y10.0268
G01 X25.6096 Y9.9985
G01 X25.6196 Y9.9838
G01 X25.6298 Y9.9698
G01 X25.6431 Y9.9526
G01 X25.6655 Y9.9263
G01 X25.6883 Y9.9021
G01 X25.7141 Y9.8777
G01 X25.7404 Y9.8553
G01 X25.7576 Y9.8420
G01 X25.7845 Y9.8229
G01 X25.8018 Y9.8118
G01 X25.8323 Y9.7939
G01 X25.8633 Y9.7779
G01 X25.8941 Y9.7642
G01 X25.9101 Y9.7578
G01 X25.9264 Y9.7517
G01 X25.9471 Y9.7449
G01 X25.9800 Y9.7355
G01 X25.9954 Y9.7317
G01 X26.0133 Y9.7279
G01 X26.0471 Y9.7221
G01 X26.0683 Y9.7194
G01 X26.1031 Y9.7165
G01 X26.1365 Y9.7156
G01 X26.1714 Y9.7165
G01 X26.1927 Y9.7180
G01 X26.2274 Y9.7220
G01 X26.2619 Y9.7279
G01 X26.2798 Y9.7317
G01 X26.2952 Y9.7355
G01 X26.3281 Y9.7449
G01 X26.3488 Y9.7517
G01 X26.3795 Y9.7636
G01 X26.3954 Y9.7703
G01 X26.4112 Y9.7776
G01 X26.4304 Y9.7872
G01 X26.4606 Y9.8040
G01 X26.4889 Y9.8218
G01 X26.5036 Y9.8318
G01 X26.5176 Y9.8420
G01 X26.5348 Y9.8553
G01 X26.5611 Y9.8777
G01 X26.5853 Y9.9005
G01 X26.6097 Y9.9263
G01 X26.6321 Y9.9526
G01 X26.6454 Y9.9698
G01 X26.6645 Y9.9967
G01 X26.6756 Y10.0140
G01 X26.6935 Y10.0445
G01 X26.7095 Y10.0755
G01 X26.7232 Y10.1063
G01 X26.7296 Y10.1223
G01 X26.7357 Y10.1386
G01 X26.7425 Y10.1593
G01 X26.7519 Y10.1922
G01 X26.7557 Y10.2076
G01 X26.7595 Y10.2255
G01 X26.7653 Y10.2593
G01 X26.7680 Y10.2805
G01 X26.7709 Y10.3153
G01 X26.7718 Y10.3487
G01 X26.7709 Y10.3836
G01 X26.7694 Y10.4049
G01 X26.7654 Y10.4396
G01 X26.7595 Y10.4741
G01 X26.7557 Y10.4920
G01 X26.7519 Y10.5074
G01 X26.7425 Y10.5403
G01 X26.7357 Y10.5610
G01 X26.7238 Y10.5917
G01 X26.7171 Y10.6076
G01 X26.7098 Y10.6234
G01 X26.7002 Y10.6426
G01 X26.6834 Y10.6728
G01 X26.6656 Y10.7011
G01 X26.6556 Y10.7158
G01 X26.6454 Y10.7298
G01 X26.6321 Y10.7470
G01 X26.6097 Y10.7733
G01 X26.5869 Y10.7975
G01 X26.5611 Y10.8219
G01 X26.5348 Y10.8443
G01 X26.5176 Y10.8576
G01 X26.4907 Y10.8767
G01 X26.4734 Y10.8878
G01 X26.4429 Y10.9057
G01 X26.4119 Y10.9217
G01 X26.3811 Y10.9354
G01 X26.3651 Y10.9418
G01 X26.3488 Y10.9479
G01 X26.3281 Y10.9547
G01 X26.2952 Y10.9641
G01 X26.2798 Y10.9679
G01 X26.2619 Y10.9717
G01 X26.2281 Y10.9775
G01 X26.2069 Y10.9802
G01 X26.1721 Y10.9831
G01 X26.1387 Y10.9840
G01 X26.1038 Y10.9831
G01 X26.0825 Y10.9816
G01 X26.0478 Y10.9776
G01 X26.0133 Y10.9717
G01 X25.9954 Y10.9679
G01 X25.9800 Y10.9641
G01 X25.9471 Y10.9547
G01 X25.9264 Y10.9479
G01 X25.8957 Y10.9360
G01 X25.8798 Y10.9293
G01 X25.8640 Y10.9220
G01 X25.8448 Y10.9124
G01 X25.8146 Y10.8956
G01 X25.7863 Y10.8778
G01 X25.7716 Y10.8678
G01 X25.7576 Y10.8576
G01 X25.7404 Y10.8443
G01 X25.7141 Y10.8219
G01 X25.6899 Y10.7991
G01 X25.6655 Y10.7733
G01 X25.6431 Y10.7470
G01 X25.6298 Y10.7298
G01 X25.6107 Y10.7029
G01 X25.5996 Y10.6856
G01 X25.5817 Y10.6551
G01 X25.5657 Y10.6241
G01 X25.5520 Y10.5933
G01 X25.5456 Y10.5773
G01 X25.5395 Y10.5610
G01 X25.5327 Y10.5403
G01 X25.5233 Y10.5074
G01 X25.5195 Y10.4920
G01 X25.5157 Y10.4741
G01 X25.5099 Y10.4403
G01 X25.5072 Y10.4191
G01 X25.5043 Y10.3843
G01 X25.5034 Y10.3498
G00 Z2.0000
G00 X25.7559 Y10.3498
G01 F60.00
G01 Z-0.0000
G01 F120.00
G01 X25.7565 Y10.3284
G01 X25.7583 Y10.3071
G01 X25.7612 Y10.2860
G01 X25.7633 Y10.2751
G01 X25.7679 Y10.2548
G01 X25.7740 Y10.2336
G01 X25.7809 Y10.2138
G01 X25.7849 Y10.2037
G01 X25.7892 Y10.1937
G01 X25.7984 Y10.1747
G01 X25.8089 Y10.1558
G01 X25.8203 Y10.1376
G01 X25.8263 Y10.1288
G01 X25.8389 Y10.1121
G01 X25.8530 Y10.0953
G01 X25.8677 Y10.0799
G01 X25.8831 Y10.0652
G01 X25.8999 Y10.0511
G01 X25.9166 Y10.0385
G01 X25.9254 Y10.0325
G01 X25.9436 Y10.0211
G01 X25.9625 Y10.0106
G01 X25.9815 Y10.0014
G01 X25.9915 Y9.9971
G01 X26.0016 Y9.9931
G01 X26.0214 Y9.9862
G01 X26.0426 Y9.9801
G01 X26.0629 Y9.9755
G01 X26.0738 Y9.9734
G01 X26.0949 Y9.9705
G01 X26.1162 Y9.9687
G01 X26.1376 Y9.9681
G01 X26.1590 Y9.9687
G01 X26.1803 Y9.9705
G01 X26.2014 Y9.9734
G01 X26.2123 Y9.9755
G01 X26.2326 Y9.9801
G01 X26.2538 Y9.9862
G01 X26.2736 Y9.9931
G01 X26.2837 Y9.9971
G01 X26.2937 Y10.0014
G01 X26.3127 Y10.0106
G01 X26.3316 Y10.0211
G01 X26.3498 Y10.0325
G01 X26.3586 Y10.0385
G01 X26.3753 Y10.0511
G01 X26.3921 Y10.0652
G01 X26.4075 Y10.0799
G01 X26.4222 Y10.0953
G01 X26.4363 Y10.1121
G01 X26.4489 Y10.1288
G01 X26.4549 Y10.1376
G01 X26.4663 Y10.1558
G01 X26.4768 Y10.1747
G01 X26.4860 Y10.1937
G01 X26.4903 Y10.2037
G01 X26.4943 Y10.2138
G01 X26.5012 Y10.2336
G01 X26.5073 Y10.2548
G01 X26.5119 Y10.2751
G01 X26.5140 Y10.2860
G01 X26.5169 Y10.3071
G01 X26.5187 Y10.3284
G01 X26.5193 Y10.3498
G01 X26.5187 Y10.3712
G01 X26.5169 Y10.3925
G01 X26.5140 Y10.4136
G01 X26.5119 Y10.4245
G01 X26.5073 Y10.4448
G01 X26.5012 Y10.4660
G01 X26.4943 Y10.4858
G01 X26.4903 Y10.4959
G01 X26.4860 Y10.5059
G01 X26.4768 Y10.5249
G01 X26.4663 Y10.5438
G01 X26.4549 Y10.5620
G01 X26.4489 Y10.5708
G01 X26.4363 Y10.5875
G01 X26.4222 Y10.6043
G01 X26.4075 Y10.6197
G01 X26.3921 Y10.6344
G01 X26.3753 Y10.6485
G01 X26.3586 Y10.6611
G01 X26.3498 Y10.6671
G01 X26.3316 Y10.6785
G01 X26.3127 Y10.6890
G01 X26.2937 Y10.6982
G01 X26.2837 Y10.7025
G01 X26.2736 Y10.7065
G01 X26.2538 Y10.7134
G01 X26.2326 Y10.7195
G01 X26.2123 Y10.7241
G01 X26.2014 Y10.7262
G01 X26.1803 Y10.7291
G01 X26.1590 Y10.7309
G01 X26.1376 Y10.7315
G01 X26.1162 Y10.7309
G01 X26.0949 Y10.7291
G01 X26.0738 Y10.7262
G01 X26.0629 Y10.7241
G01 X26.0426 Y10.7195
G01 X26.0214 Y10.7134
G01 X26.0016 Y10.7065
G01 X25.9915 Y10.7025
G01 X25.9815 Y10.6982
G01 X25.9625 Y10.6890
G01 X25.9436 Y10.6785
G01 X25.9254 Y10.6671
G01 X25.9166 Y10.6611
G01 X25.8999 Y10.6485
G01 X25.8831 Y10.6344
G01 X25.8677 Y10.6197
G01 X25.8530 Y10.6043
G01 X25.8389 Y10.5875
G01 X25.8263 Y10.5708
G01 X25.8203 Y10.5620
G01 X25.8089 Y10.5438
G01 X25.7984 Y10.5249
G01 X25.7892 Y10.5059
G01 X25.7849 Y10.4959
G01 X25.7809 Y10.4858
G01 X25.7740 Y10.4660
G01 X25.7679 Y10.4448
G01 X25.7633 Y10.4245
G01 X25.7612 Y10.4136
G01 X25.7583 Y10.3925
G01 X25.7565 Y10.3712
G01 X25.7559 Y10.3498
G00 Z2.0000
G00 X25.2490 Y5.1932
G01 F60.00
G01 Z-0.0000
G01 F120.00
G01 X22.0205 Y5.1932
G01 X22.0094 Y5.1925
G01 X21.9972 Y5.1906
G01 X21.9864 Y5.1878
G01 X21.9736 Y5.1831
G01 X21.9635 Y5.1783
G01 X21.9529 Y5.1720
G01 X21.9429 Y5.1646
G01 X21.9329 Y5.1554
G01 X21.9254 Y5.1471
G01 X21.9180 Y5.1371
G01 X21.9117 Y5.1265
G01 X21.9059 Y5.1142
G01 X21.9022 Y5.1036
G01 X21.8990 Y5.0904
G01 X21.8973 Y5.0782
G01 X21.8968 Y5.0645
G01 X21.8974 Y5.0546
G01 X21.8992 Y5.0424
G01 X21.9022 Y5.0304
G01 X21.9064 Y5.0187
G01 X21.9117 Y5.0075
G01 X21.9180 Y4.9969
G01 X21.9254 Y4.9869
G01 X21.9337 Y4.9777
G01 X21.9429 Y4.9694
G01 X21.9529 Y4.9620
G01 X21.9635 Y4.9557
G01 X21.9747 Y4.9504
G01 X21.9864 Y4.9462
G01 X21.9984 Y4.9432
G01 X22.0106 Y4.9414
G01 X22.0205 Y4.9408
G01 X25.2515 Y4.9408
G01 X25.2614 Y4.9414
G01 X25.2736 Y4.9432
G01 X25.2856 Y4.9462
G01 X25.2973 Y4.9504
G01 X25.3085 Y4.9557
G01 X25.3191 Y4.9620
G01 X25.3291 Y4.9694
G01 X25.3383 Y4.9777
G01 X25.3466 Y4.9869
G01 X25.3540 Y4.9969
G01 X25.3603 Y5.0075
G01 X25.3656 Y5.0187
G01 X25.3698 Y5.0304
G01 X25.3728 Y5.0424
G01 X25.3746 Y5.0546
G01 X25.3752 Y5.0670
G01 X25.3746 Y5.0794
G01 X25.3728 Y5.0916
G01 X25.3698 Y5.1036
G01 X25.3656 Y5.1153
G01 X25.3603 Y5.1265
G01 X25.3540 Y5.1371
G01 X25.3466 Y5.1471
G01 X25.3383 Y5.1563
G01 X25.3291 Y5.1646
G01 X25.3191 Y5.1720
G01 X25.3085 Y5.1783
G01 X25.2973 Y5.1836
G01 X25.2856 Y5.1878
G01 X25.2736 Y5.1908
G01 X25.2614 Y5.1926
G01 X25.2490 Y5.1932
G00 Z2.0000
G00 X23.1186 Y1.7908
G01 F60.00
G01 Z-0.0000
G01 F120.00
G01 X23.1186 Y0.7613
G01 X23.1191 Y0.7502
G01 X23.1207 Y0.7392
G01 X23.1235 Y0.7283
G01 X23.1272 Y0.7179
G01 X23.1320 Y0.7078
G01 X23.1377 Y0.6982
G01 X23.1443 Y0.6893
G01 X23.1518 Y0.6810
G01 X23.1601 Y0.6735
G01 X23.1690 Y0.6669
G01 X23.1786 Y0.6612
G01 X23.1887 Y0.6564
G01 X23.1991 Y0.6527
G01 X23.2100 Y0.6499
G01 X23.2210 Y0.6483
G01 X23.2321 Y0.6478
G01 X23.2432 Y0.6483
G01 X23.2542 Y0.6499
G01 X23.2651 Y0.6527
G01 X23.2755 Y0.6564
G01 X23.2834 Y0.6601
G01 X23.2972 Y0.6683
G01 X23.3041 Y0.6735
G01 X23.3124 Y0.6810
G01 X23.3199 Y0.6893
G01 X23.3251 Y0.6962
G01 X23.3333 Y0.7100
G01 X23.3370 Y0.7179
G01 X23.3407 Y0.7283
G01 X23.3435 Y0.7392
G01 X23.3451 Y0.7502
G01 X23.3456 Y0.7613
G01 X23.3456 Y1.7908
G01 X23.5521 Y1.7908
G01 X23.5619 Y1.7915
G01 X23.5729 Y1.7932
G01 X23.5837 Y1.7960
G01 X23.5953 Y1.8004
G01 X23.6031 Y1.8042
G01 X23.6127 Y1.8099
G01 X23.6216 Y1.8165
G01 X23.6299 Y1.8240
G01 X23.6374 Y1.8323
G01 X23.6440 Y1.8412
G01 X23.6497 Y1.8508
G01 X23.6535 Y1.8586
G01 X23.6589 Y1.8737
G01 X23.6612 Y1.8834
G01 X23.6627 Y1.8944
G01 X23.6631 Y1.9043
G01 X23.6626 Y1.9154
G01 X23.6610 Y1.9264
G01 X23.6586 Y1.9361
G01 X23.6535 Y1.9500
G01 X23.6497 Y1.9578
G01 X23.6440 Y1.9674
G01 X23.6374 Y1.9763
G01 X23.6316 Y1.9828
G01 X23.6197 Y1.9936
G01 X23.6127 Y1.9987
G01 X23.6031 Y2.0044
G01 X23.5930 Y2.0092
G01 X23.5849 Y2.0122
G01 X23.5705 Y2.0159
G01 X23.5607 Y2.0173
G01 X23.5508 Y2.0178
G01 X22.9146 Y2.0178
G01 X22.9047 Y2.0174
G01 X22.8925 Y2.0157
G01 X22.8793 Y2.0122
G01 X22.8712 Y2.0092
G01 X22.8633 Y2.0055
G01 X22.8515 Y1.9987
G01 X22.8426 Y1.9921
G01 X22.8326 Y1.9828
G01 X22.8268 Y1.9763
G01 X22.8216 Y1.9694
G01 X22.8151 Y1.9589
G01 X22.8097 Y1.9477
G01 X22.8060 Y1.9373
G01 X22.8032 Y1.9264
G01 X22.8016 Y1.9154
G01 X22.8011 Y1.9043
G01 X22.8016 Y1.8932
G01 X22.8032 Y1.8822
G01 X22.8060 Y1.8713
G01 X22.8097 Y1.8609
G01 X22.8145 Y1.8508
G01 X22.8202 Y1.8412
G01 X22.8268 Y1.8323
G01 X22.8343 Y1.8240
G01 X22.8426 Y1.8165
G01 X22.8515 Y1.8099
G01 X22.8600 Y1.8048
G01 X22.8712 Y1.7994
G01 X22.8816 Y1.7957
G01 X22.8925 Y1.7929
G01 X22.9059 Y1.7911
G01 X22.9146 Y1.7908
G01 X23.1186 Y1.7908
G00 Z2.0000
G00 X21.6962 Y1.9043
G01 F60.00
G01 Z-0.0000
G01 F120.00
G01 X21.6962 Y1.0788
G01 X21.6965 Y1.0615
G01 X21.6982 Y1.0364
G01 X21.7005 Y1.0178
G01 X21.7051 Y0.9913
G01 X21.7095 Y0.9723
G01 X21.7165 Y0.9479
G01 X21.7230 Y0.9291
G01 X21.7338 Y0.9026
G01 X21.7393 Y0.8908
G01 X21.7463 Y0.8772
G01 X21.7545 Y0.8621
G01 X21.7630 Y0.8483
G01 X21.7775 Y0.8268
G01 X21.7889 Y0.8116
G01 X21.7987 Y0.7997
G01 X21.8177 Y0.7787
G01 X21.8300 Y0.7666
G01 X21.8507 Y0.7482
G01 X21.8723 Y0.7312
G01 X21.8856 Y0.7219
G01 X21.9006 Y0.7121
G01 X21.9232 Y0.6991
G01 X21.9392 Y0.6909
G01 X21.9540 Y0.6841
G01 X21.9775 Y0.6746
G01 X21.9963 Y0.6681
G01 X22.0207 Y0.6611
G01 X22.0388 Y0.6569
G01 X22.0546 Y0.6539
G01 X22.0808 Y0.6502
G01 X22.1099 Y0.6481
G01 X22.1261 Y0.6478
G01 X22.1445 Y0.6481
G01 X22.1696 Y0.6498
G01 X22.1889 Y0.6522
G01 X22.2147 Y0.6567
G01 X22.2305 Y0.6603
G01 X22.2475 Y0.6649
G01 X22.2726 Y0.6730
G01 X22.2879 Y0.6788
G01 X22.3042 Y0.6858
G01 X22.3283 Y0.6976
G01 X22.3416 Y0.7049
G01 X22.3538 Y0.7121
G01 X22.3688 Y0.7219
G01 X22.3910 Y0.7379
G01 X22.4063 Y0.7503
G01 X22.4252 Y0.7674
G01 X22.4394 Y0.7816
G01 X22.4578 Y0.8023
G01 X22.4754 Y0.8247
G01 X22.4914 Y0.8483
G01 X22.5013 Y0.8646
G01 X22.5135 Y0.8876
G01 X22.5219 Y0.9056
G01 X22.5327 Y0.9324
G01 X22.5411 Y0.9585
G01 X22.5459 Y0.9764
G01 X22.5491 Y0.9904
G01 X22.5519 Y1.0053
G01 X22.5541 Y1.0196
G01 X22.5562 Y1.0364
G01 X22.5579 Y1.0615
G01 X22.5582 Y1.0783
G01 X22.5582 Y1.9043
G01 X22.5577 Y1.9154
G01 X22.5555 Y1.9288
G01 X22.5533 Y1.9373
G01 X22.5505 Y1.9455
G01 X22.5448 Y1.9578
G01 X22.5391 Y1.9674
G01 X22.5340 Y1.9744
G01 X22.5250 Y1.9846
G01 X22.5167 Y1.9921
G01 X22.5098 Y1.9973
G01 X22.4982 Y2.0044
G01 X22.4859 Y2.0101
G01 X22.4777 Y2.0129
G01 X22.4668 Y2.0157
G01 X22.4534 Y2.0175
G01 X22.4447 Y2.0178
G01 X22.4360 Y2.0175
G01 X22.4214 Y2.0154
G01 X22.4117 Y2.0129
G01 X22.4035 Y2.0101
G01 X22.3912 Y2.0044
G01 X22.3796 Y1.9973
G01 X22.3727 Y1.9921
G01 X22.3653 Y1.9854
G01 X22.3562 Y1.9754
G01 X22.3503 Y1.9674
G01 X22.3458 Y1.9600
G01 X22.3394 Y1.9466
G01 X22.3361 Y1.9373
G01 X22.3333 Y1.9264
G01 X22.3317 Y1.9154
G01 X22.3312 Y1.9055
G01 X22.3312 Y1.0798
G01 X22.3310 Y1.0718
G01 X22.3300 Y1.0574
G01 X22.3280 Y1.0432
G01 X22.3252 Y1.0297
G01 X22.3189 Y1.0092
G01 X22.3106 Y0.9896
G01 X22.3038 Y0.9767
G01 X22.2962 Y0.9648
G01 X22.2880 Y0.9533
G01 X22.2735 Y0.9367
G01 X22.2638 Y0.9274
G01 X22.2527 Y0.9180
G01 X22.2350 Y0.9057
G01 X22.2229 Y0.8987
G01 X22.2103 Y0.8925
G01 X22.1968 Y0.8871
G01 X22.1763 Y0.8808
G01 X22.1628 Y0.8780
G01 X22.1486 Y0.8760
G01 X22.1416 Y0.8754
G01 X22.1272 Y0.8749
G01 X22.1058 Y0.8760
G01 X22.0847 Y0.8793
G01 X22.0710 Y0.8828
G01 X22.0576 Y0.8871
G01 X22.0380 Y0.8954
G01 X22.0194 Y0.9057
G01 X22.0071 Y0.9140
G01 X21.9965 Y0.9223
G01 X21.9809 Y0.9367
G01 X21.9664 Y0.9533
G01 X21.9539 Y0.9712
G01 X21.9506 Y0.9767
G01 X21.9438 Y0.9896
G01 X21.9380 Y1.0025
G01 X21.9333 Y1.0155
G01 X21.9277 Y1.0363
G01 X21.9244 Y1.0574
G01 X21.9234 Y1.0718
G01 X21.9232 Y1.0798
G01 X21.9232 Y1.9055
G01 X21.9227 Y1.9154
G01 X21.9211 Y1.9264
G01 X21.9183 Y1.9373
G01 X21.9141 Y1.9489
G01 X21.9098 Y1.9578
G01 X21.9041 Y1.9674
G01 X21.8975 Y1.9763
G01 X21.8917 Y1.9828
G01 X21.8798 Y1.9936
G01 X21.8728 Y1.9987
G01 X21.8632 Y2.0044
G01 X21.8531 Y2.0092
G01 X21.8450 Y2.0122
G01 X21.8294 Y2.0161
G01 X21.8208 Y2.0173
G01 X21.8097 Y2.0178
G01 X21.7986 Y2.0173
G01 X21.7876 Y2.0157
G01 X21.7767 Y2.0129
G01 X21.7663 Y2.0092
G01 X21.7562 Y2.0044
G01 X21.7487 Y2.0000
G01 X21.7358 Y1.9905
G01 X21.7294 Y1.9846
G01 X21.7219 Y1.9763
G01 X21.7153 Y1.9674
G01 X21.7096 Y1.9578
G01 X21.7048 Y1.9477
G01 X21.7018 Y1.9396
G01 X21.6979 Y1.9240
G01 X21.6967 Y1.9154
G01 X21.6962 Y1.9043
G00 Z2.0000
G00 X20.5151 Y1.5868
G01 F60.00
G01 Z-0.0000
G01 F120.00
G01 X20.5151 Y1.0788
G01 X20.5154 Y1.0624
G01 X20.5162 Y1.0482
G01 X20.5172 Y1.0353
G01 X20.5191 Y1.0203
G01 X20.5214 Y1.0053
G01 X20.5242 Y0.9904
G01 X20.5276 Y0.9755
G01 X20.5315 Y0.9609
G01 X20.5357 Y0.9470
G01 X20.5406 Y0.9324
G01 X20.5517 Y0.9048
G01 X20.5582 Y0.8908
G01 X20.5652 Y0.8772
G01 X20.5720 Y0.8646
G01 X20.5802 Y0.8510
G01 X20.5979 Y0.8247
G01 X20.6155 Y0.8023
G01 X20.6339 Y0.7816
G01 X20.6460 Y0.7693
G01 X20.6670 Y0.7503
G01 X20.6789 Y0.7405
G01 X20.6941 Y0.7291
G01 X20.7156 Y0.7146
G01 X20.7298 Y0.7060
G01 X20.7444 Y0.6979
G01 X20.7590 Y0.6905
G01 X20.7838 Y0.6795
G01 X20.8007 Y0.6730
G01 X20.8258 Y0.6649
G01 X20.8428 Y0.6603
G01 X20.8586 Y0.6567
G01 X20.8844 Y0.6522
G01 X20.9037 Y0.6498
G01 X20.9288 Y0.6481
G01 X20.9472 Y0.6478
G01 X20.9634 Y0.6481
G01 X20.9925 Y0.6502
G01 X21.0187 Y0.6539
G01 X21.0345 Y0.6569
G01 X21.0526 Y0.6611
G01 X21.0770 Y0.6681
G01 X21.0958 Y0.6746
G01 X21.1193 Y0.6841
G01 X21.1341 Y0.6909
G01 X21.1501 Y0.6991
G01 X21.1727 Y0.7121
G01 X21.1877 Y0.7219
G01 X21.2010 Y0.7312
G01 X21.2226 Y0.7482
G01 X21.2433 Y0.7666
G01 X21.2556 Y0.7787
G01 X21.2746 Y0.7997
G01 X21.2849 Y0.8124
G01 X21.2963 Y0.8276
G01 X21.3120 Y0.8510
G01 X21.3207 Y0.8656
G01 X21.3329 Y0.8885
G01 X21.3408 Y0.9056
G01 X21.3507 Y0.9300
G01 X21.3568 Y0.9479
G01 X21.3640 Y0.9732
G01 X21.3682 Y0.9913
G01 X21.3728 Y1.0178
G01 X21.3751 Y1.0364
G01 X21.3768 Y1.0615
G01 X21.3771 Y1.0788
G01 X21.3771 Y1.5868
G01 X21.3762 Y1.6151
G01 X21.3745 Y1.6343
G01 X21.3704 Y1.6625
G01 X21.3675 Y1.6775
G01 X21.3638 Y1.6933
G01 X21.3568 Y1.7177
G01 X21.3519 Y1.7322
G01 X21.3408 Y1.7600
G01 X21.3340 Y1.7748
G01 X21.3270 Y1.7884
G01 X21.3202 Y1.8010
G01 X21.3120 Y1.8146
G01 X21.2943 Y1.8409
G01 X21.2767 Y1.8633
G01 X21.2548 Y1.8877
G01 X21.2433 Y1.8990
G01 X21.2252 Y1.9153
G01 X21.2125 Y1.9256
G01 X21.2002 Y1.9350
G01 X21.1739 Y1.9527
G01 X21.1603 Y1.9609
G01 X21.1477 Y1.9677
G01 X21.1341 Y1.9747
G01 X21.1193 Y1.9815
G01 X21.0915 Y1.9926
G01 X21.0770 Y1.9975
G01 X21.0526 Y2.0045
G01 X21.0368 Y2.0082
G01 X21.0218 Y2.0111
G01 X20.9925 Y2.0154
G01 X20.9767 Y2.0167
G01 X20.9602 Y2.0176
G01 X20.9450 Y2.0178
G01 X20.9288 Y2.0175
G01 X20.8986 Y2.0152
G01 X20.8735 Y2.0117
G01 X20.8586 Y2.0089
G01 X20.8428 Y2.0053
G01 X20.8282 Y2.0014
G01 X20.8143 Y1.9972
G01 X20.7997 Y1.9923
G01 X20.7854 Y1.9868
G01 X20.7699 Y1.9802
G01 X20.7558 Y1.9736
G01 X20.7421 Y1.9665
G01 X20.7298 Y1.9596
G01 X20.7156 Y1.9510
G01 X20.6949 Y1.9370
G01 X20.6823 Y1.9277
G01 X20.6696 Y1.9174
G01 X20.6584 Y1.9076
G01 X20.6481 Y1.8982
G01 X20.6366 Y1.8869
G01 X20.6155 Y1.8633
G01 X20.6058 Y1.8513
G01 X20.5959 Y1.8380
G01 X20.5794 Y1.8134
G01 X20.5717 Y1.8004
G01 X20.5598 Y1.7780
G01 X20.5527 Y1.7630
G01 X20.5468 Y1.7491
G01 X20.5406 Y1.7332
G01 X20.5357 Y1.7186
G01 X20.5276 Y1.6901
G01 X20.5242 Y1.6752
G01 X20.5212 Y1.6594
G01 X20.5171 Y1.6292
G01 X20.5154 Y1.6041
G01 X20.5151 Y1.5868
G00 Z2.0000
G00 X20.7421 Y1.0798
G01 F60.00
G01 Z-0.0000
G01 F120.00
G01 X20.7423 Y1.0718
G01 X20.7433 Y1.0574
G01 X20.7453 Y1.0432
G01 X20.7481 Y1.0297
G01 X20.7522 Y1.0155
G01 X20.7544 Y1.0092
G01 X20.7598 Y0.9957
G01 X20.7661 Y0.9829
G01 X20.7728 Y0.9712
G01 X20.7853 Y0.9533
G01 X20.7998 Y0.9367
G01 X20.8095 Y0.9274
G01 X20.8206 Y0.9180
G01 X20.8383 Y0.9057
G01 X20.8569 Y0.8954
G01 X20.8698 Y0.8896
G01 X20.8828 Y0.8849
G01 X20.9036 Y0.8793
G01 X20.9247 Y0.8760
G01 X20.9391 Y0.8750
G01 X20.9531 Y0.8750
G01 X20.9675 Y0.8760
G01 X20.9744 Y0.8768
G01 X20.9886 Y0.8793
G01 X21.0094 Y0.8849
G01 X21.0157 Y0.8871
G01 X21.0292 Y0.8925
G01 X21.0418 Y0.8987
G01 X21.0539 Y0.9057
G01 X21.0716 Y0.9180
G01 X21.0882 Y0.9325
G01 X21.0975 Y0.9422
G01 X21.1069 Y0.9533
G01 X21.1194 Y0.9712
G01 X21.1227 Y0.9767
G01 X21.1295 Y0.9896
G01 X21.1353 Y1.0025
G01 X21.1400 Y1.0155
G01 X21.1456 Y1.0363
G01 X21.1489 Y1.0574
G01 X21.1499 Y1.0718
G01 X21.1501 Y1.5858
G01 X21.1495 Y1.6012
G01 X21.1481 Y1.6151
G01 X21.1456 Y1.6293
G01 X21.1421 Y1.6430
G01 X21.1378 Y1.6564
G01 X21.1324 Y1.6699
G01 X21.1227 Y1.6889
G01 X21.1151 Y1.7008
G01 X21.1069 Y1.7123
G01 X21.0975 Y1.7234
G01 X21.0882 Y1.7331
G01 X21.0716 Y1.7476
G01 X21.0601 Y1.7558
G01 X21.0482 Y1.7634
G01 X21.0353 Y1.7702
G01 X21.0224 Y1.7760
G01 X21.0094 Y1.7807
G01 X20.9886 Y1.7863
G01 X20.9675 Y1.7896
G01 X20.9461 Y1.7907
G01 X20.9247 Y1.7896
G01 X20.9036 Y1.7863
G01 X20.8828 Y1.7807
G01 X20.8765 Y1.7785
G01 X20.8630 Y1.7731
G01 X20.8569 Y1.7702
G01 X20.8441 Y1.7634
G01 X20.8260 Y1.7516
G01 X20.8154 Y1.7433
G01 X20.7998 Y1.7289
G01 X20.7853 Y1.7123
G01 X20.7730 Y1.6946
G01 X20.7627 Y1.6760
G01 X20.7569 Y1.6631
G01 X20.7522 Y1.6501
G01 X20.7466 Y1.6293
G01 X20.7433 Y1.6082
G01 X20.7423 Y1.5938
G01 X20.7421 Y1.0798
G00 Z2.0000
G00 X20.1714 Y0.7478
G01 F60.00
G01 Z-0.0000
G01 F120.00
G01 X19.6634 Y0.7478
G01 X19.6523 Y0.7473
G01 X19.6401 Y0.7454
G01 X19.6304 Y0.7429
G01 X19.6200 Y0.7392
G01 X19.6099 Y0.7344
G01 X19.6003 Y0.7287
G01 X19.5914 Y0.7221
G01 X19.5831 Y0.7146
G01 X19.5756 Y0.7063
G01 X19.5690 Y0.6974
G01 X19.5633 Y0.6878
G01 X19.5585 Y0.6777
G01 X19.5548 Y0.6673
G01 X19.5520 Y0.6564
G01 X19.5504 Y0.6454
G01 X19.5499 Y0.6343
G01 X19.5504 Y0.6232
G01 X19.5523 Y0.6110
G01 X19.5548 Y0.6013
G01 X19.5576 Y0.5931
G01 X19.5639 Y0.5797
G01 X19.5690 Y0.5712
G01 X19.5749 Y0.5632
G01 X19.5849 Y0.5523
G01 X19.5914 Y0.5465
G01 X19.6003 Y0.5399
G01 X19.6099 Y0.5342
G01 X19.6177 Y0.5304
G01 X19.6316 Y0.5253
G01 X19.6413 Y0.5229
G01 X19.6498 Y0.5216
G01 X19.6634 Y0.5208
G01 X20.1714 Y0.5208
G01 X20.1825 Y0.5213
G01 X20.1947 Y0.5232
G01 X20.2044 Y0.5257
G01 X20.2148 Y0.5294
G01 X20.2249 Y0.5342
G01 X20.2345 Y0.5399
G01 X20.2434 Y0.5465
G01 X20.2517 Y0.5540
G01 X20.2592 Y0.5623
G01 X20.2644 Y0.5692
G01 X20.2726 Y0.5830
G01 X20.2767 Y0.5920
G01 X20.2807 Y0.6037
G01 X20.2828 Y0.6122
G01 X20.2844 Y0.6232
G01 X20.2849 Y0.6343
G01 X20.2844 Y0.6454
G01 X20.2828 Y0.6564
G01 X20.2800 Y0.6673
G01 X20.2763 Y0.6777
G01 X20.2715 Y0.6878
G01 X20.2658 Y0.6974
G01 X20.2592 Y0.7063
G01 X20.2517 Y0.7146
G01 X20.2453 Y0.7205
G01 X20.2355 Y0.7280
G01 X20.2271 Y0.7332
G01 X20.2126 Y0.7401
G01 X20.2044 Y0.7429
G01 X20.1935 Y0.7457
G01 X20.1825 Y0.7473
G01 X20.1714 Y0.7478
G00 Z2.0000
G00 X18.8887 Y1.1203
G01 F60.00
G01 Z-0.0000
G01 F120.00
G01 X18.6154 Y1.9402
G01 X18.6114 Y1.9506
G01 X18.6063 Y1.9605
G01 X18.6003 Y1.9699
G01 X18.5950 Y1.9768
G01 X18.5858 Y1.9867
G01 X18.5753 Y1.9954
G01 X18.5682 Y2.0004
G01 X18.5606 Y2.0047
G01 X18.5483 Y2.0103
G01 X18.5353 Y2.0144
G01 X18.5268 Y2.0162
G01 X18.5182 Y2.0173
G01 X18.5046 Y2.0178
G01 X18.4911 Y2.0166
G01 X18.4825 Y2.0150
G01 X18.4718 Y2.0120
G01 X18.4592 Y2.0069
G01 X18.4515 Y2.0029
G01 X18.4441 Y1.9983
G01 X18.4333 Y1.9901
G01 X18.4236 Y1.9805
G01 X18.4180 Y1.9739
G01 X18.4123 Y1.9658
G01 X18.4056 Y1.9540
G01 X18.4017 Y1.9449
G01 X18.3982 Y1.9343
G01 X18.3958 Y1.9234
G01 X18.3945 Y1.9123
G01 X18.3942 Y1.9012
G01 X18.3951 Y1.8901
G01 X18.3970 Y1.8791
G01 X18.3996 Y1.8696
G01 X18.7814 Y0.7242
G01 X18.7851 Y0.7148
G01 X18.7897 Y0.7058
G01 X18.7979 Y0.6932
G01 X18.8035 Y0.6863
G01 X18.8114 Y0.6782
G01 X18.8200 Y0.6709
G01 X18.8273 Y0.6658
G01 X18.8416 Y0.6580
G01 X18.8498 Y0.6546
G01 X18.8606 Y0.6513
G01 X18.8717 Y0.6490
G01 X18.8805 Y0.6481
G01 X18.8944 Y0.6479
G01 X18.9057 Y0.6490
G01 X18.9143 Y0.6507
G01 X18.9276 Y0.6546
G01 X18.9403 Y0.6602
G01 X18.9480 Y0.6645
G01 X18.9553 Y0.6694
G01 X18.9660 Y0.6782
G01 X18.9755 Y0.6882
G01 X18.9810 Y0.6952
G01 X18.9865 Y0.7037
G01 X18.9933 Y0.7171
G01 X18.9964 Y0.7254
G01 X19.3778 Y1.8696
G01 X19.3804 Y1.8791
G01 X19.3823 Y1.8901
G01 X19.3832 Y1.9012
G01 X19.3830 Y1.9111
G01 X19.3818 Y1.9222
G01 X19.3798 Y1.9319
G01 X19.3748 Y1.9471
G01 X19.3712 Y1.9551
G01 X19.3658 Y1.9648
G01 X19.3594 Y1.9739
G01 X19.3521 Y1.9824
G01 X19.3441 Y1.9901
G01 X19.3353 Y1.9969
G01 X19.3259 Y2.0029
G01 X19.3171 Y2.0075
G01 X19.3056 Y2.0120
G01 X19.2949 Y2.0150
G01 X19.2839 Y2.0169
G01 X19.2728 Y2.0178
G01 X19.2617 Y2.0175
G01 X19.2506 Y2.0162
G01 X19.2397 Y2.0138
G01 X19.2291 Y2.0103
G01 X19.2189 Y2.0058
G01 X19.2092 Y2.0004
G01 X19.2001 Y1.9940
G01 X19.1916 Y1.9867
G01 X19.1839 Y1.9787
G01 X19.1771 Y1.9699
G01 X19.1711 Y1.9605
G01 X19.1665 Y1.9517
G01 X19.1620 Y1.9402
G01 X18.8887 Y1.1203
G00 Z2.0000
G00 X20.2450 Y5.1932
G01 F60.00
G01 Z-0.0000
G01 F120.00
G01 X17.0165 Y5.1932
G01 X17.0054 Y5.1925
G01 X16.9932 Y5.1906
G01 X16.9824 Y5.1878
G01 X16.9696 Y5.1831
G01 X16.9595 Y5.1783
G01 X16.9489 Y5.1720
G01 X16.9389 Y5.1646
G01 X16.9289 Y5.1554
G01 X16.9214 Y5.1471
G01 X16.9140 Y5.1371
G01 X16.9077 Y5.1265
G01 X16.9019 Y5.1142
G01 X16.8982 Y5.1036
G01 X16.8950 Y5.0904
G01 X16.8933 Y5.0782
G01 X16.8928 Y5.0645
G01 X16.8934 Y5.0546
G01 X16.8952 Y5.0424
G01 X16.8982 Y5.0304
G01 X16.9024 Y5.0187
G01 X16.9077 Y5.0075
G01 X16.9140 Y4.9969
G01 X16.9214 Y4.9869
G01 X16.9297 Y4.9777
G01 X16.9389 Y4.9694
G01 X16.9489 Y4.9620
G01 X16.9595 Y4.9557
G01 X16.9707 Y4.9504
G01 X16.9824 Y4.9462
G01 X16.9944 Y4.9432
G01 X17.0066 Y4.9414
G01 X17.0165 Y4.9408
G01 X20.2475 Y4.9408
G01 X20.2574 Y4.9414
G01 X20.2696 Y4.9432
G01 X20.2816 Y4.9462
G01 X20.2933 Y4.9504
G01 X20.3045 Y4.9557
G01 X20.3151 Y4.9620
G01 X20.3251 Y4.9694
G01 X20.3343 Y4.9777
G01 X20.3426 Y4.9869
G01 X20.3500 Y4.9969
G01 X20.3563 Y5.0075
G01 X20.3616 Y5.0187
G01 X20.3658 Y5.0304
G01 X20.3688 Y5.0424
G01 X20.3706 Y5.0546
G01 X20.3712 Y5.0670
G01 X20.3706 Y5.0794
G01 X20.3688 Y5.0916
G01 X20.3658 Y5.1036
G01 X20.3616 Y5.1153
G01 X20.3563 Y5.1265
G01 X20.3500 Y5.1371
G01 X20.3426 Y5.1471
G01 X20.3343 Y5.1563
G01 X20.3251 Y5.1646
G01 X20.3151 Y5.1720
G01 X20.3045 Y5.1783
G01 X20.2933 Y5.1836
G01 X20.2816 Y5.1878
G01 X20.2696 Y5.1908
G01 X20.2574 Y5.1926
G01 X20.2450 Y5.1932
G00 Z2.0000
G00 X13.7672 Y4.9408
G01 F60.00
G01 Z-0.0000
G01 F120.00
G01 X13.7672 Y2.8052
G01 X28.5008 Y2.8052
G01 X28.5008 Y4.9408
G01 X27.0270 Y4.9408
G01 X27.0158 Y4.9413
G01 X27.0024 Y4.9432
G01 X26.9915 Y4.9459
G01 X26.9798 Y4.9499
G01 X26.9697 Y4.9546
G01 X26.9549 Y4.9635
G01 X26.9460 Y4.9702
G01 X26.9360 Y4.9795
G01 X26.9294 Y4.9869
G01 X26.9220 Y4.9969
G01 X26.9157 Y5.0075
G01 X26.9104 Y5.0187
G01 X26.9062 Y5.0304
G01 X26.9032 Y5.0424
G01 X26.9014 Y5.0546
G01 X26.9008 Y5.0670
G01 X26.9014 Y5.0794
G01 X26.9032 Y5.0916
G01 X26.9062 Y5.1036
G01 X26.9104 Y5.1153
G01 X26.9157 Y5.1265
G01 X26.9220 Y5.1371
G01 X26.9294 Y5.1471
G01 X26.9360 Y5.1545
G01 X26.9460 Y5.1638
G01 X26.9549 Y5.1705
G01 X26.9697 Y5.1794
G01 X26.9798 Y5.1841
G01 X26.9915 Y5.1881
G01 X27.0024 Y5.1908
G01 X27.0158 Y5.1927
G01 X27.0270 Y5.1932
G01 X28.5008 Y5.1932
G01 X28.5008 Y11.5448
G01 X13.7672 Y11.5448
G01 X13.7672 Y5.1932
G01 X15.2410 Y5.1932
G01 X15.2522 Y5.1927
G01 X15.2656 Y5.1908
G01 X15.2765 Y5.1881
G01 X15.2882 Y5.1841
G01 X15.2983 Y5.1794
G01 X15.3101 Y5.1726
G01 X15.3191 Y5.1661
G01 X15.3320 Y5.1545
G01 X15.3386 Y5.1471
G01 X15.3460 Y5.1371
G01 X15.3523 Y5.1265
G01 X15.3576 Y5.1153
G01 X15.3618 Y5.1036
G01 X15.3648 Y5.0916
G01 X15.3666 Y5.0794
G01 X15.3672 Y5.0670
G01 X15.3666 Y5.0546
G01 X15.3648 Y5.0424
G01 X15.3618 Y5.0304
G01 X15.3576 Y5.0187
G01 X15.3523 Y5.0075
G01 X15.3460 Y4.9969
G01 X15.3386 Y4.9869
G01 X15.3320 Y4.9795
G01 X15.3220 Y4.9702
G01 X15.3131 Y4.9635
G01 X15.2983 Y4.9546
G01 X15.2882 Y4.9499
G01 X15.2765 Y4.9459
G01 X15.2656 Y4.9432
G01 X15.2522 Y4.9413
G01 X15.2410 Y4.9408
G01 X13.7672 Y4.9408
G00 Z2.0000
G00 X12.5440 Y17.6973
G01 F60.00
G01 Z-0.0000
G01 F120.00
G01 X12.5440 Y17.9513
G01 X12.5435 Y17.9624
G01 X12.5413 Y17.9758
G01 X12.5391 Y17.9843
G01 X12.5363 Y17.9925
G01 X12.5306 Y18.0048
G01 X12.5235 Y18.0164
G01 X12.5183 Y18.0233
G01 X12.5108 Y18.0316
G01 X12.5006 Y18.0406
G01 X12.4936 Y18.0457
G01 X12.4840 Y18.0514
G01 X12.4739 Y18.0562
G01 X12.4658 Y18.0592
G01 X12.4526 Y18.0627
G01 X12.4392 Y18.0645
G01 X12.4305 Y18.0648
G01 X12.4194 Y18.0643
G01 X12.4084 Y18.0627
G01 X12.3999 Y18.0606
G01 X12.3848 Y18.0552
G01 X12.3770 Y18.0514
G01 X12.3674 Y18.0457
G01 X12.3585 Y18.0391
G01 X12.3520 Y18.0333
G01 X12.3412 Y18.0214
G01 X12.3361 Y18.0144
G01 X12.3304 Y18.0048
G01 X12.3256 Y17.9947
G01 X12.3219 Y17.9843
G01 X12.3191 Y17.9734
G01 X12.3173 Y17.9600
G01 X12.3170 Y17.9513
G01 X12.3168 Y17.6919
G01 X12.3152 Y17.6752
G01 X12.3130 Y17.6643
G01 X12.3101 Y17.6540
G01 X12.3062 Y17.6435
G01 X12.3017 Y17.6337
G01 X12.2962 Y17.6239
G01 X12.2901 Y17.6148
G01 X12.2833 Y17.6061
G01 X12.2758 Y17.5980
G01 X12.2633 Y17.5869
G01 X12.2499 Y17.5776
G01 X12.2401 Y17.5721
G01 X12.2303 Y17.5676
G01 X12.2198 Y17.5637
G01 X12.2095 Y17.5608
G01 X12.1986 Y17.5586
G01 X12.1873 Y17.5573
G01 X12.1754 Y17.5568
G01 X11.5426 Y17.5568
G01 X11.5307 Y17.5573
G01 X11.5141 Y17.5596
G01 X11.4982 Y17.5637
G01 X11.4877 Y17.5676
G01 X11.4727 Y17.5749
G01 X11.4590 Y17.5837
G01 X11.4462 Y17.5942
G01 X11.4347 Y17.6061
G01 X11.4247 Y17.6193
G01 X11.4163 Y17.6337
G01 X11.4097 Y17.6487
G01 X11.4050 Y17.6643
G01 X11.4021 Y17.6805
G01 X11.4012 Y17.6919
G01 X11.4010 Y17.6984
G01 X11.4010 Y17.9513
G01 X11.4006 Y17.9612
G01 X11.3983 Y17.9758
G01 X11.3961 Y17.9843
G01 X11.3924 Y17.9947
G01 X11.3864 Y18.0070
G01 X11.3819 Y18.0144
G01 X11.3760 Y18.0224
G01 X11.3660 Y18.0333
G01 X11.3595 Y18.0391
G01 X11.3516 Y18.0450
G01 X11.3399 Y18.0520
G01 X11.3309 Y18.0562
G01 X11.3228 Y18.0592
G01 X11.3096 Y18.0627
G01 X11.2962 Y18.0645
G01 X11.2875 Y18.0648
G01 X11.2776 Y18.0644
G01 X11.2630 Y18.0621
G01 X11.2545 Y18.0599
G01 X11.2463 Y18.0571
G01 X11.2340 Y18.0514
G01 X11.2244 Y18.0457
G01 X11.2174 Y18.0406
G01 X11.2072 Y18.0316
G01 X11.1982 Y18.0214
G01 X11.1931 Y18.0144
G01 X11.1874 Y18.0048
G01 X11.1817 Y17.9925
G01 X11.1789 Y17.9843
G01 X11.1761 Y17.9734
G01 X11.1745 Y17.9624
G01 X11.1740 Y17.9513
G01 X11.1740 Y17.6973
G01 X11.1742 Y17.6840
G01 X11.1750 Y17.6696
G01 X11.1767 Y17.6533
G01 X11.1787 Y17.6385
G01 X11.1813 Y17.6245
G01 X11.1846 Y17.6094
G01 X11.1880 Y17.5965
G01 X11.1928 Y17.5812
G01 X11.2009 Y17.5591
G01 X11.2073 Y17.5444
G01 X11.2151 Y17.5285
G01 X11.2273 Y17.5066
G01 X11.2371 Y17.4914
G01 X11.2522 Y17.4707
G01 X11.2637 Y17.4567
G01 X11.2807 Y17.4384
G01 X11.2935 Y17.4261
G01 X11.3130 Y17.4094
G01 X11.3274 Y17.3986
G01 X11.3484 Y17.3846
G01 X11.3639 Y17.3756
G01 X11.3863 Y17.3642
G01 X11.4033 Y17.3567
G01 X11.4264 Y17.3482
G01 X11.4440 Y17.3429
G01 X11.4687 Y17.3371
G01 X11.4857 Y17.3340
G01 X11.5003 Y17.3321
G01 X11.5246 Y17.3302
G01 X11.5397 Y17.3298
G01 X12.1783 Y17.3298
G01 X12.1924 Y17.3301
G01 X12.2067 Y17.3310
G01 X12.2205 Y17.3325
G01 X12.2353 Y17.3345
G01 X12.2493 Y17.3371
G01 X12.2634 Y17.3402
G01 X12.2773 Y17.3438
G01 X12.2916 Y17.3482
G01 X12.3184 Y17.3582
G01 X12.3317 Y17.3642
G01 X12.3445 Y17.3704
G01 X12.3569 Y17.3771
G01 X12.3696 Y17.3846
G01 X12.3817 Y17.3924
G01 X12.3936 Y17.4008
G01 X12.4050 Y17.4094
G01 X12.4163 Y17.4188
G01 X12.4268 Y17.4282
G01 X12.4373 Y17.4384
G01 X12.4471 Y17.4487
G01 X12.4567 Y17.4595
G01 X12.4658 Y17.4707
G01 X12.4746 Y17.4823
G01 X12.4827 Y17.4941
G01 X12.4907 Y17.5066
G01 X12.4978 Y17.5189
G01 X12.5044 Y17.5313
G01 X12.5107 Y17.5444
G01 X12.5167 Y17.5581
G01 X12.5264 Y17.5849
G01 X12.5306 Y17.5989
G01 X12.5342 Y17.6130
G01 X12.5371 Y17.6266
G01 X12.5398 Y17.6415
G01 X12.5430 Y17.6696
G01 X12.5438 Y17.6840
G01 X12.5440 Y17.6973
G00 Z2.0000
G00 X12.1130 Y18.5131
G01 F60.00
G01 Z-0.0000
G01 F120.00
G01 X12.1344 Y18.5142
G01 X12.1555 Y18.5175
G01 X12.1763 Y18.5231
G01 X12.1826 Y18.5253
G01 X12.1961 Y18.5307
G01 X12.2022 Y18.5336
G01 X12.2150 Y18.5404
G01 X12.2331 Y18.5522
G01 X12.2437 Y18.5605
G01 X12.2593 Y18.5749
G01 X12.2738 Y18.5915
G01 X12.2863 Y18.6094
G01 X12.2896 Y18.6149
G01 X12.2964 Y18.6278
G01 X12.3022 Y18.6407
G01 X12.3069 Y18.6537
G01 X12.3125 Y18.6745
G01 X12.3158 Y18.6956
G01 X12.3169 Y18.7170
G01 X12.3158 Y18.7384
G01 X12.3125 Y18.7595
G01 X12.3069 Y18.7803
G01 X12.3047 Y18.7866
G01 X12.2993 Y18.8001
G01 X12.2964 Y18.8062
G01 X12.2896 Y18.8190
G01 X12.2778 Y18.8371
G01 X12.2695 Y18.8477
G01 X12.2551 Y18.8633
G01 X12.2385 Y18.8778
G01 X12.2206 Y18.8903
G01 X12.2151 Y18.8936
G01 X12.2022 Y18.9004
G01 X12.1893 Y18.9062
G01 X12.1763 Y18.9109
G01 X12.1555 Y18.9165
G01 X12.1344 Y18.9198
G01 X12.1130 Y18.9209
G01 X12.0916 Y18.9198
G01 X12.0705 Y18.9165
G01 X12.0497 Y18.9109
G01 X12.0434 Y18.9087
G01 X12.0299 Y18.9033
G01 X12.0238 Y18.9004
G01 X12.0110 Y18.8936
G01 X11.9929 Y18.8818
G01 X11.9823 Y18.8735
G01 X11.9667 Y18.8591
G01 X11.9522 Y18.8425
G01 X11.9397 Y18.8246
G01 X11.9364 Y18.8191
G01 X11.9296 Y18.8062
G01 X11.9238 Y18.7933
G01 X11.9191 Y18.7803
G01 X11.9135 Y18.7595
G01 X11.9102 Y18.7384
G01 X11.9091 Y18.7170
G01 X11.9102 Y18.6956
G01 X11.9135 Y18.6745
G01 X11.9191 Y18.6537
G01 X11.9213 Y18.6474
G01 X11.9267 Y18.6339
G01 X11.9296 Y18.6278
G01 X11.9364 Y18.6150
G01 X11.9482 Y18.5969
G01 X11.9565 Y18.5863
G01 X11.9709 Y18.5707
G01 X11.9875 Y18.5562
G01 X12.0052 Y18.5439
G01 X12.0238 Y18.5336
G01 X12.0367 Y18.5278
G01 X12.0497 Y18.5231
G01 X12.0705 Y18.5175
G01 X12.0916 Y18.5142
G01 X12.1130 Y18.5131
G00 Z2.0000
G00 X11.5415 Y18.5766
G01 F60.00
G01 Z-0.0000
G01 F120.00
G01 X11.5523 Y18.5770
G01 X11.5689 Y18.5793
G01 X11.5848 Y18.5834
G01 X11.5953 Y18.5873
G01 X11.6103 Y18.5946
G01 X11.6195 Y18.6002
G01 X11.6327 Y18.6102
G01 X11.6408 Y18.6177
G01 X11.6483 Y18.6258
G01 X11.6583 Y18.6390
G01 X11.6639 Y18.6482
G01 X11.6712 Y18.6632
G01 X11.6751 Y18.6737
G01 X11.6792 Y18.6896
G01 X11.6815 Y18.7062
G01 X11.6819 Y18.7170
G01 X11.6815 Y18.7278
G01 X11.6792 Y18.7444
G01 X11.6751 Y18.7603
G01 X11.6712 Y18.7708
G01 X11.6639 Y18.7858
G01 X11.6583 Y18.7950
G01 X11.6483 Y18.8082
G01 X11.6408 Y18.8163
G01 X11.6327 Y18.8238
G01 X11.6195 Y18.8338
G01 X11.6103 Y18.8394
G01 X11.5953 Y18.8467
G01 X11.5848 Y18.8506
G01 X11.5689 Y18.8547
G01 X11.5523 Y18.8570
G01 X11.5415 Y18.8574
G01 X11.5307 Y18.8570
G01 X11.5141 Y18.8547
G01 X11.4982 Y18.8506
G01 X11.4877 Y18.8467
G01 X11.4727 Y18.8394
G01 X11.4635 Y18.8338
G01 X11.4503 Y18.8238
G01 X11.4422 Y18.8163
G01 X11.4347 Y18.8082
G01 X11.4247 Y18.7950
G01 X11.4191 Y18.7858
G01 X11.4118 Y18.7708
G01 X11.4079 Y18.7603
G01 X11.4038 Y18.7444
G01 X11.4015 Y18.7278
G01 X11.4011 Y18.7170
G01 X11.4015 Y18.7062
G01 X11.4038 Y18.6896
G01 X11.4079 Y18.6737
G01 X11.4118 Y18.6632
G01 X11.4191 Y18.6482
G01 X11.4247 Y18.6390
G01 X11.4347 Y18.6258
G01 X11.4422 Y18.6177
G01 X11.4503 Y18.6102
G01 X11.4635 Y18.6002
G01 X11.4727 Y18.5946
G01 X11.4877 Y18.5873
G01 X11.4982 Y18.5834
G01 X11.5141 Y18.5793
G01 X11.5307 Y18.5770
G01 X11.5415 Y18.5766
G00 Z2.0000
G00 X11.5292 Y18.3497
G01 F60.00
G01 Z-0.0000
G01 F120.00
G01 X11.5538 Y18.3497
G01 X11.5683 Y18.3505
G01 X11.5835 Y18.3519
G01 X11.6003 Y18.3542
G01 X11.6248 Y18.3590
G01 X11.6390 Y18.3626
G01 X11.6539 Y18.3671
G01 X11.6670 Y18.3716
G01 X11.6834 Y18.3779
G01 X11.6977 Y18.3843
G01 X11.7191 Y18.3953
G01 X11.7313 Y18.4023
G01 X11.7447 Y18.4108
G01 X11.7586 Y18.4205
G01 X11.7700 Y18.4291
G01 X11.7829 Y18.4399
G01 X11.8008 Y18.4198
G01 X11.8121 Y18.4083
G01 X11.8365 Y18.3864
G01 X11.8485 Y18.3767
G01 X11.8618 Y18.3668
G01 X11.8825 Y18.3528
G01 X11.8986 Y18.3431
G01 X11.9218 Y18.3307
G01 X11.9360 Y18.3240
G01 X11.9507 Y18.3177
G01 X11.9666 Y18.3115
G01 X11.9821 Y18.3063
G01 X12.0065 Y18.2993
G01 X12.0223 Y18.2956
G01 X12.0404 Y18.2921
G01 X12.0706 Y18.2880
G01 X12.0957 Y18.2863
G01 X12.1150 Y18.2860
G01 X12.1413 Y18.2869
G01 X12.1594 Y18.2884
G01 X12.1856 Y18.2921
G01 X12.2005 Y18.2949
G01 X12.2195 Y18.2993
G01 X12.2439 Y18.3063
G01 X12.2594 Y18.3115
G01 X12.2737 Y18.3170
G01 X12.2892 Y18.3236
G01 X12.3042 Y18.3307
G01 X12.3266 Y18.3426
G01 X12.3426 Y18.3522
G01 X12.3642 Y18.3668
G01 X12.3775 Y18.3767
G01 X12.3921 Y18.3885
G01 X12.4110 Y18.4056
G01 X12.4244 Y18.4190
G01 X12.4415 Y18.4379
G01 X12.4533 Y18.4525
G01 X12.4632 Y18.4658
G01 X12.4772 Y18.4865
G01 X12.4871 Y18.5028
G01 X12.4993 Y18.5258
G01 X12.5064 Y18.5408
G01 X12.5172 Y18.5673
G01 X12.5227 Y18.5830
G01 X12.5278 Y18.5998
G01 X12.5342 Y18.6254
G01 X12.5379 Y18.6444
G01 X12.5414 Y18.6695
G01 X12.5429 Y18.6864
G01 X12.5438 Y18.7039
G01 X12.5438 Y18.7301
G01 X12.5429 Y18.7476
G01 X12.5414 Y18.7645
G01 X12.5373 Y18.7927
G01 X12.5342 Y18.8086
G01 X12.5278 Y18.8342
G01 X12.5227 Y18.8510
G01 X12.5172 Y18.8667
G01 X12.5077 Y18.8902
G01 X12.4998 Y18.9073
G01 X12.4874 Y18.9306
G01 X12.4778 Y18.9466
G01 X12.4632 Y18.9682
G01 X12.4513 Y18.9842
G01 X12.4330 Y19.0057
G01 X12.4225 Y19.0171
G01 X12.4131 Y19.0265
G01 X12.3921 Y19.0455
G01 X12.3768 Y19.0579
G01 X12.3546 Y19.0739
G01 X12.3307 Y19.0891
G01 X12.3042 Y19.1033
G01 X12.2892 Y19.1104
G01 X12.2627 Y19.1212
G01 X12.2439 Y19.1277
G01 X12.2163 Y19.1355
G01 X12.1896 Y19.1412
G01 X12.1605 Y19.1454
G01 X12.1436 Y19.1469
G01 X12.1150 Y19.1480
G01 X12.0957 Y19.1477
G01 X12.0666 Y19.1456
G01 X12.0395 Y19.1417
G01 X12.0246 Y19.1389
G01 X12.0106 Y19.1357
G01 X11.9927 Y19.1309
G01 X11.9666 Y19.1225
G01 X11.9398 Y19.1117
G01 X11.9218 Y19.1033
G01 X11.8967 Y19.0898
G01 X11.8825 Y19.0812
G01 X11.8581 Y19.0646
G01 X11.8365 Y19.0476
G01 X11.8150 Y19.0284
G01 X11.8016 Y19.0150
G01 X11.7829 Y18.9941
G01 X11.7700 Y19.0049
G01 X11.7586 Y19.0135
G01 X11.7467 Y19.0219
G01 X11.7346 Y19.0297
G01 X11.7219 Y19.0372
G01 X11.7095 Y19.0439
G01 X11.6967 Y19.0501
G01 X11.6834 Y19.0561
G01 X11.6566 Y19.0661
G01 X11.6423 Y19.0705
G01 X11.6284 Y19.0741
G01 X11.6143 Y19.0772
G01 X11.6003 Y19.0798
G01 X11.5855 Y19.0818
G01 X11.5717 Y19.0833
G01 X11.5574 Y19.0842
G01 X11.5428 Y19.0845
G01 X11.5282 Y19.0843
G01 X11.5138 Y19.0835
G01 X11.4975 Y19.0818
G01 X11.4827 Y19.0798
G01 X11.4687 Y19.0772
G01 X11.4546 Y19.0741
G01 X11.4407 Y19.0705
G01 X11.4264 Y19.0661
G01 X11.3996 Y19.0561
G01 X11.3863 Y19.0501
G01 X11.3735 Y19.0439
G01 X11.3611 Y19.0372
G01 X11.3474 Y19.0291
G01 X11.3363 Y19.0219
G01 X11.3244 Y19.0135
G01 X11.3130 Y19.0049
G01 X11.3017 Y18.9955
G01 X11.2912 Y18.9861
G01 X11.2807 Y18.9759
G01 X11.2709 Y18.9656
G01 X11.2613 Y18.9548
G01 X11.2522 Y18.9436
G01 X11.2434 Y18.9320
G01 X11.2353 Y18.9202
G01 X11.2273 Y18.9077
G01 X11.2202 Y18.8954
G01 X11.2136 Y18.8830
G01 X11.2073 Y18.8699
G01 X11.2009 Y18.8552
G01 X11.1916 Y18.8294
G01 X11.1874 Y18.8154
G01 X11.1835 Y18.8003
G01 X11.1809 Y18.7877
G01 X11.1781 Y18.7716
G01 X11.1753 Y18.7482
G01 X11.1744 Y18.7339
G01 X11.1740 Y18.7183
G01 X11.1742 Y18.7037
G01 X11.1750 Y18.6893
G01 X11.1764 Y18.6750
G01 X11.1782 Y18.6612
G01 X11.1809 Y18.6463
G01 X11.1838 Y18.6327
G01 X11.1871 Y18.6195
G01 X11.1916 Y18.6046
G01 X11.1963 Y18.5907
G01 X11.2013 Y18.5778
G01 X11.2073 Y18.5641
G01 X11.2136 Y18.5510
G01 X11.2202 Y18.5386
G01 X11.2273 Y18.5263
G01 X11.2353 Y18.5138
G01 X11.2434 Y18.5020
G01 X11.2522 Y18.4904
G01 X11.2613 Y18.4792
G01 X11.2724 Y18.4667
G01 X11.2826 Y18.4562
G01 X11.2929 Y18.4464
G01 X11.3037 Y18.4368
G01 X11.3149 Y18.4277
G01 X11.3265 Y18.4189
G01 X11.3383 Y18.4108
G01 X11.3508 Y18.4028
G01 X11.3631 Y18.3957
G01 X11.3755 Y18.3891
G01 X11.3886 Y18.3828
G01 X11.4023 Y18.3768
G01 X11.4152 Y18.3718
G01 X11.4291 Y18.3671
G01 X11.4431 Y18.3629
G01 X11.4572 Y18.3593
G01 X11.4708 Y18.3564
G01 X11.4857 Y18.3537
G01 X11.4995 Y18.3519
G01 X11.5138 Y18.3505
G01 X11.5292 Y18.3497
G00 Z2.0000
G00 X15.1295 Y19.3020
G01 F60.00
G01 Z-0.0000
G01 F120.00
G01 X16.2737 Y19.3020
G01 X16.2836 Y19.3025
G01 X16.2922 Y19.3037
G01 X16.3055 Y19.3069
G01 X16.3182 Y19.3116
G01 X16.3260 Y19.3154
G01 X16.3356 Y19.3211
G01 X16.3464 Y19.3293
G01 X16.3528 Y19.3352
G01 X16.3603 Y19.3435
G01 X16.3682 Y19.3545
G01 X16.3726 Y19.3620
G01 X16.3764 Y19.3698
G01 X16.3811 Y19.3825
G01 X16.3843 Y19.3958
G01 X16.3855 Y19.4044
G01 X16.3860 Y19.4130
G01 X16.3855 Y19.4266
G01 X16.3833 Y19.4400
G01 X16.3811 Y19.4485
G01 X16.3783 Y19.4567
G01 X16.3726 Y19.4690
G01 X16.3655 Y19.4806
G01 X16.3603 Y19.4875
G01 X16.3545 Y19.4940
G01 X16.3445 Y19.5033
G01 X16.3335 Y19.5112
G01 X16.3260 Y19.5156
G01 X16.3171 Y19.5199
G01 X16.3055 Y19.5241
G01 X16.2946 Y19.5269
G01 X16.2836 Y19.5285
G01 X16.2737 Y19.5290
G01 X15.8780 Y19.5290
G01 X15.8780 Y19.7263
G01 X16.3233 Y19.9490
G01 X16.3330 Y19.9544
G01 X16.3421 Y19.9608
G01 X16.3506 Y19.9681
G01 X16.3583 Y19.9761
G01 X16.3651 Y19.9849
G01 X16.3711 Y19.9943
G01 X16.3762 Y20.0042
G01 X16.3802 Y20.0146
G01 X16.3832 Y20.0253
G01 X16.3848 Y20.0339
G01 X16.3860 Y20.0499
G01 X16.3856 Y20.0598
G01 X16.3839 Y20.0720
G01 X16.3817 Y20.0817
G01 X16.3781 Y20.0922
G01 X16.3740 Y20.1013
G01 X16.3679 Y20.1120
G01 X16.3622 Y20.1201
G01 X16.3558 Y20.1277
G01 X16.3450 Y20.1378
G01 X16.3381 Y20.1431
G01 X16.3287 Y20.1491
G01 X16.3188 Y20.1542
G01 X16.3107 Y20.1574
G01 X16.2953 Y20.1617
G01 X16.2867 Y20.1631
G01 X16.2756 Y20.1640
G01 X16.2645 Y20.1637
G01 X16.2558 Y20.1628
G01 X16.2413 Y20.1597
G01 X16.2319 Y20.1565
G01 X16.2217 Y20.1520
G01 X15.8191 Y19.9507
G01 X15.8051 Y19.9728
G01 X15.7952 Y19.9871
G01 X15.7783 Y20.0088
G01 X15.7670 Y20.0217
G01 X15.7584 Y20.0310
G01 X15.7479 Y20.0417
G01 X15.7357 Y20.0530
G01 X15.7228 Y20.0643
G01 X15.7019 Y20.0806
G01 X15.6868 Y20.0911
G01 X15.6647 Y20.1051
G01 X15.6500 Y20.1132
G01 X15.6341 Y20.1213
G01 X15.6100 Y20.1320
G01 X15.5934 Y20.1385
G01 X15.5779 Y20.1437
G01 X15.5503 Y20.1515
G01 X15.5236 Y20.1572
G01 X15.5062 Y20.1599
G01 X15.4894 Y20.1620
G01 X15.4634 Y20.1637
G01 X15.4450 Y20.1640
G01 X15.4181 Y20.1630
G01 X15.3995 Y20.1614
G01 X15.3744 Y20.1579
G01 X15.3563 Y20.1544
G01 X15.3405 Y20.1507
G01 X15.3161 Y20.1437
G01 X15.2973 Y20.1372
G01 X15.2738 Y20.1277
G01 X15.2567 Y20.1198
G01 X15.2334 Y20.1074
G01 X15.2165 Y20.0972
G01 X15.1950 Y20.0827
G01 X15.1798 Y20.0713
G01 X15.1583 Y20.0530
G01 X15.1490 Y20.0444
G01 X15.1383 Y20.0339
G01 X15.1185 Y20.0121
G01 X15.1082 Y19.9994
G01 X15.0968 Y19.9842
G01 X15.0811 Y19.9608
G01 X15.0724 Y19.9462
G01 X15.0591 Y19.9210
G01 X15.0480 Y19.8960
G01 X15.0412 Y19.8784
G01 X15.0366 Y19.8648
G01 X15.0324 Y19.8509
G01 X15.0258 Y19.8246
G01 X15.0221 Y19.8056
G01 X15.0184 Y19.7794
G01 X15.0163 Y19.7503
G01 X15.0160 Y19.7330
G01 X15.0160 Y19.4155
G01 X15.0165 Y19.4044
G01 X15.0184 Y19.3922
G01 X15.0209 Y19.3825
G01 X15.0246 Y19.3721
G01 X15.0294 Y19.3620
G01 X15.0338 Y19.3545
G01 X15.0433 Y19.3416
G01 X15.0492 Y19.3352
G01 X15.0575 Y19.3277
G01 X15.0664 Y19.3211
G01 X15.0760 Y19.3154
G01 X15.0861 Y19.3106
G01 X15.0942 Y19.3076
G01 X15.1098 Y19.3037
G01 X15.1184 Y19.3025
G01 X15.1295 Y19.3020
G00 Z2.0000
G00 X15.6510 Y19.5290
G01 F60.00
G01 Z-0.0000
G01 F120.00
G01 X15.6510 Y19.7320
G01 X15.6508 Y19.7400
G01 X15.6498 Y19.7544
G01 X15.6478 Y19.7686
G01 X15.6450 Y19.7821
G01 X15.6409 Y19.7963
G01 X15.6362 Y19.8093
G01 X15.6304 Y19.8222
G01 X15.6236 Y19.8351
G01 X15.6118 Y19.8531
G01 X15.6035 Y19.8637
G01 X15.5933 Y19.8751
G01 X15.5777 Y19.8895
G01 X15.5671 Y19.8978
G01 X15.5491 Y19.9096
G01 X15.5301 Y19.9193
G01 X15.5166 Y19.9247
G01 X15.5103 Y19.9269
G01 X15.4895 Y19.9325
G01 X15.4684 Y19.9358
G01 X15.4470 Y19.9369
G01 X15.4256 Y19.9358
G01 X15.4045 Y19.9325
G01 X15.3837 Y19.9269
G01 X15.3707 Y19.9222
G01 X15.3578 Y19.9164
G01 X15.3392 Y19.9061
G01 X15.3215 Y19.8938
G01 X15.3049 Y19.8793
G01 X15.2905 Y19.8637
G01 X15.2822 Y19.8531
G01 X15.2737 Y19.8406
G01 X15.2670 Y19.8289
G01 X15.2607 Y19.8161
G01 X15.2553 Y19.8026
G01 X15.2490 Y19.7821
G01 X15.2462 Y19.7686
G01 X15.2442 Y19.7544
G01 X15.2432 Y19.7400
G01 X15.2430 Y19.7320
G01 X15.2430 Y19.5290
G01 X15.6510 Y19.5290
G00 Z2.0000
G00 X16.5908 Y19.8600
G01 F60.00
G01 Z-0.0000
G01 F120.00
G01 X16.5908 Y19.4765
G01 X16.5912 Y19.4614
G01 X16.5932 Y19.4365
G01 X16.5951 Y19.4215
G01 X16.5984 Y19.4035
G01 X16.6016 Y19.3889
G01 X16.6057 Y19.3736
G01 X16.6103 Y19.3587
G01 X16.6186 Y19.3362
G01 X16.6252 Y19.3210
G01 X16.6317 Y19.3075
G01 X16.6453 Y19.2829
G01 X16.6541 Y19.2689
G01 X16.6625 Y19.2568
G01 X16.6715 Y19.2447
G01 X16.6810 Y19.2331
G01 X16.6927 Y19.2199
G01 X16.7033 Y19.2090
G01 X16.7139 Y19.1989
G01 X16.7259 Y19.1883
G01 X16.7367 Y19.1795
G01 X16.7488 Y19.1705
G01 X16.7710 Y19.1556
G01 X16.7842 Y19.1478
G01 X16.7970 Y19.1409
G01 X16.8102 Y19.1345
G01 X16.8230 Y19.1287
G01 X16.8383 Y19.1227
G01 X16.8507 Y19.1183
G01 X16.8703 Y19.1123
G01 X16.8840 Y19.1089
G01 X16.8980 Y19.1059
G01 X16.9135 Y19.1031
G01 X16.9277 Y19.1013
G01 X16.9534 Y19.0992
G01 X16.9710 Y19.0988
G01 X17.5052 Y19.0988
G01 X17.5053 Y18.3589
G01 X17.5062 Y18.3516
G01 X17.5086 Y18.3434
G01 X17.5123 Y18.3357
G01 X17.5173 Y18.3287
G01 X17.5235 Y18.3227
G01 X17.5306 Y18.3179
G01 X17.5384 Y18.3143
G01 X17.5454 Y18.3124
G01 X17.5552 Y18.3114
G01 X18.1648 Y18.3114
G01 X18.1721 Y18.3119
G01 X18.1793 Y18.3136
G01 X18.1862 Y18.3162
G01 X18.1926 Y18.3198
G01 X18.1975 Y18.3235
G01 X18.2018 Y18.3278
G01 X18.2057 Y18.3326
G01 X18.2089 Y18.3378
G01 X18.2114 Y18.3434
G01 X18.2130 Y18.3481
G01 X18.2143 Y18.3541
G01 X18.2148 Y18.3602
G01 X18.2148 Y19.0988
G01 X18.7615 Y19.0990
G01 X18.7815 Y19.1002
G01 X18.7947 Y19.1016
G01 X18.8113 Y19.1039
G01 X18.8391 Y19.1096
G01 X18.8651 Y19.1169
G01 X18.8918 Y19.1266
G01 X18.9070 Y19.1332
G01 X18.9205 Y19.1397
G01 X18.9326 Y19.1460
G01 X18.9500 Y19.1562
G01 X18.9614 Y19.1636
G01 X18.9738 Y19.1723
G01 X18.9941 Y19.1883
G01 X19.0087 Y19.2014
G01 X19.0273 Y19.2199
G01 X19.0397 Y19.2339
G01 X19.0485 Y19.2447
G01 X19.0575 Y19.2568
G01 X19.0718 Y19.2780
G01 X19.0820 Y19.2954
G01 X19.0931 Y19.3173
G01 X19.1014 Y19.3362
G01 X19.1111 Y19.3629
G01 X19.1184 Y19.3889
G01 X19.1241 Y19.4167
G01 X19.1264 Y19.4333
G01 X19.1282 Y19.4515
G01 X19.1292 Y19.4765
G01 X19.1292 Y19.8600
G01 X19.1286 Y19.8724
G01 X19.1270 Y19.8834
G01 X19.1238 Y19.8966
G01 X19.1186 Y19.9106
G01 X19.1143 Y19.9195
G01 X19.1093 Y19.9281
G01 X19.1006 Y19.9401
G01 X19.0923 Y19.9493
G01 X19.0022 Y20.0393
G01 X19.0022 Y24.7607
G01 X19.0923 Y24.8507
G01 X19.1006 Y24.8599
G01 X19.1093 Y24.8719
G01 X19.1143 Y24.8805
G01 X19.1186 Y24.8894
G01 X19.1238 Y24.9034
G01 X19.1268 Y24.9154
G01 X19.1286 Y24.9276
G01 X19.1292 Y24.9400
G01 X19.1292 Y25.3210
G01 X19.1290 Y25.3345
G01 X19.1282 Y25.3485
G01 X19.1263 Y25.3675
G01 X19.1243 Y25.3821
G01 X19.1221 Y25.3940
G01 X19.1191 Y25.4080
G01 X19.1157 Y25.4217
G01 X19.1097 Y25.4413
G01 X19.0997 Y25.4680
G01 X19.0883 Y25.4925
G01 X19.0747 Y25.5171
G01 X19.0639 Y25.5342
G01 X19.0557 Y25.5458
G01 X19.0467 Y25.5575
G01 X19.0291 Y25.5781
G01 X19.0190 Y25.5887
G01 X19.0087 Y25.5986
G01 X18.9941 Y25.6117
G01 X18.9833 Y25.6205
G01 X18.9712 Y25.6295
G01 X18.9490 Y25.6444
G01 X18.9358 Y25.6522
G01 X18.9238 Y25.6587
G01 X18.9061 Y25.6673
G01 X18.8928 Y25.6730
G01 X18.8795 Y25.6781
G01 X18.8651 Y25.6831
G01 X18.8506 Y25.6874
G01 X18.8360 Y25.6911
G01 X18.8220 Y25.6941
G01 X18.8065 Y25.6969
G01 X18.7923 Y25.6987
G01 X18.7775 Y25.7001
G01 X18.7625 Y25.7010
G01 X18.2148 Y25.7012
G01 X18.2147 Y26.4411
G01 X18.2138 Y26.4484
G01 X18.2114 Y26.4566
G01 X18.2083 Y26.4632
G01 X18.2035 Y26.4703
G01 X18.1984 Y26.4756
G01 X18.1915 Y26.4808
G01 X18.1851 Y26.4843
G01 X18.1769 Y26.4871
G01 X18.1709 Y26.4882
G01 X18.1648 Y26.4886
G01 X17.5552 Y26.4886
G01 X17.5479 Y26.4881
G01 X17.5407 Y26.4864
G01 X17.5338 Y26.4838
G01 X17.5274 Y26.4802
G01 X17.5225 Y26.4765
G01 X17.5182 Y26.4722
G01 X17.5143 Y26.4674
G01 X17.5111 Y26.4622
G01 X17.5086 Y26.4566
G01 X17.5070 Y26.4519
G01 X17.5057 Y26.4459
G01 X17.5052 Y26.4398
G01 X17.5052 Y25.7012
G01 X16.9585 Y25.7010
G01 X16.9385 Y25.6998
G01 X16.9253 Y25.6984
G01 X16.9087 Y25.6961
G01 X16.8809 Y25.6904
G01 X16.8549 Y25.6831
G01 X16.8282 Y25.6734
G01 X16.8130 Y25.6668
G01 X16.7995 Y25.6603
G01 X16.7874 Y25.6540
G01 X16.7700 Y25.6438
G01 X16.7586 Y25.6364
G01 X16.7462 Y25.6277
G01 X16.7259 Y25.6117
G01 X16.7113 Y25.5986
G01 X16.6927 Y25.5801
G01 X16.6803 Y25.5661
G01 X16.6715 Y25.5553
G01 X16.6625 Y25.5432
G01 X16.6482 Y25.5220
G01 X16.6380 Y25.5046
G01 X16.6269 Y25.4827
G01 X16.6186 Y25.4638
G01 X16.6089 Y25.4371
G01 X16.6016 Y25.4111
G01 X16.5959 Y25.3833
G01 X16.5936 Y25.3667
G01 X16.5918 Y25.3485
G01 X16.5908 Y25.3235
G01 X16.5908 Y24.9400
G01 X16.5914 Y24.9276
G01 X16.5930 Y24.9166
G01 X16.5962 Y24.9034
G01 X16.6014 Y24.8894
G01 X16.6057 Y24.8805
G01 X16.6107 Y24.8719
G01 X16.6194 Y24.8599
G01 X16.6277 Y24.8507
G01 X16.7178 Y24.7607
G01 X16.7178 Y20.0393
G01 X16.6269 Y19.9484
G01 X16.6194 Y19.9401
G01 X16.6127 Y19.9311
G01 X16.6046 Y19.9173
G01 X16.6004 Y19.9083
G01 X16.5962 Y19.8966
G01 X16.5932 Y19.8846
G01 X16.5917 Y19.8748
G01 X16.5908 Y19.8600
G00 Z2.0000
G00 X16.8432 Y19.4803
G01 F60.00
G01 Z-0.0000
G01 F120.00
G01 X16.8437 Y19.4692
G01 X16.8448 Y19.4589
G01 X16.8480 Y19.4443
G01 X16.8511 Y19.4348
G01 X16.8548 Y19.4258
G01 X16.8621 Y19.4122
G01 X16.8676 Y19.4039
G01 X16.8772 Y19.3923
G01 X16.8881 Y19.3818
G01 X16.8959 Y19.3756
G01 X16.9042 Y19.3701
G01 X16.9178 Y19.3628
G01 X16.9317 Y19.3574
G01 X16.9410 Y19.3548
G01 X16.9509 Y19.3528
G01 X16.9661 Y19.3514
G01 X18.7539 Y19.3514
G01 X18.7691 Y19.3528
G01 X18.7790 Y19.3548
G01 X18.7883 Y19.3574
G01 X18.7980 Y19.3610
G01 X18.8068 Y19.3651
G01 X18.8158 Y19.3701
G01 X18.8241 Y19.3756
G01 X18.8319 Y19.3818
G01 X18.8393 Y19.3887
G01 X18.8462 Y19.3961
G01 X18.8524 Y19.4039
G01 X18.8579 Y19.4122
G01 X18.8629 Y19.4212
G01 X18.8670 Y19.4300
G01 X18.8706 Y19.4397
G01 X18.8732 Y19.4490
G01 X18.8752 Y19.4589
G01 X18.8763 Y19.4692
G01 X18.8768 Y19.4803
G01 X18.8768 Y19.8077
G01 X18.7859 Y19.8986
G01 X18.7784 Y19.9069
G01 X18.7717 Y19.9159
G01 X18.7636 Y19.9297
G01 X18.7594 Y19.9387
G01 X18.7552 Y19.9504
G01 X18.7518 Y19.9648
G01 X18.7504 Y19.9746
G01 X18.7498 Y19.9858
G01 X18.7498 Y24.8142
G01 X18.7504 Y24.8254
G01 X18.7518 Y24.8352
G01 X18.7552 Y24.8496
G01 X18.7594 Y24.8613
G01 X18.7636 Y24.8703
G01 X18.7717 Y24.8841
G01 X18.7784 Y24.8931
G01 X18.7859 Y24.9014
G01 X18.8768 Y24.9923
G01 X18.8768 Y25.3197
G01 X18.8763 Y25.3308
G01 X18.8743 Y25.3459
G01 X18.8706 Y25.3603
G01 X18.8652 Y25.3742
G01 X18.8579 Y25.3878
G01 X18.8524 Y25.3961
G01 X18.8462 Y25.4039
G01 X18.8393 Y25.4113
G01 X18.8319 Y25.4182
G01 X18.8199 Y25.4272
G01 X18.8116 Y25.4323
G01 X18.8022 Y25.4372
G01 X18.7883 Y25.4426
G01 X18.7790 Y25.4452
G01 X18.7691 Y25.4472
G01 X18.7588 Y25.4483
G01 X18.7477 Y25.4488
G01 X16.9661 Y25.4486
G01 X16.9509 Y25.4472
G01 X16.9410 Y25.4452
G01 X16.9317 Y25.4426
G01 X16.9220 Y25.4390
G01 X16.9132 Y25.4349
G01 X16.9042 Y25.4299
G01 X16.8959 Y25.4244
G01 X16.8881 Y25.4182
G01 X16.8807 Y25.4113
G01 X16.8738 Y25.4039
G01 X16.8676 Y25.3961
G01 X16.8621 Y25.3878
G01 X16.8571 Y25.3788
G01 X16.8530 Y25.3700
G01 X16.8494 Y25.3603
G01 X16.8468 Y25.3510
G01 X16.8448 Y25.3411
G01 X16.8437 Y25.3308
G01 X16.8432 Y25.3197
G01 X16.8432 Y24.9923
G01 X16.9341 Y24.9014
G01 X16.9416 Y24.8931
G01 X16.9483 Y24.8841
G01 X16.9564 Y24.8703
G01 X16.9606 Y24.8613
G01 X16.9648 Y24.8496
G01 X16.9682 Y24.8352
G01 X16.9696 Y24.8254
G01 X16.9702 Y24.8142
G01 X16.9702 Y19.9870
G01 X16.9693 Y19.9722
G01 X16.9678 Y19.9624
G01 X16.9648 Y19.9504
G01 X16.9606 Y19.9387
G01 X16.9564 Y19.9297
G01 X16.9483 Y19.9159
G01 X16.9416 Y19.9069
G01 X16.9341 Y19.8986
G01 X16.8432 Y19.8077
G01 X16.8432 Y19.4803
G00 Z2.0000
G00 X15.4128 Y21.0717
G01 F60.00
G01 Z-0.0000
G01 F120.00
G01 X15.4290 Y21.0711
G01 X15.4426 Y21.0698
G01 X15.4556 Y21.0674
G01 X15.4756 Y21.0620
G01 X15.4881 Y21.0574
G01 X15.5070 Y21.0485
G01 X15.5182 Y21.0420
G01 X15.5353 Y21.0299
G01 X15.5456 Y21.0212
G01 X15.5640 Y21.0035
G01 X16.1990 Y20.4637
G01 X16.2079 Y20.4569
G01 X16.2153 Y20.4522
G01 X16.2263 Y20.4465
G01 X16.2368 Y20.4424
G01 X16.2488 Y20.4392
G01 X16.2587 Y20.4375
G01 X16.2711 Y20.4367
G01 X16.2811 Y20.4370
G01 X16.2923 Y20.4384
G01 X16.3020 Y20.4406
G01 X16.3173 Y20.4459
G01 X16.3263 Y20.4502
G01 X16.3369 Y20.4567
G01 X16.3449 Y20.4627
G01 X16.3532 Y20.4703
G01 X16.3607 Y20.4787
G01 X16.3679 Y20.4888
G01 X16.3724 Y20.4963
G01 X16.3762 Y20.5042
G01 X16.3811 Y20.5170
G01 X16.3842 Y20.5303
G01 X16.3855 Y20.5390
G01 X16.3860 Y20.5490
G01 X16.3860 Y21.1877
G01 X16.3855 Y21.1963
G01 X16.3843 Y21.2049
G01 X16.3815 Y21.2170
G01 X16.3774 Y21.2286
G01 X16.3720 Y21.2398
G01 X16.3669 Y21.2483
G01 X16.3618 Y21.2553
G01 X16.3536 Y21.2646
G01 X16.3445 Y21.2730
G01 X16.3335 Y21.2809
G01 X16.3260 Y21.2853
G01 X16.3182 Y21.2891
G01 X16.3078 Y21.2931
G01 X16.2958 Y21.2963
G01 X16.2848 Y21.2980
G01 X16.2725 Y21.2987
G01 X16.2614 Y21.2982
G01 X16.2504 Y21.2966
G01 X16.2384 Y21.2935
G01 X16.2279 Y21.2896
G01 X16.2168 Y21.2841
G01 X16.2094 Y21.2796
G01 X16.2024 Y21.2745
G01 X16.1931 Y21.2663
G01 X16.1847 Y21.2572
G01 X16.1781 Y21.2483
G01 X16.1724 Y21.2387
G01 X16.1667 Y21.2264
G01 X16.1639 Y21.2182
G01 X16.1611 Y21.2073
